(Exported by FreeCAD)
(Post Processor: grbl_post)
(Output Time:2021-02-01 14:45:27.095704)
(Begin preamble)
G17 G90
G21
(Begin operation: 3.175*12mm_Single_Flute003)
(Path: 3.175*12mm_Single_Flute003)
(3.175*12mm_Single_Flute003)
(Begin toolchange)
( M6 T2.0 )
M3 S18000.0
(Finish operation: 3.175*12mm_Single_Flute003)
(Begin operation: Fixture)
(Path: Fixture)
G54
G0 Z5.000
(Finish operation: Fixture)
(Begin operation: MillFace001)
(Path: MillFace001)
(MillFace001)
G0 Z5.000
G0 X0.000 Y0.000
G0 X0.489
G0 X0.489 Z3.000
G1 X0.489 Y0.000 Z-0.500 F1500
G1 X0.489 Y-30.489 Z-0.500 F2500
G1 X-0.490 Y-30.489 Z-0.500 F2500
G1 X-0.490 Y30.489 Z-0.500 F2500
G1 X0.489 Y30.489 Z-0.500 F2500
G1 X0.489 Y0.000 Z-0.500 F2500
G1 X1.282 Y0.000 Z-0.500 F1500
G1 X1.282 Y-31.282 Z-0.500 F2500
G1 X-1.282 Y-31.282 Z-0.500 F2500
G1 X-1.282 Y31.282 Z-0.500 F2500
G1 X1.282 Y31.282 Z-0.500 F2500
G1 X1.282 Y0.000 Z-0.500 F2500
G1 X3.501 Y0.000 Z-0.500 F1500
G1 X3.501 Y-33.501 Z-0.500 F2500
G1 X-3.501 Y-33.501 Z-0.500 F2500
G1 X-3.501 Y33.501 Z-0.500 F2500
G1 X3.501 Y33.501 Z-0.500 F2500
G1 X3.501 Y0.000 Z-0.500 F2500
G1 X5.720 Y0.000 Z-0.500 F1500
G1 X5.720 Y-35.720 Z-0.500 F2500
G1 X-5.720 Y-35.720 Z-0.500 F2500
G1 X-5.720 Y35.720 Z-0.500 F2500
G1 X5.720 Y35.720 Z-0.500 F2500
G1 X5.720 Y0.000 Z-0.500 F2500
G1 X7.939 Y0.000 Z-0.500 F1500
G1 X7.939 Y-37.939 Z-0.500 F2500
G1 X-7.939 Y-37.939 Z-0.500 F2500
G1 X-7.939 Y37.939 Z-0.500 F2500
G1 X7.939 Y37.939 Z-0.500 F2500
G1 X7.939 Y0.000 Z-0.500 F2500
G1 X10.158 Y0.000 Z-0.500 F1500
G1 X10.158 Y-40.158 Z-0.500 F2500
G1 X-10.158 Y-40.158 Z-0.500 F2500
G1 X-10.158 Y40.158 Z-0.500 F2500
G1 X10.158 Y40.158 Z-0.500 F2500
G1 X10.158 Y0.000 Z-0.500 F2500
G1 X12.377 Y0.000 Z-0.500 F1500
G1 X12.377 Y-42.377 Z-0.500 F2500
G1 X-12.377 Y-42.377 Z-0.500 F2500
G1 X-12.377 Y42.377 Z-0.500 F2500
G1 X12.377 Y42.377 Z-0.500 F2500
G1 X12.377 Y0.000 Z-0.500 F2500
G1 X14.596 Y0.000 Z-0.500 F1500
G1 X14.596 Y-44.596 Z-0.500 F2500
G1 X-14.596 Y-44.596 Z-0.500 F2500
G1 X-14.596 Y44.596 Z-0.500 F2500
G1 X14.596 Y44.596 Z-0.500 F2500
G1 X14.596 Y0.000 Z-0.500 F2500
G1 X16.815 Y0.000 Z-0.500 F1500
G1 X16.815 Y-46.815 Z-0.500 F2500
G1 X-16.815 Y-46.815 Z-0.500 F2500
G1 X-16.815 Y46.815 Z-0.500 F2500
G1 X16.815 Y46.815 Z-0.500 F2500
G1 X16.815 Y0.000 Z-0.500 F2500
G1 X19.034 Y0.000 Z-0.500 F1500
G1 X19.034 Y-49.034 Z-0.500 F2500
G1 X-19.034 Y-49.034 Z-0.500 F2500
G1 X-19.034 Y49.034 Z-0.500 F2500
G1 X19.034 Y49.034 Z-0.500 F2500
G1 X19.034 Y0.000 Z-0.500 F2500
G1 X21.253 Y0.000 Z-0.500 F1500
G1 X21.253 Y-51.253 Z-0.500 F2500
G1 X-21.253 Y-51.253 Z-0.500 F2500
G1 X-21.253 Y51.253 Z-0.500 F2500
G1 X21.253 Y51.253 Z-0.500 F2500
G1 X21.253 Y0.000 Z-0.500 F2500
G1 X23.472 Y0.000 Z-0.500 F1500
G1 X23.472 Y-53.472 Z-0.500 F2500
G1 X-23.472 Y-53.472 Z-0.500 F2500
G1 X-23.472 Y53.472 Z-0.500 F2500
G1 X23.472 Y53.472 Z-0.500 F2500
G1 X23.472 Y0.000 Z-0.500 F2500
G1 X25.691 Y0.000 Z-0.500 F1500
G1 X25.691 Y-55.691 Z-0.500 F2500
G1 X-25.691 Y-55.691 Z-0.500 F2500
G1 X-25.691 Y55.691 Z-0.500 F2500
G1 X25.691 Y55.691 Z-0.500 F2500
G1 X25.691 Y0.000 Z-0.500 F2500
G1 X27.910 Y0.000 Z-0.500 F1500
G1 X27.910 Y-57.910 Z-0.500 F2500
G1 X-27.910 Y-57.910 Z-0.500 F2500
G1 X-27.910 Y57.910 Z-0.500 F2500
G1 X27.910 Y57.910 Z-0.500 F2500
G1 X27.910 Y0.000 Z-0.500 F2500
G1 X30.129 Y0.000 Z-0.500 F1500
G1 X30.129 Y-60.129 Z-0.500 F2500
G1 X-30.129 Y-60.129 Z-0.500 F2500
G1 X-30.129 Y60.129 Z-0.500 F2500
G1 X30.129 Y60.129 Z-0.500 F2500
G1 X30.129 Y0.000 Z-0.500 F2500
G1 X32.348 Y0.000 Z-0.500 F1500
G1 X32.348 Y-62.348 Z-0.500 F2500
G1 X-32.348 Y-62.348 Z-0.500 F2500
G1 X-32.348 Y62.348 Z-0.500 F2500
G1 X32.348 Y62.348 Z-0.500 F2500
G1 X32.348 Y0.000 Z-0.500 F2500
G1 X34.567 Y0.000 Z-0.500 F1500
G1 X34.567 Y-64.567 Z-0.500 F2500
G1 X-34.567 Y-64.567 Z-0.500 F2500
G1 X-34.567 Y64.567 Z-0.500 F2500
G1 X34.567 Y64.567 Z-0.500 F2500
G1 X34.567 Y0.000 Z-0.500 F2500
G1 X36.786 Y0.000 Z-0.500 F1500
G1 X36.786 Y-66.786 Z-0.500 F2500
G1 X-36.786 Y-66.786 Z-0.500 F2500
G1 X-36.786 Y66.786 Z-0.500 F2500
G1 X36.786 Y66.786 Z-0.500 F2500
G1 X36.786 Y0.000 Z-0.500 F2500
G1 X39.005 Y0.000 Z-0.500 F1500
G1 X39.005 Y-69.005 Z-0.500 F2500
G1 X-39.005 Y-69.005 Z-0.500 F2500
G1 X-39.005 Y69.005 Z-0.500 F2500
G1 X39.005 Y69.005 Z-0.500 F2500
G1 X39.005 Y0.000 Z-0.500 F2500
G1 X41.224 Y0.000 Z-0.500 F1500
G1 X41.224 Y-71.224 Z-0.500 F2500
G1 X-41.224 Y-71.224 Z-0.500 F2500
G1 X-41.224 Y71.224 Z-0.500 F2500
G1 X41.224 Y71.224 Z-0.500 F2500
G1 X41.224 Y0.000 Z-0.500 F2500
G1 X43.443 Y0.000 Z-0.500 F1500
G1 X43.443 Y-73.443 Z-0.500 F2500
G1 X-43.443 Y-73.443 Z-0.500 F2500
G1 X-43.443 Y73.443 Z-0.500 F2500
G1 X43.443 Y73.443 Z-0.500 F2500
G1 X43.443 Y0.000 Z-0.500 F2500
G1 X45.662 Y0.000 Z-0.500 F1500
G1 X45.662 Y-75.662 Z-0.500 F2500
G1 X-45.662 Y-75.662 Z-0.500 F2500
G1 X-45.662 Y75.662 Z-0.500 F2500
G1 X45.662 Y75.662 Z-0.500 F2500
G1 X45.662 Y0.000 Z-0.500 F2500
G1 X47.881 Y0.000 Z-0.500 F1500
G1 X47.881 Y-77.881 Z-0.500 F2500
G1 X-47.881 Y-77.881 Z-0.500 F2500
G1 X-47.881 Y77.881 Z-0.500 F2500
G1 X47.881 Y77.881 Z-0.500 F2500
G1 X47.881 Y0.000 Z-0.500 F2500
G1 X50.100 Y0.000 Z-0.500 F1500
G1 X50.100 Y-80.100 Z-0.500 F2500
G1 X-50.100 Y-80.100 Z-0.500 F2500
G1 X-50.100 Y80.100 Z-0.500 F2500
G1 X50.100 Y80.100 Z-0.500 F2500
G1 X50.100 Y0.000 Z-0.500 F2500
G0 Z5.000
G0 Z5.000
(Finish operation: MillFace001)
(Begin operation: Pocket_3D001)
(Path: Pocket_3D001)
(Pocket_3D001)
G0 Z5.000
G0 X30.890 Y60.758
G0 Z3.000
G1 X30.890 Y60.758 Z-1.830 F1500
G1 X28.239 Y63.409 Z-1.830 F2500
G3 X25.206 Y64.665 Z-1.830 I-2.997 J-2.946 F2500
G1 X-25.206 Y64.665 Z-1.830 F2500
G3 X-28.239 Y63.409 Z-1.830 I-0.036 J-4.203 F2500
G1 X-30.890 Y60.758 Z-1.830 F2500
G2 X-28.417 Y49.372 Z-1.830 I0.890 J-5.768 F2500
G3 X-28.500 Y49.200 Z-1.830 I0.071 J-0.140 F2500
G2 X-35.665 Y44.542 Z-1.830 I-3.996 J-1.692 F2500
G1 X-35.665 Y10.461 Z-1.830 F2500
G2 X-30.077 Y11.107 Z-1.830 I3.176 J-2.979 F2500
G3 X-29.830 Y11.241 Z-1.830 I0.063 J0.177 F2500
G2 X-27.311 Y15.603 Z-1.830 I178.960 J-100.440 F2500
G2 X-22.096 Y16.968 Z-1.830 I3.299 J-1.960 F2500
G1 X-12.569 Y11.468 Z-1.830 F2500
G2 X-11.166 Y6.230 Z-1.830 I-1.918 J-3.321 F2500
G1 X-15.666 Y-1.565 Z-1.830 F2500
G2 X-20.904 Y-2.968 Z-1.830 I-3.321 J1.918 F2500
G1 X-23.983 Y-1.191 Z-1.830 F2500
G3 X-24.285 Y-1.229 Z-1.830 I-0.138 J-0.119 F2500
G2 X-35.665 Y-1.359 Z-1.830 I-5.705 J1.230 F2500
G1 X-35.665 Y-44.542 Z-1.830 F2500
G2 X-28.500 Y-49.200 Z-1.830 I3.169 J-2.965 F2500
G3 X-28.417 Y-49.372 Z-1.830 I0.154 J-0.032 F2500
G2 X-30.890 Y-60.758 Z-1.830 I-1.581 J-5.618 F2500
G1 X-28.239 Y-63.409 Z-1.830 F2500
G3 X-25.206 Y-64.665 Z-1.830 I2.997 J2.946 F2500
G1 X25.206 Y-64.665 Z-1.830 F2500
G3 X28.239 Y-63.409 Z-1.830 I0.036 J4.203 F2500
G1 X30.890 Y-60.758 Z-1.830 F2500
G2 X28.417 Y-49.372 Z-1.830 I-0.890 J5.768 F2500
G3 X28.500 Y-49.200 Z-1.830 I-0.071 J0.140 F2500
G2 X35.665 Y-44.542 Z-1.830 I3.996 J1.692 F2500
G1 X35.665 Y-1.359 Z-1.830 F2500
G2 X24.285 Y-1.229 Z-1.830 I-5.675 J1.361 F2500
G3 X23.983 Y-1.191 Z-1.830 I-0.164 J-0.085 F2500
G2 X20.865 Y-2.990 Z-1.830 I-74.885 J126.149 F2500
G2 X15.666 Y-1.565 Z-1.830 I-1.877 J3.347 F2500
G1 X11.166 Y6.230 Z-1.830 F2500
G2 X12.569 Y11.468 Z-1.830 I3.321 J1.918 F2500
G1 X22.096 Y16.968 Z-1.830 F2500
G2 X27.334 Y15.565 Z-1.830 I1.917 J-3.321 F2500
G1 X29.830 Y11.241 Z-1.830 F2500
G3 X30.077 Y11.107 Z-1.830 I0.183 J0.043 F2500
G2 X35.665 Y10.461 Z-1.830 I2.412 J-3.629 F2500
G1 X35.665 Y44.542 Z-1.830 F2500
G2 X28.500 Y49.200 Z-1.830 I-3.169 J2.965 F2500
G3 X28.417 Y49.372 Z-1.830 I-0.154 J0.032 F2500
G2 X30.890 Y60.758 Z-1.830 I1.581 J5.618 F2500
G0 Z5.000
G0 X25.206 Y64.665 Z5.000
G0 X25.206 Y64.665 Z3.000
G1 X25.206 Y64.665 Z-1.830 F1500
G1 X-25.206 Y64.665 Z-1.830 F2500
G3 X-28.239 Y63.409 Z-1.830 I-0.036 J-4.203 F2500
G1 X-29.519 Y62.129 Z-1.830 F2500
G1 X29.519 Y62.129 Z-1.830 F2500
G1 X30.890 Y60.758 Z-1.830 F2500
G3 X26.417 Y59.593 Z-1.830 I-0.908 J-5.685 F2500
G1 X-26.417 Y59.593 Z-1.830 F2500
G2 X-24.548 Y57.057 Z-1.830 I-3.466 J-4.511 F2500
G1 X24.548 Y57.057 Z-1.830 F2500
G3 X24.194 Y54.521 Z-1.830 I5.119 J-2.005 F2500
G1 X-24.194 Y54.521 Z-1.830 F2500
G2 X-25.013 Y51.985 Z-1.830 I-5.511 J0.379 F2500
G1 X25.013 Y51.985 Z-1.830 F2500
G3 X28.220 Y49.449 Z-1.830 I4.925 J2.932 F2500
G1 X-28.220 Y49.449 Z-1.830 F2500
G3 X-28.494 Y49.287 Z-1.830 I-0.003 J-0.309 F2500
G3 X-28.442 Y49.012 Z-1.830 I0.314 J-0.083 F2500
G2 X-28.205 Y46.913 Z-1.830 I-4.027 J-1.517 F2500
G1 X-3.622 Y46.913 Z-1.830 F2500
G3 X-9.202 Y44.377 Z-1.830 I3.518 J-15.148 F2500
G1 X-29.498 Y44.377 Z-1.830 F2500
G2 X-35.493 Y44.377 Z-1.830 I-2.997 J3.104 F2500
G1 X-35.665 Y44.377 Z-1.830 F2500
G1 X-35.665 Y41.841 Z-1.830 F2500
G1 X-11.979 Y41.841 Z-1.830 F2500
G3 X-13.774 Y39.305 Z-1.830 I11.020 J-9.704 F2500
G1 X-35.665 Y39.305 Z-1.830 F2500
G1 X-35.665 Y36.769 Z-1.830 F2500
G1 X-14.922 Y36.769 Z-1.830 F2500
G3 X-15.589 Y34.233 Z-1.830 I12.820 J-4.725 F2500
G1 X-35.665 Y34.233 Z-1.830 F2500
G1 X-35.665 Y31.697 Z-1.830 F2500
G1 X-15.829 Y31.697 Z-1.830 F2500
G3 X-15.661 Y29.161 Z-1.830 I15.204 J-0.268 F2500
G1 X-35.665 Y29.161 Z-1.830 F2500
G1 X-35.665 Y26.625 Z-1.830 F2500
G1 X-15.060 Y26.625 Z-1.830 F2500
G3 X-13.983 Y24.089 Z-1.830 I12.935 J3.999 F2500
G1 X-35.665 Y24.089 Z-1.830 F2500
G1 X-35.665 Y21.553 Z-1.830 F2500
G1 X-12.318 Y21.553 Z-1.830 F2500
G3 X-9.736 Y19.017 Z-1.830 I11.938 J9.573 F2500
G1 X-35.665 Y19.017 Z-1.830 F2500
G1 X-35.665 Y16.481 Z-1.830 F2500
G1 X-26.583 Y16.481 Z-1.830 F2500
G3 X-27.334 Y15.565 Z-1.830 I2.565 J-2.868 F2500
G1 X-28.269 Y13.945 Z-1.830 F2500
G1 X-35.665 Y13.945 Z-1.830 F2500
G1 X-35.665 Y11.409 Z-1.830 F2500
G1 X-34.365 Y11.409 Z-1.830 F2500
G3 X-35.665 Y10.461 Z-1.830 I1.816 J-3.855 F2500
G1 X-35.665 Y11.409 Z-1.830 F2500
G0 Z5.000
G0 X-30.636 Z5.000
G0 X-30.636 Z3.000
G1 X-30.636 Y11.409 Z-1.830 F1500
G1 X-29.734 Y11.409 Z-1.830 F2500
G2 X-29.939 Y11.114 Z-1.830 I-0.535 J0.153 F2500
G2 X-30.077 Y11.107 Z-1.830 I-0.076 J0.138 F2500
G3 X-30.636 Y11.409 Z-1.830 I-7.258 J-12.755 F2500
G0 Z5.000
G0 X-35.665 Y4.551 Z5.000
G0 X-35.665 Y4.551 Z3.000
G1 X-35.665 Y4.551 Z-1.830 F1500
G1 X-35.665 Y1.396 Z-1.830 F2500
G2 X-34.632 Y3.580 Z-1.830 I6.384 J-1.684 F2500
G1 X-34.627 Y3.609 Z-1.830 F2500
G3 X-34.680 Y3.740 Z-1.830 I-0.156 J0.013 F2500
G2 X-35.665 Y4.551 Z-1.830 I2.149 J3.617 F2500
G0 Z5.000
G0 Y3.801 Z5.000
G0 Y3.801 Z3.000
G1 X-35.665 Y3.801 Z-1.830 F1500
G1 X-35.665 Y4.551 Z-1.830 F2500
G3 X-34.764 Y3.801 Z-1.830 I3.020 J2.714 F2500
G2 X-34.632 Y3.580 Z-1.830 I-0.055 J-0.182 F2500
G3 X-35.665 Y1.396 Z-1.830 I5.352 J-3.867 F2500
G1 X-35.665 Y3.801 Z-1.830 F2500
G1 X-34.764 Y3.801 Z-1.830 F2500
G0 Z5.000
G0 X-34.420 Y-3.807 Z5.000
G0 X-34.420 Y-3.807 Z3.000
G1 X-34.420 Y-3.807 Z-1.830 F1500
G2 X-35.665 Y-1.359 Z-1.830 I4.248 J3.702 F2500
G1 X-35.665 Y-3.807 Z-1.830 F2500
G1 X-34.420 Y-3.807 Z-1.830 F2500
G3 X-25.590 Y-3.807 Z-1.830 I4.415 J3.794 F2500
G1 X25.590 Y-3.807 Z-1.830 F2500
G3 X34.420 Y-3.807 Z-1.830 I4.415 J3.792 F2500
G1 X35.665 Y-3.807 Z-1.830 F2500
G1 X35.665 Y-6.343 Z-1.830 F2500
G1 X-35.665 Y-6.343 Z-1.830 F2500
G1 X-35.665 Y-8.879 Z-1.830 F2500
G1 X35.665 Y-8.879 Z-1.830 F2500
G1 X35.665 Y-11.415 Z-1.830 F2500
G1 X-35.665 Y-11.415 Z-1.830 F2500
G1 X-35.665 Y-13.951 Z-1.830 F2500
G1 X35.665 Y-13.951 Z-1.830 F2500
G1 X35.665 Y-16.487 Z-1.830 F2500
G1 X19.929 Y-16.487 Z-1.830 F2500
G2 X20.835 Y-19.023 Z-1.830 I-2.951 J-2.484 F2500
G1 X35.665 Y-19.023 Z-1.830 F2500
G1 X35.665 Y-21.559 Z-1.830 F2500
G1 X20.835 Y-21.559 Z-1.830 F2500
G1 X20.835 Y-24.095 Z-1.830 F2500
G1 X35.665 Y-24.095 Z-1.830 F2500
G1 X35.665 Y-26.631 Z-1.830 F2500
G1 X20.835 Y-26.631 Z-1.830 F2500
G2 X20.788 Y-28.517 Z-1.830 I-10.245 J-0.687 F2500
G2 X20.628 Y-29.167 Z-1.830 I-2.839 J0.356 F2500
G1 X35.665 Y-29.167 Z-1.830 F2500
G1 X35.665 Y-31.703 Z-1.830 F2500
G1 X17.774 Y-31.703 Z-1.830 F2500
G2 X17.000 Y-31.782 Z-1.830 I-0.960 J5.539 F2500
G1 X6.000 Y-31.782 Z-1.830 F2500
G2 X5.226 Y-31.703 Z-1.830 I0.186 J5.619 F2500
G1 X-5.226 Y-31.703 Z-1.830 F2500
G2 X-6.000 Y-31.782 Z-1.830 I-0.960 J5.539 F2500
G1 X-17.000 Y-31.782 Z-1.830 F2500
G2 X-17.774 Y-31.703 Z-1.830 I0.186 J5.619 F2500
G1 X-35.665 Y-31.703 Z-1.830 F2500
G1 X-35.665 Y-34.239 Z-1.830 F2500
G1 X35.665 Y-34.239 Z-1.830 F2500
G1 X35.665 Y-36.775 Z-1.830 F2500
G1 X-35.665 Y-36.775 Z-1.830 F2500
G1 X-35.665 Y-39.311 Z-1.830 F2500
G1 X35.665 Y-39.311 Z-1.830 F2500
G1 X35.665 Y-41.847 Z-1.830 F2500
G1 X-35.665 Y-41.847 Z-1.830 F2500
G1 X-35.665 Y-44.383 Z-1.830 F2500
G1 X-35.499 Y-44.383 Z-1.830 F2500
G3 X-35.665 Y-44.542 Z-1.830 I3.538 J-3.855 F2500
G1 X-35.665 Y-44.383 Z-1.830 F2500
G0 Z5.000
G0 Y-50.450 Z5.000
G0 Y-50.450 Z3.000
G1 X-35.665 Y-50.450 Z-1.830 F1500
G1 X-35.665 Y-53.610 Z-1.830 F2500
G2 X-34.632 Y-51.420 Z-1.830 I6.344 J-1.654 F2500
G1 X-34.627 Y-51.391 Z-1.830 F2500
G3 X-34.680 Y-51.260 Z-1.830 I-0.156 J0.013 F2500
G2 X-35.665 Y-50.450 Z-1.830 I2.168 J3.642 F2500
G0 Z5.000
G0 Y-51.991 Z5.000
G0 Y-51.991 Z3.000
G1 X-35.665 Y-51.991 Z-1.830 F1500
G1 X-35.665 Y-50.450 Z-1.830 F2500
G3 X-34.644 Y-51.306 Z-1.830 I4.515 J4.350 F2500
G2 X-34.738 Y-51.601 Z-1.830 I-0.229 J-0.090 F2500
G1 X-34.992 Y-51.991 Z-1.830 F2500
G1 X-35.665 Y-51.991 Z-1.830 F2500
G1 X-35.665 Y-53.610 Z-1.830 F2500
G2 X-34.992 Y-51.991 Z-1.830 I5.583 J-1.372 F2500
G0 Z5.000
G0 X-29.492 Y-44.383 Z5.000
G0 X-29.492 Y-44.383 Z3.000
G1 X-29.492 Y-44.383 Z-1.830 F1500
G1 X29.492 Y-44.383 Z-1.830 F2500
G3 X28.204 Y-46.919 Z-1.830 I2.992 J-3.115 F2500
G1 X-28.204 Y-46.919 Z-1.830 F2500
G2 X-28.504 Y-49.229 Z-1.830 I-4.657 J-0.571 F2500
G3 X-28.417 Y-49.372 Z-1.830 I0.157 J-0.003 F2500
G3 X-28.203 Y-49.455 Z-1.830 I1.892 J4.589 F2500
G1 X28.203 Y-49.455 Z-1.830 F2500
G3 X25.010 Y-51.991 Z-1.830 I1.730 J-5.457 F2500
G1 X-25.010 Y-51.991 Z-1.830 F2500
G2 X-24.194 Y-54.527 Z-1.830 I-4.693 J-2.909 F2500
G1 X24.194 Y-54.527 Z-1.830 F2500
G3 X24.550 Y-57.063 Z-1.830 I5.477 J-0.525 F2500
G1 X-24.550 Y-57.063 Z-1.830 F2500
G2 X-26.424 Y-59.599 Z-1.830 I-5.335 J1.983 F2500
G1 X26.424 Y-59.599 Z-1.830 F2500
G3 X30.890 Y-60.758 Z-1.830 I3.558 J4.528 F2500
G1 X29.513 Y-62.135 Z-1.830 F2500
G1 X-29.513 Y-62.135 Z-1.830 F2500
G3 X-27.852 Y-63.754 Z-1.830 I15.245 J13.971 F2500
G3 X-25.206 Y-64.665 Z-1.830 I2.608 J3.278 F2500
G1 X25.206 Y-64.665 Z-1.830 F2500
G3 X28.239 Y-63.409 Z-1.830 I0.036 J4.203 F2500
G1 X29.513 Y-62.135 Z-1.830 F2500
G0 Z5.000
G0 X35.665 Y-53.610 Z5.000
G0 X35.665 Y-53.610 Z3.000
G1 X35.665 Y-53.610 Z-1.830 F1500
G1 X35.665 Y-50.450 Z-1.830 F2500
G2 X34.644 Y-51.306 Z-1.830 I-4.515 J4.350 F2500
G3 X34.738 Y-51.601 Z-1.830 I0.229 J-0.090 F2500
G2 X35.665 Y-53.610 Z-1.830 I-4.755 J-3.413 F2500
G0 Z5.000
G0 Y-51.991 Z5.000
G0 Y-51.991 Z3.000
G1 X35.665 Y-51.991 Z-1.830 F1500
G1 X35.665 Y-53.610 Z-1.830 F2500
G3 X34.992 Y-51.991 Z-1.830 I-5.583 J-1.372 F2500
G1 X35.665 Y-51.991 Z-1.830 F2500
G1 X35.665 Y-50.450 Z-1.830 F2500
G2 X34.680 Y-51.260 Z-1.830 I-3.153 J2.832 F2500
G3 X34.643 Y-51.448 Z-1.830 I0.103 J-0.118 F2500
G3 X34.992 Y-51.991 Z-1.830 I11.918 J7.274 F2500
G0 Z5.000
G0 X35.665 Y-44.542 Z5.000
G0 X35.665 Y-44.542 Z3.000
G1 X35.665 Y-44.542 Z-1.830 F1500
G3 X35.499 Y-44.383 Z-1.830 I-3.704 J-3.696 F2500
G1 X35.665 Y-44.383 Z-1.830 F2500
G1 X35.665 Y-44.542 Z-1.830 F2500
G0 Z5.000
G0 X19.866 Y-30.496 Z5.000
G0 X19.866 Y-30.496 Z3.000
G1 X19.866 Y-30.496 Z-1.830 F1500
G2 X17.000 Y-31.782 Z-1.830 I-2.866 J2.548 F2500
G1 X6.000 Y-31.782 Z-1.830 F2500
G2 X2.165 Y-27.947 Z-1.830 I0.000 J3.835 F2500
G1 X2.165 Y-18.947 Z-1.830 F2500
G2 X6.000 Y-15.112 Z-1.830 I3.835 J0.000 F2500
G1 X17.000 Y-15.112 Z-1.830 F2500
G2 X20.835 Y-18.947 Z-1.830 I-0.000 J-3.835 F2500
G1 X20.835 Y-27.947 Z-1.830 F2500
G2 X19.866 Y-30.496 Z-1.830 I-3.835 J0.000 F2500
G0 Z5.000
G0 X3.071 Y-16.487 Z5.000
G0 X3.071 Y-16.487 Z3.000
G1 X3.071 Y-16.487 Z-1.830 F1500
G1 X-3.071 Y-16.487 Z-1.830 F2500
G2 X-2.165 Y-19.023 Z-1.830 I-2.951 J-2.484 F2500
G1 X2.165 Y-19.023 Z-1.830 F2500
G1 X2.165 Y-21.559 Z-1.830 F2500
G1 X-2.165 Y-21.559 Z-1.830 F2500
G1 X-2.165 Y-24.095 Z-1.830 F2500
G1 X2.165 Y-24.095 Z-1.830 F2500
G1 X2.165 Y-26.631 Z-1.830 F2500
G1 X-2.165 Y-26.631 Z-1.830 F2500
G2 X-2.212 Y-28.517 Z-1.830 I-10.245 J-0.687 F2500
G2 X-2.372 Y-29.167 Z-1.830 I-2.839 J0.356 F2500
G1 X2.372 Y-29.167 Z-1.830 F2500
G3 X5.226 Y-31.703 Z-1.830 I3.616 J1.196 F2500
G1 X-5.226 Y-31.703 Z-1.830 F2500
G0 Z5.000
G0 X-5.226 Y-31.704 Z5.000
G0 X-5.226 Y-31.704 Z3.000
G1 X-5.226 Y-31.704 Z-1.830 F1500
G2 X-6.000 Y-31.782 Z-1.830 I-0.774 J3.756 F2500
G1 X-17.000 Y-31.782 Z-1.830 F2500
G2 X-20.835 Y-27.947 Z-1.830 I0.000 J3.835 F2500
G1 X-20.835 Y-18.947 Z-1.830 F2500
G2 X-17.000 Y-15.112 Z-1.830 I3.835 J-0.000 F2500
G1 X-6.000 Y-15.112 Z-1.830 F2500
G2 X-2.165 Y-18.947 Z-1.830 I0.000 J-3.835 F2500
G1 X-2.165 Y-27.947 Z-1.830 F2500
G2 X-5.226 Y-31.704 Z-1.830 I-3.835 J0.000 F2500
G0 Z5.000
G0 X-19.929 Y-16.487 Z5.000
G0 X-19.929 Y-16.487 Z3.000
G1 X-19.929 Y-16.487 Z-1.830 F1500
G1 X-35.665 Y-16.487 Z-1.830 F2500
G1 X-35.665 Y-19.023 Z-1.830 F2500
G1 X-20.835 Y-19.023 Z-1.830 F2500
G1 X-20.835 Y-21.559 Z-1.830 F2500
G1 X-35.665 Y-21.559 Z-1.830 F2500
G1 X-35.665 Y-24.095 Z-1.830 F2500
G1 X-20.835 Y-24.095 Z-1.830 F2500
G1 X-20.835 Y-26.631 Z-1.830 F2500
G1 X-35.665 Y-26.631 Z-1.830 F2500
G1 X-35.665 Y-29.167 Z-1.830 F2500
G1 X-20.628 Y-29.167 Z-1.830 F2500
G3 X-17.774 Y-31.703 Z-1.830 I3.616 J1.196 F2500
G1 X-35.665 Y-31.703 Z-1.830 F2500
G0 Z5.000
G0 X-24.298 Y-1.271 Z5.000
G0 X-24.298 Y-1.271 Z3.000
G1 X-24.298 Y-1.271 Z-1.830 F1500
G2 X-23.983 Y-1.191 Z-1.830 I0.177 J-0.037 F2500
G1 X-23.844 Y-1.271 Z-1.830 F2500
G1 X-24.298 Y-1.271 Z-1.830 F2500
G0 Z5.000
G0 X-15.496 Z5.000
G0 X-15.496 Z3.000
G1 X-15.496 Y-1.271 Z-1.830 F1500
G1 X-7.150 Y-1.271 Z-1.830 F2500
G2 X-8.321 Y1.265 Z-1.830 I2.660 J2.767 F2500
G1 X-14.032 Y1.265 Z-1.830 F2500
G1 X-12.568 Y3.801 Z-1.830 F2500
G1 X-8.335 Y3.801 Z-1.830 F2500
G1 X-8.335 Y6.337 Z-1.830 F2500
G1 X-11.108 Y6.337 Z-1.830 F2500
G3 X-10.730 Y8.873 Z-1.830 I-3.312 J1.791 F2500
G1 X-8.335 Y8.873 Z-1.830 F2500
G1 X-8.335 Y11.409 Z-1.830 F2500
G1 X-12.474 Y11.409 Z-1.830 F2500
G3 X-12.531 Y11.445 Z-1.830 I-0.768 J-1.140 F2500
G3 X-16.859 Y13.945 Z-1.830 I-103.987 J-175.068 F2500
G1 X-8.052 Y13.945 Z-1.830 F2500
G2 X-4.545 Y16.334 Z-1.830 I3.551 J-1.443 F2500
G2 X-4.993 Y16.481 Z-1.830 I0.977 J3.740 F2500
G1 X-21.252 Y16.481 Z-1.830 F2500
G0 Z5.000
G0 X-12.930 Y22.363 Z5.000
G0 X-12.930 Y22.363 Z3.000
G1 X-12.930 Y22.363 Z-1.830 F1500
G2 X4.667 Y46.631 Z-1.830 I12.930 J9.139 F2500
G2 X15.835 Y31.500 Z-1.830 I-4.672 J-15.135 F2500
G2 X4.545 Y16.334 Z-1.830 I-15.828 J-0.002 F2500
G2 X8.335 Y12.500 Z-1.830 I-0.048 J-3.837 F2500
G1 X8.335 Y1.500 Z-1.830 F2500
G2 X4.500 Y-2.335 Z-1.830 I-3.835 J0.000 F2500
G1 X-4.500 Y-2.335 Z-1.830 F2500
G2 X-8.335 Y1.500 Z-1.830 I0.000 J3.835 F2500
G1 X-8.335 Y12.500 Z-1.830 F2500
G2 X-4.545 Y16.334 Z-1.830 I3.834 J0.000 F2500
G2 X-12.930 Y22.363 Z-1.830 I4.545 J15.167 F2500
G0 Z5.000
G0 X3.622 Y46.913 Z5.000
G0 X3.622 Y46.913 Z3.000
G1 X3.622 Y46.913 Z-1.830 F1500
G1 X28.205 Y46.913 Z-1.830 F2500
G3 X29.498 Y44.377 Z-1.830 I4.263 J0.576 F2500
G1 X9.202 Y44.377 Z-1.830 F2500
G0 Z5.000
G0 X35.493 Z5.000
G0 X35.493 Z3.000
G1 X35.493 Y44.377 Z-1.830 F1500
G3 X35.665 Y44.542 Z-1.830 I-3.671 J4.001 F2500
G1 X35.665 Y44.377 Z-1.830 F2500
G1 X35.493 Y44.377 Z-1.830 F2500
G2 X29.498 Y44.377 Z-1.830 I-2.997 J3.100 F2500
G1 X9.202 Y44.377 Z-1.830 F2500
G2 X11.979 Y41.841 Z-1.830 I-8.418 J-12.007 F2500
G1 X35.665 Y41.841 Z-1.830 F2500
G1 X35.665 Y39.305 Z-1.830 F2500
G1 X13.774 Y39.305 Z-1.830 F2500
G2 X14.922 Y36.769 Z-1.830 I-11.712 J-6.829 F2500
G1 X35.665 Y36.769 Z-1.830 F2500
G1 X35.665 Y34.233 Z-1.830 F2500
G1 X15.589 Y34.233 Z-1.830 F2500
G2 X15.829 Y31.697 Z-1.830 I-14.104 J-2.614 F2500
G1 X35.665 Y31.697 Z-1.830 F2500
G1 X35.665 Y29.161 Z-1.830 F2500
G1 X15.661 Y29.161 Z-1.830 F2500
G2 X15.060 Y26.625 Z-1.830 I-14.998 J2.215 F2500
G1 X35.665 Y26.625 Z-1.830 F2500
G1 X35.665 Y24.089 Z-1.830 F2500
G1 X13.983 Y24.089 Z-1.830 F2500
G2 X12.318 Y21.553 Z-1.830 I-13.086 J6.774 F2500
G1 X35.665 Y21.553 Z-1.830 F2500
G1 X35.665 Y19.017 Z-1.830 F2500
G1 X9.736 Y19.017 Z-1.830 F2500
G2 X4.993 Y16.481 Z-1.830 I-9.550 J12.157 F2500
G1 X21.252 Y16.481 Z-1.830 F2500
G1 X16.859 Y13.945 Z-1.830 F2500
G1 X8.052 Y13.945 Z-1.830 F2500
G2 X8.335 Y12.500 Z-1.830 I-3.601 J-1.456 F2500
G1 X8.335 Y11.409 Z-1.830 F2500
G1 X12.474 Y11.409 Z-1.830 F2500
G3 X10.730 Y8.873 Z-1.830 I2.013 J-3.252 F2500
G1 X8.335 Y8.873 Z-1.830 F2500
G1 X8.335 Y6.337 Z-1.830 F2500
G1 X11.108 Y6.337 Z-1.830 F2500
G3 X11.166 Y6.230 Z-1.830 I1.577 J0.771 F2500
G1 X12.568 Y3.801 Z-1.830 F2500
G1 X8.335 Y3.801 Z-1.830 F2500
G2 X8.333 Y1.410 Z-1.830 I-32.668 J-1.165 F2500
G2 X8.321 Y1.265 Z-1.830 I-2.959 J0.173 F2500
G1 X14.032 Y1.265 Z-1.830 F2500
G1 X15.496 Y-1.271 Z-1.830 F2500
G1 X7.150 Y-1.271 Z-1.830 F2500
G0 Z5.000
G0 X23.844 Z5.000
G0 X23.844 Z3.000
G1 X23.844 Y-1.271 Z-1.830 F1500
G2 X24.176 Y-1.138 Z-1.830 I0.288 J-0.236 F2500
G2 X24.298 Y-1.271 Z-1.830 I-0.038 J-0.158 F2500
G1 X23.844 Y-1.271 Z-1.830 F2500
G2 X20.865 Y-2.990 Z-1.830 I-71.544 J120.523 F2500
G2 X15.496 Y-1.271 Z-1.830 I-1.880 J3.371 F2500
G1 X7.150 Y-1.271 Z-1.830 F2500
G2 X4.500 Y-2.335 Z-1.830 I-2.654 J2.778 F2500
G1 X-4.500 Y-2.335 Z-1.830 F2500
G2 X-7.150 Y-1.271 Z-1.830 I0.005 J3.842 F2500
G1 X-15.496 Y-1.271 Z-1.830 F2500
G2 X-20.904 Y-2.968 Z-1.830 I-3.488 J1.648 F2500
G1 X-23.844 Y-1.271 Z-1.830 F2500
G1 X-24.298 Y-1.271 Z-1.830 F2500
G2 X-25.590 Y-3.807 Z-1.830 I-5.632 J1.271 F2500
G1 X25.590 Y-3.807 Z-1.830 F2500
G0 Z5.000
G0 X34.420 Z5.000
G0 X34.420 Z3.000
G1 X34.420 Y-3.807 Z-1.830 F1500
G1 X35.665 Y-3.807 Z-1.830 F2500
G1 X35.665 Y-1.359 Z-1.830 F2500
G2 X34.420 Y-3.807 Z-1.830 I-5.522 J1.269 F2500
G0 Z5.000
G0 X35.665 Y1.396 Z5.000
G0 X35.665 Y1.396 Z3.000
G1 X35.665 Y1.396 Z-1.830 F1500
G1 X35.665 Y4.551 Z-1.830 F2500
G2 X34.644 Y3.694 Z-1.830 I-4.484 J4.311 F2500
G3 X34.737 Y3.400 Z-1.830 I0.228 J-0.089 F2500
G2 X35.665 Y1.396 Z-1.830 I-4.677 J-3.383 F2500
G0 Z5.000
G0 Y3.801 Z5.000
G0 Y3.801 Z3.000
G1 X35.665 Y3.801 Z-1.830 F1500
G1 X34.764 Y3.801 Z-1.830 F2500
G3 X34.643 Y3.552 Z-1.830 I0.046 J-0.176 F2500
G2 X35.665 Y1.396 Z-1.830 I-4.982 J-3.682 F2500
G1 X35.665 Y3.801 Z-1.830 F2500
G1 X35.665 Y4.551 Z-1.830 F2500
G2 X34.764 Y3.801 Z-1.830 I-2.907 J2.579 F2500
G0 Z5.000
G0 X35.665 Y10.461 Z5.000
G0 X35.665 Y10.461 Z3.000
G1 X35.665 Y10.461 Z-1.830 F1500
G3 X34.365 Y11.409 Z-1.830 I-3.116 J-2.906 F2500
G1 X35.665 Y11.409 Z-1.830 F2500
G1 X35.665 Y10.461 Z-1.830 F2500
G0 Z5.000
G0 X29.734 Y11.409 Z5.000
G0 X29.734 Y11.409 Z3.000
G1 X29.734 Y11.409 Z-1.830 F1500
G1 X30.636 Y11.409 Z-1.830 F2500
G2 X30.050 Y11.098 Z-1.830 I-6.479 J11.502 F2500
G2 X29.830 Y11.241 Z-1.830 I-0.029 J0.195 F2500
G1 X29.734 Y11.409 Z-1.830 F2500
G1 X28.269 Y13.945 Z-1.830 F2500
G1 X35.665 Y13.945 Z-1.830 F2500
G1 X35.665 Y16.481 Z-1.830 F2500
G1 X26.583 Y16.481 Z-1.830 F2500
G0 Z5.000
G0 X35.665 Y50.450 Z5.000
G0 X35.665 Y50.450 Z3.000
G1 X35.665 Y50.450 Z-1.830 F1500
G1 X35.665 Y53.610 Z-1.830 F2500
G2 X34.632 Y51.420 Z-1.830 I-6.344 J1.654 F2500
G3 X34.680 Y51.260 Z-1.830 I0.151 J-0.042 F2500
G2 X35.665 Y50.450 Z-1.830 I-2.168 J-3.642 F2500
G0 Z5.000
G0 Y51.985 Z5.000
G0 Y51.985 Z3.000
G1 X35.665 Y51.985 Z-1.830 F1500
G1 X35.665 Y53.610 Z-1.830 F2500
G2 X34.988 Y51.985 Z-1.830 I-5.575 J1.370 F2500
G1 X35.665 Y51.985 Z-1.830 F2500
G1 X35.665 Y50.450 Z-1.830 F2500
G3 X34.644 Y51.306 Z-1.830 I-4.515 J-4.350 F2500
G2 X34.738 Y51.601 Z-1.830 I0.229 J0.090 F2500
G1 X34.988 Y51.985 Z-1.830 F2500
G0 Z5.000
G0 X-34.626 Y51.379 Z5.000
G0 X-34.626 Y51.379 Z3.000
G1 X-34.626 Y51.379 Z-1.830 F1500
G3 X-34.627 Y51.391 Z-1.830 I-0.157 J-0.001 F2500
G3 X-34.738 Y51.601 Z-1.830 I-0.419 J-0.087 F2500
G2 X-35.665 Y53.610 Z-1.830 I4.755 J3.413 F2500
G1 X-35.665 Y50.450 Z-1.830 F2500
G2 X-34.644 Y51.306 Z-1.830 I4.515 J-4.350 F2500
G3 X-34.626 Y51.379 Z-1.830 I-0.139 J0.072 F2500
G0 Z5.000
G0 X-34.988 Y51.985 Z5.000
G0 X-34.988 Y51.985 Z3.000
G1 X-34.988 Y51.985 Z-1.830 F1500
G2 X-35.665 Y53.610 Z-1.830 I4.898 J2.994 F2500
G1 X-35.665 Y51.985 Z-1.830 F2500
G1 X-34.988 Y51.985 Z-1.830 F2500
G2 X-34.643 Y51.448 Z-1.830 I-11.441 J-7.730 F2500
G2 X-34.680 Y51.260 Z-1.830 I-0.141 J-0.070 F2500
G3 X-35.665 Y50.450 Z-1.830 I2.168 J-3.642 F2500
G1 X-35.665 Y51.985 Z-1.830 F2500
G0 Z5.000
G0 Y44.542 Z5.000
G0 Y44.542 Z3.000
G1 X-35.665 Y44.542 Z-1.830 F1500
G3 X-35.493 Y44.377 Z-1.830 I3.843 J3.836 F2500
G1 X-35.665 Y44.377 Z-1.830 F2500
G1 X-35.665 Y44.542 Z-1.830 F2500
G1 X-35.665 Y44.542 Z-3.160 F1500
G1 X-35.665 Y10.461 Z-3.160 F2500
G2 X-30.077 Y11.107 Z-3.160 I3.176 J-2.979 F2500
G3 X-29.830 Y11.241 Z-3.160 I0.063 J0.177 F2500
G2 X-27.311 Y15.603 Z-3.160 I178.960 J-100.440 F2500
G2 X-22.096 Y16.968 Z-3.160 I3.299 J-1.960 F2500
G1 X-12.569 Y11.468 Z-3.160 F2500
G2 X-11.166 Y6.230 Z-3.160 I-1.918 J-3.321 F2500
G1 X-15.666 Y-1.565 Z-3.160 F2500
G2 X-20.904 Y-2.968 Z-3.160 I-3.321 J1.918 F2500
G1 X-23.983 Y-1.191 Z-3.160 F2500
G3 X-24.285 Y-1.229 Z-3.160 I-0.138 J-0.119 F2500
G2 X-35.665 Y-1.359 Z-3.160 I-5.705 J1.230 F2500
G1 X-35.665 Y-44.542 Z-3.160 F2500
G2 X-28.500 Y-49.200 Z-3.160 I3.169 J-2.965 F2500
G3 X-28.417 Y-49.372 Z-3.160 I0.154 J-0.032 F2500
G2 X-30.890 Y-60.758 Z-3.160 I-1.581 J-5.618 F2500
G1 X-28.239 Y-63.409 Z-3.160 F2500
G3 X-25.206 Y-64.665 Z-3.160 I2.997 J2.946 F2500
G1 X25.206 Y-64.665 Z-3.160 F2500
G3 X28.239 Y-63.409 Z-3.160 I0.036 J4.203 F2500
G1 X30.890 Y-60.758 Z-3.160 F2500
G2 X28.417 Y-49.372 Z-3.160 I-0.890 J5.768 F2500
G3 X28.500 Y-49.200 Z-3.160 I-0.071 J0.140 F2500
G2 X35.665 Y-44.542 Z-3.160 I3.996 J1.692 F2500
G1 X35.665 Y-1.359 Z-3.160 F2500
G2 X24.285 Y-1.229 Z-3.160 I-5.675 J1.361 F2500
G3 X23.983 Y-1.191 Z-3.160 I-0.164 J-0.085 F2500
G2 X20.865 Y-2.990 Z-3.160 I-74.885 J126.149 F2500
G2 X15.666 Y-1.565 Z-3.160 I-1.877 J3.347 F2500
G1 X11.166 Y6.230 Z-3.160 F2500
G2 X12.569 Y11.468 Z-3.160 I3.321 J1.918 F2500
G1 X22.096 Y16.968 Z-3.160 F2500
G2 X27.334 Y15.565 Z-3.160 I1.917 J-3.321 F2500
G1 X29.830 Y11.241 Z-3.160 F2500
G3 X30.077 Y11.107 Z-3.160 I0.183 J0.043 F2500
G2 X35.665 Y10.461 Z-3.160 I2.412 J-3.629 F2500
G1 X35.665 Y44.542 Z-3.160 F2500
G2 X28.500 Y49.200 Z-3.160 I-3.169 J2.965 F2500
G3 X28.417 Y49.372 Z-3.160 I-0.154 J0.032 F2500
G2 X30.890 Y60.758 Z-3.160 I1.581 J5.618 F2500
G1 X28.239 Y63.409 Z-3.160 F2500
G3 X25.206 Y64.665 Z-3.160 I-2.997 J-2.946 F2500
G1 X-25.206 Y64.665 Z-3.160 F2500
G3 X-28.239 Y63.409 Z-3.160 I-0.036 J-4.203 F2500
G1 X-30.890 Y60.758 Z-3.160 F2500
G2 X-28.417 Y49.372 Z-3.160 I0.890 J-5.768 F2500
G3 X-28.500 Y49.200 Z-3.160 I0.071 J-0.140 F2500
G2 X-35.665 Y44.542 Z-3.160 I-3.996 J-1.692 F2500
G1 X-35.665 Y44.542 Z-3.160 F1500
G3 X-35.493 Y44.377 Z-3.160 I3.843 J3.836 F2500
G1 X-35.665 Y44.377 Z-3.160 F2500
G1 X-35.665 Y44.542 Z-3.160 F2500
G0 Z5.000
G0 Y50.450 Z5.000
G0 Y50.450 Z3.000
G1 X-35.665 Y50.450 Z-3.160 F1500
G2 X-34.644 Y51.306 Z-3.160 I4.515 J-4.350 F2500
G3 X-34.627 Y51.391 Z-3.160 I-0.139 J0.072 F2500
G3 X-34.738 Y51.601 Z-3.160 I-0.419 J-0.087 F2500
G2 X-35.665 Y53.610 Z-3.160 I4.755 J3.413 F2500
G1 X-35.665 Y50.450 Z-3.160 F2500
G0 Z5.000
G0 Y51.985 Z5.000
G0 Y51.985 Z3.000
G1 X-35.665 Y51.985 Z-3.160 F1500
G1 X-35.665 Y50.450 Z-3.160 F2500
G2 X-34.680 Y51.260 Z-3.160 I3.153 J-2.832 F2500
G3 X-34.643 Y51.448 Z-3.160 I-0.103 J0.118 F2500
G3 X-34.988 Y51.985 Z-3.160 I-11.786 J-7.192 F2500
G1 X-35.665 Y51.985 Z-3.160 F2500
G1 X-35.665 Y53.610 Z-3.160 F2500
G3 X-34.988 Y51.985 Z-3.160 I5.575 J1.370 F2500
G0 Z5.000
G0 X-13.665 Y39.501 Z5.000
G0 X-13.665 Y39.501 Z3.000
G1 X-13.665 Y39.501 Z-3.160 F1500
G2 X4.667 Y46.631 Z-3.160 I13.664 J-8.000 F2500
G2 X15.835 Y31.500 Z-3.160 I-4.672 J-15.135 F2500
G2 X4.545 Y16.334 Z-3.160 I-15.828 J-0.002 F2500
G2 X8.335 Y12.500 Z-3.160 I-0.048 J-3.837 F2500
G1 X8.335 Y1.500 Z-3.160 F2500
G2 X4.500 Y-2.335 Z-3.160 I-3.835 J0.000 F2500
G1 X-4.500 Y-2.335 Z-3.160 F2500
G2 X-8.335 Y1.500 Z-3.160 I0.000 J3.835 F2500
G1 X-8.335 Y12.500 Z-3.160 F2500
G2 X-4.545 Y16.334 Z-3.160 I3.834 J0.000 F2500
G2 X-13.665 Y39.501 Z-3.160 I4.545 J15.167 F2500
G0 Z5.000
G0 X3.622 Y46.913 Z5.000
G0 X3.622 Y46.913 Z3.000
G1 X3.622 Y46.913 Z-3.160 F1500
G1 X28.205 Y46.913 Z-3.160 F2500
G3 X29.498 Y44.377 Z-3.160 I4.263 J0.576 F2500
G1 X9.202 Y44.377 Z-3.160 F2500
G0 Z5.000
G0 X25.206 Y64.665 Z5.000
G0 X25.206 Y64.665 Z3.000
G1 X25.206 Y64.665 Z-3.160 F1500
G1 X-25.206 Y64.665 Z-3.160 F2500
G3 X-28.239 Y63.409 Z-3.160 I-0.036 J-4.203 F2500
G1 X-29.519 Y62.129 Z-3.160 F2500
G1 X29.519 Y62.129 Z-3.160 F2500
G1 X30.890 Y60.758 Z-3.160 F2500
G3 X26.417 Y59.593 Z-3.160 I-0.908 J-5.685 F2500
G1 X-26.417 Y59.593 Z-3.160 F2500
G2 X-24.548 Y57.057 Z-3.160 I-3.466 J-4.511 F2500
G1 X24.548 Y57.057 Z-3.160 F2500
G3 X24.194 Y54.521 Z-3.160 I5.119 J-2.005 F2500
G1 X-24.194 Y54.521 Z-3.160 F2500
G2 X-25.013 Y51.985 Z-3.160 I-5.511 J0.379 F2500
G1 X25.013 Y51.985 Z-3.160 F2500
G3 X28.220 Y49.449 Z-3.160 I4.925 J2.932 F2500
G1 X-28.220 Y49.449 Z-3.160 F2500
G3 X-28.494 Y49.287 Z-3.160 I-0.003 J-0.309 F2500
G3 X-28.442 Y49.012 Z-3.160 I0.314 J-0.083 F2500
G2 X-28.205 Y46.913 Z-3.160 I-4.027 J-1.517 F2500
G1 X-3.622 Y46.913 Z-3.160 F2500
G3 X-9.202 Y44.377 Z-3.160 I3.518 J-15.148 F2500
G1 X-29.498 Y44.377 Z-3.160 F2500
G2 X-35.493 Y44.377 Z-3.160 I-2.997 J3.104 F2500
G1 X-35.665 Y44.377 Z-3.160 F2500
G1 X-35.665 Y41.841 Z-3.160 F2500
G1 X-11.979 Y41.841 Z-3.160 F2500
G3 X-13.774 Y39.305 Z-3.160 I11.020 J-9.704 F2500
G1 X-35.665 Y39.305 Z-3.160 F2500
G1 X-35.665 Y36.769 Z-3.160 F2500
G1 X-14.922 Y36.769 Z-3.160 F2500
G3 X-15.589 Y34.233 Z-3.160 I12.820 J-4.725 F2500
G1 X-35.665 Y34.233 Z-3.160 F2500
G1 X-35.665 Y31.697 Z-3.160 F2500
G1 X-15.829 Y31.697 Z-3.160 F2500
G3 X-15.661 Y29.161 Z-3.160 I15.204 J-0.268 F2500
G1 X-35.665 Y29.161 Z-3.160 F2500
G1 X-35.665 Y26.625 Z-3.160 F2500
G1 X-15.060 Y26.625 Z-3.160 F2500
G3 X-13.983 Y24.089 Z-3.160 I12.935 J3.999 F2500
G1 X-35.665 Y24.089 Z-3.160 F2500
G1 X-35.665 Y21.553 Z-3.160 F2500
G1 X-12.318 Y21.553 Z-3.160 F2500
G3 X-9.736 Y19.017 Z-3.160 I11.938 J9.573 F2500
G1 X-35.665 Y19.017 Z-3.160 F2500
G1 X-35.665 Y16.481 Z-3.160 F2500
G1 X-26.583 Y16.481 Z-3.160 F2500
G3 X-27.334 Y15.565 Z-3.160 I2.565 J-2.868 F2500
G1 X-28.269 Y13.945 Z-3.160 F2500
G1 X-35.665 Y13.945 Z-3.160 F2500
G1 X-35.665 Y11.409 Z-3.160 F2500
G1 X-34.365 Y11.409 Z-3.160 F2500
G3 X-35.665 Y10.461 Z-3.160 I1.816 J-3.855 F2500
G1 X-35.665 Y11.409 Z-3.160 F2500
G0 Z5.000
G0 X-30.636 Z5.000
G0 X-30.636 Z3.000
G1 X-30.636 Y11.409 Z-3.160 F1500
G1 X-29.734 Y11.409 Z-3.160 F2500
G2 X-29.939 Y11.114 Z-3.160 I-0.535 J0.153 F2500
G2 X-30.077 Y11.107 Z-3.160 I-0.076 J0.138 F2500
G3 X-30.636 Y11.409 Z-3.160 I-7.258 J-12.755 F2500
G0 Z5.000
G0 X-35.665 Y4.551 Z5.000
G0 X-35.665 Y4.551 Z3.000
G1 X-35.665 Y4.551 Z-3.160 F1500
G1 X-35.665 Y1.396 Z-3.160 F2500
G2 X-34.632 Y3.580 Z-3.160 I6.384 J-1.684 F2500
G1 X-34.627 Y3.609 Z-3.160 F2500
G3 X-34.680 Y3.740 Z-3.160 I-0.156 J0.013 F2500
G2 X-35.665 Y4.551 Z-3.160 I2.149 J3.617 F2500
G0 Z5.000
G0 Y3.801 Z5.000
G0 Y3.801 Z3.000
G1 X-35.665 Y3.801 Z-3.160 F1500
G1 X-35.665 Y4.551 Z-3.160 F2500
G3 X-34.764 Y3.801 Z-3.160 I3.020 J2.714 F2500
G2 X-34.632 Y3.580 Z-3.160 I-0.055 J-0.182 F2500
G3 X-35.665 Y1.396 Z-3.160 I5.352 J-3.867 F2500
G1 X-35.665 Y3.801 Z-3.160 F2500
G1 X-34.764 Y3.801 Z-3.160 F2500
G0 Z5.000
G0 X-34.420 Y-3.807 Z5.000
G0 X-34.420 Y-3.807 Z3.000
G1 X-34.420 Y-3.807 Z-3.160 F1500
G2 X-35.665 Y-1.359 Z-3.160 I4.248 J3.702 F2500
G1 X-35.665 Y-3.807 Z-3.160 F2500
G1 X-34.420 Y-3.807 Z-3.160 F2500
G3 X-25.590 Y-3.807 Z-3.160 I4.415 J3.794 F2500
G1 X25.590 Y-3.807 Z-3.160 F2500
G3 X34.420 Y-3.807 Z-3.160 I4.415 J3.792 F2500
G1 X35.665 Y-3.807 Z-3.160 F2500
G1 X35.665 Y-6.343 Z-3.160 F2500
G1 X-35.665 Y-6.343 Z-3.160 F2500
G1 X-35.665 Y-8.879 Z-3.160 F2500
G1 X35.665 Y-8.879 Z-3.160 F2500
G1 X35.665 Y-11.415 Z-3.160 F2500
G1 X-35.665 Y-11.415 Z-3.160 F2500
G1 X-35.665 Y-13.951 Z-3.160 F2500
G1 X35.665 Y-13.951 Z-3.160 F2500
G1 X35.665 Y-16.487 Z-3.160 F2500
G1 X19.929 Y-16.487 Z-3.160 F2500
G2 X20.835 Y-19.023 Z-3.160 I-2.951 J-2.484 F2500
G1 X35.665 Y-19.023 Z-3.160 F2500
G1 X35.665 Y-21.559 Z-3.160 F2500
G1 X20.835 Y-21.559 Z-3.160 F2500
G1 X20.835 Y-24.095 Z-3.160 F2500
G1 X35.665 Y-24.095 Z-3.160 F2500
G1 X35.665 Y-26.631 Z-3.160 F2500
G1 X20.835 Y-26.631 Z-3.160 F2500
G2 X20.788 Y-28.517 Z-3.160 I-10.245 J-0.687 F2500
G2 X20.628 Y-29.167 Z-3.160 I-2.839 J0.356 F2500
G1 X35.665 Y-29.167 Z-3.160 F2500
G1 X35.665 Y-31.703 Z-3.160 F2500
G1 X17.774 Y-31.703 Z-3.160 F2500
G2 X17.000 Y-31.782 Z-3.160 I-0.960 J5.539 F2500
G1 X6.000 Y-31.782 Z-3.160 F2500
G2 X5.226 Y-31.703 Z-3.160 I0.186 J5.619 F2500
G1 X-5.226 Y-31.703 Z-3.160 F2500
G2 X-6.000 Y-31.782 Z-3.160 I-0.960 J5.539 F2500
G1 X-17.000 Y-31.782 Z-3.160 F2500
G2 X-17.774 Y-31.703 Z-3.160 I0.186 J5.619 F2500
G1 X-35.665 Y-31.703 Z-3.160 F2500
G1 X-35.665 Y-34.239 Z-3.160 F2500
G1 X35.665 Y-34.239 Z-3.160 F2500
G1 X35.665 Y-36.775 Z-3.160 F2500
G1 X-35.665 Y-36.775 Z-3.160 F2500
G1 X-35.665 Y-39.311 Z-3.160 F2500
G1 X35.665 Y-39.311 Z-3.160 F2500
G1 X35.665 Y-41.847 Z-3.160 F2500
G1 X-35.665 Y-41.847 Z-3.160 F2500
G1 X-35.665 Y-44.383 Z-3.160 F2500
G1 X-35.499 Y-44.383 Z-3.160 F2500
G3 X-35.665 Y-44.542 Z-3.160 I3.538 J-3.855 F2500
G1 X-35.665 Y-44.383 Z-3.160 F2500
G0 Z5.000
G0 Y-50.450 Z5.000
G0 Y-50.450 Z3.000
G1 X-35.665 Y-50.450 Z-3.160 F1500
G1 X-35.665 Y-53.610 Z-3.160 F2500
G2 X-34.632 Y-51.420 Z-3.160 I6.344 J-1.654 F2500
G1 X-34.627 Y-51.391 Z-3.160 F2500
G3 X-34.680 Y-51.260 Z-3.160 I-0.156 J0.013 F2500
G2 X-35.665 Y-50.450 Z-3.160 I2.168 J3.642 F2500
G0 Z5.000
G0 Y-51.991 Z5.000
G0 Y-51.991 Z3.000
G1 X-35.665 Y-51.991 Z-3.160 F1500
G1 X-35.665 Y-50.450 Z-3.160 F2500
G3 X-34.644 Y-51.306 Z-3.160 I4.515 J4.350 F2500
G2 X-34.738 Y-51.601 Z-3.160 I-0.229 J-0.090 F2500
G1 X-34.992 Y-51.991 Z-3.160 F2500
G1 X-35.665 Y-51.991 Z-3.160 F2500
G1 X-35.665 Y-53.610 Z-3.160 F2500
G2 X-34.992 Y-51.991 Z-3.160 I5.583 J-1.372 F2500
G0 Z5.000
G0 X-29.492 Y-44.383 Z5.000
G0 X-29.492 Y-44.383 Z3.000
G1 X-29.492 Y-44.383 Z-3.160 F1500
G1 X29.492 Y-44.383 Z-3.160 F2500
G3 X28.204 Y-46.919 Z-3.160 I2.992 J-3.115 F2500
G1 X-28.204 Y-46.919 Z-3.160 F2500
G2 X-28.504 Y-49.229 Z-3.160 I-4.657 J-0.571 F2500
G3 X-28.417 Y-49.372 Z-3.160 I0.157 J-0.003 F2500
G3 X-28.203 Y-49.455 Z-3.160 I1.892 J4.589 F2500
G1 X28.203 Y-49.455 Z-3.160 F2500
G3 X25.010 Y-51.991 Z-3.160 I1.730 J-5.457 F2500
G1 X-25.010 Y-51.991 Z-3.160 F2500
G2 X-24.194 Y-54.527 Z-3.160 I-4.693 J-2.909 F2500
G1 X24.194 Y-54.527 Z-3.160 F2500
G3 X24.550 Y-57.063 Z-3.160 I5.477 J-0.525 F2500
G1 X-24.550 Y-57.063 Z-3.160 F2500
G2 X-26.424 Y-59.599 Z-3.160 I-5.335 J1.983 F2500
G1 X26.424 Y-59.599 Z-3.160 F2500
G3 X30.890 Y-60.758 Z-3.160 I3.558 J4.528 F2500
G1 X29.513 Y-62.135 Z-3.160 F2500
G1 X-29.513 Y-62.135 Z-3.160 F2500
G3 X-27.852 Y-63.754 Z-3.160 I15.245 J13.971 F2500
G3 X-25.206 Y-64.665 Z-3.160 I2.608 J3.278 F2500
G1 X25.206 Y-64.665 Z-3.160 F2500
G3 X28.239 Y-63.409 Z-3.160 I0.036 J4.203 F2500
G1 X29.513 Y-62.135 Z-3.160 F2500
G0 Z5.000
G0 X35.665 Y-53.610 Z5.000
G0 X35.665 Y-53.610 Z3.000
G1 X35.665 Y-53.610 Z-3.160 F1500
G1 X35.665 Y-50.450 Z-3.160 F2500
G2 X34.644 Y-51.306 Z-3.160 I-4.515 J4.350 F2500
G3 X34.738 Y-51.601 Z-3.160 I0.229 J-0.090 F2500
G2 X35.665 Y-53.610 Z-3.160 I-4.755 J-3.413 F2500
G0 Z5.000
G0 Y-51.991 Z5.000
G0 Y-51.991 Z3.000
G1 X35.665 Y-51.991 Z-3.160 F1500
G1 X35.665 Y-53.610 Z-3.160 F2500
G3 X34.992 Y-51.991 Z-3.160 I-5.583 J-1.372 F2500
G1 X35.665 Y-51.991 Z-3.160 F2500
G1 X35.665 Y-50.450 Z-3.160 F2500
G2 X34.680 Y-51.260 Z-3.160 I-3.153 J2.832 F2500
G3 X34.643 Y-51.448 Z-3.160 I0.103 J-0.118 F2500
G3 X34.992 Y-51.991 Z-3.160 I11.918 J7.274 F2500
G0 Z5.000
G0 X35.665 Y-44.542 Z5.000
G0 X35.665 Y-44.542 Z3.000
G1 X35.665 Y-44.542 Z-3.160 F1500
G3 X35.499 Y-44.383 Z-3.160 I-3.704 J-3.696 F2500
G1 X35.665 Y-44.383 Z-3.160 F2500
G1 X35.665 Y-44.542 Z-3.160 F2500
G0 Z5.000
G0 X19.866 Y-30.496 Z5.000
G0 X19.866 Y-30.496 Z3.000
G1 X19.866 Y-30.496 Z-3.160 F1500
G2 X17.000 Y-31.782 Z-3.160 I-2.866 J2.548 F2500
G1 X6.000 Y-31.782 Z-3.160 F2500
G2 X2.165 Y-27.947 Z-3.160 I0.000 J3.835 F2500
G1 X2.165 Y-18.947 Z-3.160 F2500
G2 X6.000 Y-15.112 Z-3.160 I3.835 J0.000 F2500
G1 X17.000 Y-15.112 Z-3.160 F2500
G2 X20.835 Y-18.947 Z-3.160 I-0.000 J-3.835 F2500
G1 X20.835 Y-27.947 Z-3.160 F2500
G2 X19.866 Y-30.496 Z-3.160 I-3.835 J0.000 F2500
G0 Z5.000
G0 X3.071 Y-16.487 Z5.000
G0 X3.071 Y-16.487 Z3.000
G1 X3.071 Y-16.487 Z-3.160 F1500
G1 X-3.071 Y-16.487 Z-3.160 F2500
G2 X-2.165 Y-19.023 Z-3.160 I-2.951 J-2.484 F2500
G1 X2.165 Y-19.023 Z-3.160 F2500
G1 X2.165 Y-21.559 Z-3.160 F2500
G1 X-2.165 Y-21.559 Z-3.160 F2500
G1 X-2.165 Y-24.095 Z-3.160 F2500
G1 X2.165 Y-24.095 Z-3.160 F2500
G1 X2.165 Y-26.631 Z-3.160 F2500
G1 X-2.165 Y-26.631 Z-3.160 F2500
G2 X-2.212 Y-28.517 Z-3.160 I-10.245 J-0.687 F2500
G2 X-2.372 Y-29.167 Z-3.160 I-2.839 J0.356 F2500
G1 X2.372 Y-29.167 Z-3.160 F2500
G3 X5.226 Y-31.703 Z-3.160 I3.616 J1.196 F2500
G1 X-5.226 Y-31.703 Z-3.160 F2500
G0 Z5.000
G0 X-5.226 Y-31.704 Z5.000
G0 X-5.226 Y-31.704 Z3.000
G1 X-5.226 Y-31.704 Z-3.160 F1500
G2 X-6.000 Y-31.782 Z-3.160 I-0.774 J3.756 F2500
G1 X-17.000 Y-31.782 Z-3.160 F2500
G2 X-20.835 Y-27.947 Z-3.160 I0.000 J3.835 F2500
G1 X-20.835 Y-18.947 Z-3.160 F2500
G2 X-17.000 Y-15.112 Z-3.160 I3.835 J-0.000 F2500
G1 X-6.000 Y-15.112 Z-3.160 F2500
G2 X-2.165 Y-18.947 Z-3.160 I0.000 J-3.835 F2500
G1 X-2.165 Y-27.947 Z-3.160 F2500
G2 X-5.226 Y-31.704 Z-3.160 I-3.835 J0.000 F2500
G0 Z5.000
G0 X-19.929 Y-16.487 Z5.000
G0 X-19.929 Y-16.487 Z3.000
G1 X-19.929 Y-16.487 Z-3.160 F1500
G1 X-35.665 Y-16.487 Z-3.160 F2500
G1 X-35.665 Y-19.023 Z-3.160 F2500
G1 X-20.835 Y-19.023 Z-3.160 F2500
G1 X-20.835 Y-21.559 Z-3.160 F2500
G1 X-35.665 Y-21.559 Z-3.160 F2500
G1 X-35.665 Y-24.095 Z-3.160 F2500
G1 X-20.835 Y-24.095 Z-3.160 F2500
G1 X-20.835 Y-26.631 Z-3.160 F2500
G1 X-35.665 Y-26.631 Z-3.160 F2500
G1 X-35.665 Y-29.167 Z-3.160 F2500
G1 X-20.628 Y-29.167 Z-3.160 F2500
G3 X-17.774 Y-31.703 Z-3.160 I3.616 J1.196 F2500
G1 X-35.665 Y-31.703 Z-3.160 F2500
G0 Z5.000
G0 X-24.298 Y-1.271 Z5.000
G0 X-24.298 Y-1.271 Z3.000
G1 X-24.298 Y-1.271 Z-3.160 F1500
G2 X-23.983 Y-1.191 Z-3.160 I0.177 J-0.037 F2500
G1 X-23.844 Y-1.271 Z-3.160 F2500
G1 X-24.298 Y-1.271 Z-3.160 F2500
G0 Z5.000
G0 X-15.496 Z5.000
G0 X-15.496 Z3.000
G1 X-15.496 Y-1.271 Z-3.160 F1500
G1 X-7.150 Y-1.271 Z-3.160 F2500
G2 X-8.321 Y1.265 Z-3.160 I2.660 J2.767 F2500
G1 X-14.032 Y1.265 Z-3.160 F2500
G1 X-12.568 Y3.801 Z-3.160 F2500
G1 X-8.335 Y3.801 Z-3.160 F2500
G1 X-8.335 Y6.337 Z-3.160 F2500
G1 X-11.108 Y6.337 Z-3.160 F2500
G3 X-10.730 Y8.873 Z-3.160 I-3.312 J1.791 F2500
G1 X-8.335 Y8.873 Z-3.160 F2500
G1 X-8.335 Y11.409 Z-3.160 F2500
G1 X-12.474 Y11.409 Z-3.160 F2500
G3 X-12.531 Y11.445 Z-3.160 I-0.768 J-1.140 F2500
G3 X-16.859 Y13.945 Z-3.160 I-103.987 J-175.068 F2500
G1 X-8.052 Y13.945 Z-3.160 F2500
G2 X-4.545 Y16.334 Z-3.160 I3.551 J-1.443 F2500
G2 X-4.993 Y16.481 Z-3.160 I0.977 J3.740 F2500
G1 X-21.252 Y16.481 Z-3.160 F2500
G0 Z5.000
G0 X7.150 Y-1.271 Z5.000
G0 X7.150 Y-1.271 Z3.000
G1 X7.150 Y-1.271 Z-3.160 F1500
G1 X15.496 Y-1.271 Z-3.160 F2500
G1 X14.032 Y1.265 Z-3.160 F2500
G1 X8.321 Y1.265 Z-3.160 F2500
G3 X8.333 Y1.410 Z-3.160 I-2.947 J0.318 F2500
G3 X8.335 Y3.801 Z-3.160 I-32.666 J1.226 F2500
G1 X12.568 Y3.801 Z-3.160 F2500
G1 X11.166 Y6.230 Z-3.160 F2500
G2 X11.108 Y6.337 Z-3.160 I1.520 J0.878 F2500
G1 X8.335 Y6.337 Z-3.160 F2500
G1 X8.335 Y8.873 Z-3.160 F2500
G1 X10.730 Y8.873 Z-3.160 F2500
G2 X12.474 Y11.409 Z-3.160 I3.757 J-0.716 F2500
G1 X8.335 Y11.409 Z-3.160 F2500
G1 X8.335 Y12.500 Z-3.160 F2500
G3 X8.052 Y13.945 Z-3.160 I-3.885 J-0.011 F2500
G1 X16.859 Y13.945 Z-3.160 F2500
G1 X21.252 Y16.481 Z-3.160 F2500
G1 X4.993 Y16.481 Z-3.160 F2500
G3 X9.736 Y19.017 Z-3.160 I-4.806 J14.693 F2500
G1 X35.665 Y19.017 Z-3.160 F2500
G1 X35.665 Y21.553 Z-3.160 F2500
G1 X12.318 Y21.553 Z-3.160 F2500
G3 X13.983 Y24.089 Z-3.160 I-11.422 J9.310 F2500
G1 X35.665 Y24.089 Z-3.160 F2500
G1 X35.665 Y26.625 Z-3.160 F2500
G1 X15.060 Y26.625 Z-3.160 F2500
G3 X15.661 Y29.161 Z-3.160 I-14.398 J4.751 F2500
G1 X35.665 Y29.161 Z-3.160 F2500
G1 X35.665 Y31.697 Z-3.160 F2500
G1 X15.829 Y31.697 Z-3.160 F2500
G3 X15.589 Y34.233 Z-3.160 I-14.344 J-0.078 F2500
G1 X35.665 Y34.233 Z-3.160 F2500
G1 X35.665 Y36.769 Z-3.160 F2500
G1 X14.922 Y36.769 Z-3.160 F2500
G3 X13.774 Y39.305 Z-3.160 I-12.860 J-4.293 F2500
G1 X35.665 Y39.305 Z-3.160 F2500
G1 X35.665 Y41.841 Z-3.160 F2500
G1 X11.979 Y41.841 Z-3.160 F2500
G3 X9.202 Y44.377 Z-3.160 I-11.195 J-9.471 F2500
G1 X29.498 Y44.377 Z-3.160 F2500
G3 X35.493 Y44.377 Z-3.160 I2.997 J3.100 F2500
G1 X35.665 Y44.377 Z-3.160 F2500
G1 X35.665 Y44.542 Z-3.160 F2500
G2 X35.493 Y44.377 Z-3.160 I-3.843 J3.836 F2500
G0 Z5.000
G0 X35.665 Y50.450 Z5.000
G0 X35.665 Y50.450 Z3.000
G1 X35.665 Y50.450 Z-3.160 F1500
G1 X35.665 Y53.610 Z-3.160 F2500
G2 X34.632 Y51.420 Z-3.160 I-6.344 J1.654 F2500
G3 X34.680 Y51.260 Z-3.160 I0.151 J-0.042 F2500
G2 X35.665 Y50.450 Z-3.160 I-2.168 J-3.642 F2500
G0 Z5.000
G0 Y51.985 Z5.000
G0 Y51.985 Z3.000
G1 X35.665 Y51.985 Z-3.160 F1500
G1 X35.665 Y53.610 Z-3.160 F2500
G2 X34.988 Y51.985 Z-3.160 I-5.575 J1.370 F2500
G1 X35.665 Y51.985 Z-3.160 F2500
G1 X35.665 Y50.450 Z-3.160 F2500
G3 X34.644 Y51.306 Z-3.160 I-4.515 J-4.350 F2500
G2 X34.738 Y51.601 Z-3.160 I0.229 J0.090 F2500
G1 X34.988 Y51.985 Z-3.160 F2500
G0 Z5.000
G0 X26.583 Y16.481 Z5.000
G0 X26.583 Y16.481 Z3.000
G1 X26.583 Y16.481 Z-3.160 F1500
G1 X35.665 Y16.481 Z-3.160 F2500
G1 X35.665 Y13.945 Z-3.160 F2500
G1 X28.269 Y13.945 Z-3.160 F2500
G1 X29.734 Y11.409 Z-3.160 F2500
G1 X29.830 Y11.241 Z-3.160 F2500
G3 X30.050 Y11.098 Z-3.160 I0.190 J0.052 F2500
G3 X30.636 Y11.409 Z-3.160 I-5.893 J11.813 F2500
G1 X29.734 Y11.409 Z-3.160 F2500
G0 Z5.000
G0 X34.365 Z5.000
G0 X34.365 Z3.000
G1 X34.365 Y11.409 Z-3.160 F1500
G1 X35.665 Y11.409 Z-3.160 F2500
G1 X35.665 Y10.461 Z-3.160 F2500
G3 X34.365 Y11.409 Z-3.160 I-3.116 J-2.906 F2500
G0 Z5.000
G0 X35.665 Y4.551 Z5.000
G0 X35.665 Y4.551 Z3.000
G1 X35.665 Y4.551 Z-3.160 F1500
G2 X34.644 Y3.694 Z-3.160 I-4.484 J4.311 F2500
G3 X34.737 Y3.400 Z-3.160 I0.228 J-0.089 F2500
G2 X35.665 Y1.396 Z-3.160 I-4.677 J-3.383 F2500
G1 X35.665 Y4.551 Z-3.160 F2500
G0 Z5.000
G0 Y3.801 Z5.000
G0 Y3.801 Z3.000
G1 X35.665 Y3.801 Z-3.160 F1500
G1 X34.764 Y3.801 Z-3.160 F2500
G3 X34.643 Y3.552 Z-3.160 I0.046 J-0.176 F2500
G2 X35.665 Y1.396 Z-3.160 I-4.982 J-3.682 F2500
G1 X35.665 Y3.801 Z-3.160 F2500
G1 X35.665 Y4.551 Z-3.160 F2500
G2 X34.764 Y3.801 Z-3.160 I-2.907 J2.579 F2500
G0 Z5.000
G0 X35.665 Y-1.359 Z5.000
G0 X35.665 Y-1.359 Z3.000
G1 X35.665 Y-1.359 Z-3.160 F1500
G2 X34.420 Y-3.807 Z-3.160 I-5.522 J1.269 F2500
G1 X35.665 Y-3.807 Z-3.160 F2500
G1 X35.665 Y-1.359 Z-3.160 F2500
G0 Z5.000
G0 X25.590 Y-3.807 Z5.000
G0 X25.590 Y-3.807 Z3.000
G1 X25.590 Y-3.807 Z-3.160 F1500
G1 X-25.590 Y-3.807 Z-3.160 F2500
G3 X-24.298 Y-1.271 Z-3.160 I-4.340 J3.807 F2500
G1 X-23.844 Y-1.271 Z-3.160 F2500
G1 X-20.904 Y-2.968 Z-3.160 F2500
G3 X-15.496 Y-1.271 Z-3.160 I1.921 J3.345 F2500
G1 X-7.150 Y-1.271 Z-3.160 F2500
G3 X-4.500 Y-2.335 Z-3.160 I2.654 J2.778 F2500
G1 X4.500 Y-2.335 Z-3.160 F2500
G3 X7.150 Y-1.271 Z-3.160 I-0.005 J3.842 F2500
G1 X15.496 Y-1.271 Z-3.160 F2500
G3 X20.865 Y-2.990 Z-3.160 I3.489 J1.652 F2500
G3 X23.844 Y-1.271 Z-3.160 I-68.565 J122.242 F2500
G1 X24.298 Y-1.271 Z-3.160 F2500
G3 X24.176 Y-1.138 Z-3.160 I-0.161 J-0.025 F2500
G3 X23.844 Y-1.271 Z-3.160 I-0.044 J-0.370 F2500
G1 X23.844 Y-1.271 Z-4.490 F1500
G2 X24.176 Y-1.138 Z-4.490 I0.288 J-0.236 F2500
G2 X24.298 Y-1.271 Z-4.490 I-0.038 J-0.158 F2500
G1 X23.844 Y-1.271 Z-4.490 F2500
G2 X20.865 Y-2.990 Z-4.490 I-71.544 J120.523 F2500
G2 X15.496 Y-1.271 Z-4.490 I-1.880 J3.371 F2500
G1 X7.150 Y-1.271 Z-4.490 F2500
G2 X4.500 Y-2.335 Z-4.490 I-2.654 J2.778 F2500
G1 X-4.500 Y-2.335 Z-4.490 F2500
G2 X-7.150 Y-1.271 Z-4.490 I0.005 J3.842 F2500
G1 X-15.496 Y-1.271 Z-4.490 F2500
G2 X-20.904 Y-2.968 Z-4.490 I-3.488 J1.648 F2500
G1 X-23.844 Y-1.271 Z-4.490 F2500
G1 X-24.298 Y-1.271 Z-4.490 F2500
G2 X-25.590 Y-3.807 Z-4.490 I-5.632 J1.271 F2500
G1 X25.590 Y-3.807 Z-4.490 F2500
G0 Z5.000
G0 X25.577 Y-3.818 Z5.000
G0 X25.577 Y-3.818 Z3.000
G1 X25.577 Y-3.818 Z-4.490 F1500
G2 X24.285 Y-1.229 Z-4.490 I4.413 J3.820 F2500
G3 X23.983 Y-1.191 Z-4.490 I-0.164 J-0.085 F2500
G2 X20.865 Y-2.990 Z-4.490 I-74.885 J126.149 F2500
G2 X15.666 Y-1.565 Z-4.490 I-1.877 J3.347 F2500
G1 X11.166 Y6.230 Z-4.490 F2500
G2 X12.569 Y11.468 Z-4.490 I3.321 J1.918 F2500
G1 X22.096 Y16.968 Z-4.490 F2500
G2 X27.334 Y15.565 Z-4.490 I1.917 J-3.321 F2500
G1 X29.830 Y11.241 Z-4.490 F2500
G3 X30.077 Y11.107 Z-4.490 I0.183 J0.043 F2500
G2 X35.665 Y10.461 Z-4.490 I2.412 J-3.629 F2500
G1 X35.665 Y44.542 Z-4.490 F2500
G2 X28.500 Y49.200 Z-4.490 I-3.169 J2.965 F2500
G3 X28.417 Y49.372 Z-4.490 I-0.154 J0.032 F2500
G2 X30.890 Y60.758 Z-4.490 I1.581 J5.618 F2500
G1 X28.239 Y63.409 Z-4.490 F2500
G3 X25.206 Y64.665 Z-4.490 I-2.997 J-2.946 F2500
G1 X-25.206 Y64.665 Z-4.490 F2500
G3 X-28.239 Y63.409 Z-4.490 I-0.036 J-4.203 F2500
G1 X-30.890 Y60.758 Z-4.490 F2500
G2 X-28.417 Y49.372 Z-4.490 I0.890 J-5.768 F2500
G3 X-28.500 Y49.200 Z-4.490 I0.071 J-0.140 F2500
G2 X-35.665 Y44.542 Z-4.490 I-3.996 J-1.692 F2500
G1 X-35.665 Y10.461 Z-4.490 F2500
G2 X-30.077 Y11.107 Z-4.490 I3.176 J-2.979 F2500
G3 X-29.830 Y11.241 Z-4.490 I0.063 J0.177 F2500
G2 X-27.311 Y15.603 Z-4.490 I178.960 J-100.440 F2500
G2 X-22.096 Y16.968 Z-4.490 I3.299 J-1.960 F2500
G1 X-12.569 Y11.468 Z-4.490 F2500
G2 X-11.166 Y6.230 Z-4.490 I-1.918 J-3.321 F2500
G1 X-15.666 Y-1.565 Z-4.490 F2500
G2 X-20.904 Y-2.968 Z-4.490 I-3.321 J1.918 F2500
G1 X-23.983 Y-1.191 Z-4.490 F2500
G3 X-24.285 Y-1.229 Z-4.490 I-0.138 J-0.119 F2500
G2 X-35.665 Y-1.359 Z-4.490 I-5.705 J1.230 F2500
G1 X-35.665 Y-44.542 Z-4.490 F2500
G2 X-28.500 Y-49.200 Z-4.490 I3.169 J-2.965 F2500
G3 X-28.417 Y-49.372 Z-4.490 I0.154 J-0.032 F2500
G2 X-30.890 Y-60.758 Z-4.490 I-1.581 J-5.618 F2500
G1 X-28.239 Y-63.409 Z-4.490 F2500
G3 X-25.206 Y-64.665 Z-4.490 I2.997 J2.946 F2500
G1 X25.206 Y-64.665 Z-4.490 F2500
G3 X28.239 Y-63.409 Z-4.490 I0.036 J4.203 F2500
G1 X30.890 Y-60.758 Z-4.490 F2500
G2 X28.417 Y-49.372 Z-4.490 I-0.890 J5.768 F2500
G3 X28.500 Y-49.200 Z-4.490 I-0.071 J0.140 F2500
G2 X35.665 Y-44.542 Z-4.490 I3.996 J1.692 F2500
G1 X35.665 Y-1.359 Z-4.490 F2500
G2 X25.577 Y-3.818 Z-4.490 I-5.675 J1.361 F2500
G0 Z5.000
G0 X34.420 Y-3.807 Z5.000
G0 X34.420 Y-3.807 Z3.000
G1 X34.420 Y-3.807 Z-4.490 F1500
G1 X35.665 Y-3.807 Z-4.490 F2500
G1 X35.665 Y-1.359 Z-4.490 F2500
G2 X34.420 Y-3.807 Z-4.490 I-5.522 J1.269 F2500
G0 Z5.000
G0 X35.665 Y1.396 Z5.000
G0 X35.665 Y1.396 Z3.000
G1 X35.665 Y1.396 Z-4.490 F1500
G1 X35.665 Y4.551 Z-4.490 F2500
G2 X34.644 Y3.694 Z-4.490 I-4.484 J4.311 F2500
G3 X34.737 Y3.400 Z-4.490 I0.228 J-0.089 F2500
G2 X35.665 Y1.396 Z-4.490 I-4.677 J-3.383 F2500
G0 Z5.000
G0 Y3.801 Z5.000
G0 Y3.801 Z3.000
G1 X35.665 Y3.801 Z-4.490 F1500
G1 X34.764 Y3.801 Z-4.490 F2500
G3 X34.643 Y3.552 Z-4.490 I0.046 J-0.176 F2500
G2 X35.665 Y1.396 Z-4.490 I-4.982 J-3.682 F2500
G1 X35.665 Y3.801 Z-4.490 F2500
G1 X35.665 Y4.551 Z-4.490 F2500
G2 X34.764 Y3.801 Z-4.490 I-2.907 J2.579 F2500
G0 Z5.000
G0 X35.665 Y10.461 Z5.000
G0 X35.665 Y10.461 Z3.000
G1 X35.665 Y10.461 Z-4.490 F1500
G3 X34.365 Y11.409 Z-4.490 I-3.116 J-2.906 F2500
G1 X35.665 Y11.409 Z-4.490 F2500
G1 X35.665 Y10.461 Z-4.490 F2500
G0 Z5.000
G0 X29.734 Y11.409 Z5.000
G0 X29.734 Y11.409 Z3.000
G1 X29.734 Y11.409 Z-4.490 F1500
G1 X30.636 Y11.409 Z-4.490 F2500
G2 X30.050 Y11.098 Z-4.490 I-6.479 J11.502 F2500
G2 X29.830 Y11.241 Z-4.490 I-0.029 J0.195 F2500
G1 X29.734 Y11.409 Z-4.490 F2500
G1 X28.269 Y13.945 Z-4.490 F2500
G1 X35.665 Y13.945 Z-4.490 F2500
G1 X35.665 Y16.481 Z-4.490 F2500
G1 X26.583 Y16.481 Z-4.490 F2500
G0 Z5.000
G0 X13.787 Y23.711 Z5.000
G0 X13.787 Y23.711 Z3.000
G1 X13.787 Y23.711 Z-4.490 F1500
G2 X4.545 Y16.334 Z-4.490 I-13.781 J7.787 F2500
G2 X8.335 Y12.500 Z-4.490 I-0.048 J-3.837 F2500
G1 X8.335 Y1.500 Z-4.490 F2500
G2 X4.500 Y-2.335 Z-4.490 I-3.835 J0.000 F2500
G1 X-4.500 Y-2.335 Z-4.490 F2500
G2 X-8.335 Y1.500 Z-4.490 I0.000 J3.835 F2500
G1 X-8.335 Y12.500 Z-4.490 F2500
G2 X-4.545 Y16.334 Z-4.490 I3.834 J0.000 F2500
G2 X-15.149 Y36.108 Z-4.490 I4.545 J15.167 F2500
G2 X4.667 Y46.631 Z-4.490 I15.149 J-4.606 F2500
G2 X15.835 Y31.500 Z-4.490 I-4.672 J-15.135 F2500
G2 X13.787 Y23.711 Z-4.490 I-15.828 J-0.002 F2500
G0 Z5.000
G0 X9.202 Y44.377 Z5.000
G0 X9.202 Y44.377 Z3.000
G1 X9.202 Y44.377 Z-4.490 F1500
G1 X29.498 Y44.377 Z-4.490 F2500
G2 X28.205 Y46.913 Z-4.490 I2.970 J3.112 F2500
G1 X3.622 Y46.913 Z-4.490 F2500
G0 Z5.000
G0 X25.206 Y64.665 Z5.000
G0 X25.206 Y64.665 Z3.000
G1 X25.206 Y64.665 Z-4.490 F1500
G1 X-25.206 Y64.665 Z-4.490 F2500
G3 X-28.239 Y63.409 Z-4.490 I-0.036 J-4.203 F2500
G1 X-29.519 Y62.129 Z-4.490 F2500
G1 X29.519 Y62.129 Z-4.490 F2500
G1 X30.890 Y60.758 Z-4.490 F2500
G3 X26.417 Y59.593 Z-4.490 I-0.908 J-5.685 F2500
G1 X-26.417 Y59.593 Z-4.490 F2500
G2 X-24.548 Y57.057 Z-4.490 I-3.466 J-4.511 F2500
G1 X24.548 Y57.057 Z-4.490 F2500
G3 X24.194 Y54.521 Z-4.490 I5.119 J-2.005 F2500
G1 X-24.194 Y54.521 Z-4.490 F2500
G2 X-25.013 Y51.985 Z-4.490 I-5.511 J0.379 F2500
G1 X25.013 Y51.985 Z-4.490 F2500
G3 X28.220 Y49.449 Z-4.490 I4.925 J2.932 F2500
G1 X-28.220 Y49.449 Z-4.490 F2500
G3 X-28.494 Y49.287 Z-4.490 I-0.003 J-0.309 F2500
G3 X-28.442 Y49.012 Z-4.490 I0.314 J-0.083 F2500
G2 X-28.205 Y46.913 Z-4.490 I-4.027 J-1.517 F2500
G1 X-3.622 Y46.913 Z-4.490 F2500
G3 X-9.202 Y44.377 Z-4.490 I3.518 J-15.148 F2500
G1 X-29.498 Y44.377 Z-4.490 F2500
G2 X-35.493 Y44.377 Z-4.490 I-2.997 J3.104 F2500
G1 X-35.665 Y44.377 Z-4.490 F2500
G1 X-35.665 Y41.841 Z-4.490 F2500
G1 X-11.979 Y41.841 Z-4.490 F2500
G3 X-13.774 Y39.305 Z-4.490 I11.020 J-9.704 F2500
G1 X-35.665 Y39.305 Z-4.490 F2500
G1 X-35.665 Y36.769 Z-4.490 F2500
G1 X-14.922 Y36.769 Z-4.490 F2500
G3 X-15.589 Y34.233 Z-4.490 I12.820 J-4.725 F2500
G1 X-35.665 Y34.233 Z-4.490 F2500
G1 X-35.665 Y31.697 Z-4.490 F2500
G1 X-15.829 Y31.697 Z-4.490 F2500
G3 X-15.661 Y29.161 Z-4.490 I15.204 J-0.268 F2500
G1 X-35.665 Y29.161 Z-4.490 F2500
G1 X-35.665 Y26.625 Z-4.490 F2500
G1 X-15.060 Y26.625 Z-4.490 F2500
G3 X-13.983 Y24.089 Z-4.490 I12.935 J3.999 F2500
G1 X-35.665 Y24.089 Z-4.490 F2500
G1 X-35.665 Y21.553 Z-4.490 F2500
G1 X-12.318 Y21.553 Z-4.490 F2500
G3 X-9.736 Y19.017 Z-4.490 I11.938 J9.573 F2500
G1 X-35.665 Y19.017 Z-4.490 F2500
G1 X-35.665 Y16.481 Z-4.490 F2500
G1 X-26.583 Y16.481 Z-4.490 F2500
G3 X-27.334 Y15.565 Z-4.490 I2.565 J-2.868 F2500
G1 X-28.269 Y13.945 Z-4.490 F2500
G1 X-35.665 Y13.945 Z-4.490 F2500
G1 X-35.665 Y11.409 Z-4.490 F2500
G1 X-34.365 Y11.409 Z-4.490 F2500
G3 X-35.665 Y10.461 Z-4.490 I1.816 J-3.855 F2500
G1 X-35.665 Y11.409 Z-4.490 F2500
G0 Z5.000
G0 X-30.636 Z5.000
G0 X-30.636 Z3.000
G1 X-30.636 Y11.409 Z-4.490 F1500
G1 X-29.734 Y11.409 Z-4.490 F2500
G2 X-29.939 Y11.114 Z-4.490 I-0.535 J0.153 F2500
G2 X-30.077 Y11.107 Z-4.490 I-0.076 J0.138 F2500
G3 X-30.636 Y11.409 Z-4.490 I-7.258 J-12.755 F2500
G0 Z5.000
G0 X-35.665 Y4.551 Z5.000
G0 X-35.665 Y4.551 Z3.000
G1 X-35.665 Y4.551 Z-4.490 F1500
G1 X-35.665 Y1.396 Z-4.490 F2500
G2 X-34.632 Y3.580 Z-4.490 I6.384 J-1.684 F2500
G1 X-34.627 Y3.609 Z-4.490 F2500
G3 X-34.680 Y3.740 Z-4.490 I-0.156 J0.013 F2500
G2 X-35.665 Y4.551 Z-4.490 I2.149 J3.617 F2500
G0 Z5.000
G0 Y3.801 Z5.000
G0 Y3.801 Z3.000
G1 X-35.665 Y3.801 Z-4.490 F1500
G1 X-35.665 Y4.551 Z-4.490 F2500
G3 X-34.764 Y3.801 Z-4.490 I3.020 J2.714 F2500
G2 X-34.632 Y3.580 Z-4.490 I-0.055 J-0.182 F2500
G3 X-35.665 Y1.396 Z-4.490 I5.352 J-3.867 F2500
G1 X-35.665 Y3.801 Z-4.490 F2500
G1 X-34.764 Y3.801 Z-4.490 F2500
G0 Z5.000
G0 X-34.420 Y-3.807 Z5.000
G0 X-34.420 Y-3.807 Z3.000
G1 X-34.420 Y-3.807 Z-4.490 F1500
G2 X-35.665 Y-1.359 Z-4.490 I4.248 J3.702 F2500
G1 X-35.665 Y-3.807 Z-4.490 F2500
G1 X-34.420 Y-3.807 Z-4.490 F2500
G3 X-25.590 Y-3.807 Z-4.490 I4.415 J3.794 F2500
G1 X25.590 Y-3.807 Z-4.490 F2500
G3 X34.420 Y-3.807 Z-4.490 I4.415 J3.792 F2500
G1 X35.665 Y-3.807 Z-4.490 F2500
G1 X35.665 Y-6.343 Z-4.490 F2500
G1 X-35.665 Y-6.343 Z-4.490 F2500
G1 X-35.665 Y-8.879 Z-4.490 F2500
G1 X35.665 Y-8.879 Z-4.490 F2500
G1 X35.665 Y-11.415 Z-4.490 F2500
G1 X-35.665 Y-11.415 Z-4.490 F2500
G1 X-35.665 Y-13.951 Z-4.490 F2500
G1 X35.665 Y-13.951 Z-4.490 F2500
G1 X35.665 Y-16.487 Z-4.490 F2500
G1 X19.929 Y-16.487 Z-4.490 F2500
G2 X20.835 Y-19.023 Z-4.490 I-2.951 J-2.484 F2500
G1 X35.665 Y-19.023 Z-4.490 F2500
G1 X35.665 Y-21.559 Z-4.490 F2500
G1 X20.835 Y-21.559 Z-4.490 F2500
G1 X20.835 Y-24.095 Z-4.490 F2500
G1 X35.665 Y-24.095 Z-4.490 F2500
G1 X35.665 Y-26.631 Z-4.490 F2500
G1 X20.835 Y-26.631 Z-4.490 F2500
G2 X20.788 Y-28.517 Z-4.490 I-10.245 J-0.687 F2500
G2 X20.628 Y-29.167 Z-4.490 I-2.839 J0.356 F2500
G1 X35.665 Y-29.167 Z-4.490 F2500
G1 X35.665 Y-31.703 Z-4.490 F2500
G1 X17.774 Y-31.703 Z-4.490 F2500
G2 X17.000 Y-31.782 Z-4.490 I-0.960 J5.539 F2500
G1 X6.000 Y-31.782 Z-4.490 F2500
G2 X5.226 Y-31.703 Z-4.490 I0.186 J5.619 F2500
G1 X-5.226 Y-31.703 Z-4.490 F2500
G2 X-6.000 Y-31.782 Z-4.490 I-0.960 J5.539 F2500
G1 X-17.000 Y-31.782 Z-4.490 F2500
G2 X-17.774 Y-31.703 Z-4.490 I0.186 J5.619 F2500
G1 X-35.665 Y-31.703 Z-4.490 F2500
G1 X-35.665 Y-34.239 Z-4.490 F2500
G1 X35.665 Y-34.239 Z-4.490 F2500
G1 X35.665 Y-36.775 Z-4.490 F2500
G1 X-35.665 Y-36.775 Z-4.490 F2500
G1 X-35.665 Y-39.311 Z-4.490 F2500
G1 X35.665 Y-39.311 Z-4.490 F2500
G1 X35.665 Y-41.847 Z-4.490 F2500
G1 X-35.665 Y-41.847 Z-4.490 F2500
G1 X-35.665 Y-44.383 Z-4.490 F2500
G1 X-35.499 Y-44.383 Z-4.490 F2500
G3 X-35.665 Y-44.542 Z-4.490 I3.538 J-3.855 F2500
G1 X-35.665 Y-44.383 Z-4.490 F2500
G0 Z5.000
G0 Y-50.450 Z5.000
G0 Y-50.450 Z3.000
G1 X-35.665 Y-50.450 Z-4.490 F1500
G1 X-35.665 Y-53.610 Z-4.490 F2500
G2 X-34.632 Y-51.420 Z-4.490 I6.344 J-1.654 F2500
G1 X-34.627 Y-51.391 Z-4.490 F2500
G3 X-34.680 Y-51.260 Z-4.490 I-0.156 J0.013 F2500
G2 X-35.665 Y-50.450 Z-4.490 I2.168 J3.642 F2500
G0 Z5.000
G0 Y-51.991 Z5.000
G0 Y-51.991 Z3.000
G1 X-35.665 Y-51.991 Z-4.490 F1500
G1 X-35.665 Y-50.450 Z-4.490 F2500
G3 X-34.644 Y-51.306 Z-4.490 I4.515 J4.350 F2500
G2 X-34.738 Y-51.601 Z-4.490 I-0.229 J-0.090 F2500
G1 X-34.992 Y-51.991 Z-4.490 F2500
G1 X-35.665 Y-51.991 Z-4.490 F2500
G1 X-35.665 Y-53.610 Z-4.490 F2500
G2 X-34.992 Y-51.991 Z-4.490 I5.583 J-1.372 F2500
G0 Z5.000
G0 X-29.492 Y-44.383 Z5.000
G0 X-29.492 Y-44.383 Z3.000
G1 X-29.492 Y-44.383 Z-4.490 F1500
G1 X29.492 Y-44.383 Z-4.490 F2500
G3 X28.204 Y-46.919 Z-4.490 I2.992 J-3.115 F2500
G1 X-28.204 Y-46.919 Z-4.490 F2500
G2 X-28.504 Y-49.229 Z-4.490 I-4.657 J-0.571 F2500
G3 X-28.417 Y-49.372 Z-4.490 I0.157 J-0.003 F2500
G3 X-28.203 Y-49.455 Z-4.490 I1.892 J4.589 F2500
G1 X28.203 Y-49.455 Z-4.490 F2500
G3 X25.010 Y-51.991 Z-4.490 I1.730 J-5.457 F2500
G1 X-25.010 Y-51.991 Z-4.490 F2500
G2 X-24.194 Y-54.527 Z-4.490 I-4.693 J-2.909 F2500
G1 X24.194 Y-54.527 Z-4.490 F2500
G3 X24.550 Y-57.063 Z-4.490 I5.477 J-0.525 F2500
G1 X-24.550 Y-57.063 Z-4.490 F2500
G2 X-26.424 Y-59.599 Z-4.490 I-5.335 J1.983 F2500
G1 X26.424 Y-59.599 Z-4.490 F2500
G3 X30.890 Y-60.758 Z-4.490 I3.558 J4.528 F2500
G1 X29.513 Y-62.135 Z-4.490 F2500
G1 X-29.513 Y-62.135 Z-4.490 F2500
G3 X-27.852 Y-63.754 Z-4.490 I15.245 J13.971 F2500
G3 X-25.206 Y-64.665 Z-4.490 I2.608 J3.278 F2500
G1 X25.206 Y-64.665 Z-4.490 F2500
G3 X28.239 Y-63.409 Z-4.490 I0.036 J4.203 F2500
G1 X29.513 Y-62.135 Z-4.490 F2500
G0 Z5.000
G0 X35.665 Y-53.610 Z5.000
G0 X35.665 Y-53.610 Z3.000
G1 X35.665 Y-53.610 Z-4.490 F1500
G1 X35.665 Y-50.450 Z-4.490 F2500
G2 X34.644 Y-51.306 Z-4.490 I-4.515 J4.350 F2500
G3 X34.738 Y-51.601 Z-4.490 I0.229 J-0.090 F2500
G2 X35.665 Y-53.610 Z-4.490 I-4.755 J-3.413 F2500
G0 Z5.000
G0 Y-51.991 Z5.000
G0 Y-51.991 Z3.000
G1 X35.665 Y-51.991 Z-4.490 F1500
G1 X35.665 Y-53.610 Z-4.490 F2500
G3 X34.992 Y-51.991 Z-4.490 I-5.583 J-1.372 F2500
G1 X35.665 Y-51.991 Z-4.490 F2500
G1 X35.665 Y-50.450 Z-4.490 F2500
G2 X34.680 Y-51.260 Z-4.490 I-3.153 J2.832 F2500
G3 X34.643 Y-51.448 Z-4.490 I0.103 J-0.118 F2500
G3 X34.992 Y-51.991 Z-4.490 I11.918 J7.274 F2500
G0 Z5.000
G0 X35.665 Y-44.542 Z5.000
G0 X35.665 Y-44.542 Z3.000
G1 X35.665 Y-44.542 Z-4.490 F1500
G3 X35.499 Y-44.383 Z-4.490 I-3.704 J-3.696 F2500
G1 X35.665 Y-44.383 Z-4.490 F2500
G1 X35.665 Y-44.542 Z-4.490 F2500
G0 Z5.000
G0 X19.866 Y-30.496 Z5.000
G0 X19.866 Y-30.496 Z3.000
G1 X19.866 Y-30.496 Z-4.490 F1500
G2 X17.000 Y-31.782 Z-4.490 I-2.866 J2.548 F2500
G1 X6.000 Y-31.782 Z-4.490 F2500
G2 X2.165 Y-27.947 Z-4.490 I0.000 J3.835 F2500
G1 X2.165 Y-18.947 Z-4.490 F2500
G2 X6.000 Y-15.112 Z-4.490 I3.835 J0.000 F2500
G1 X17.000 Y-15.112 Z-4.490 F2500
G2 X20.835 Y-18.947 Z-4.490 I-0.000 J-3.835 F2500
G1 X20.835 Y-27.947 Z-4.490 F2500
G2 X19.866 Y-30.496 Z-4.490 I-3.835 J0.000 F2500
G0 Z5.000
G0 X3.071 Y-16.487 Z5.000
G0 X3.071 Y-16.487 Z3.000
G1 X3.071 Y-16.487 Z-4.490 F1500
G1 X-3.071 Y-16.487 Z-4.490 F2500
G2 X-2.165 Y-19.023 Z-4.490 I-2.951 J-2.484 F2500
G1 X2.165 Y-19.023 Z-4.490 F2500
G1 X2.165 Y-21.559 Z-4.490 F2500
G1 X-2.165 Y-21.559 Z-4.490 F2500
G1 X-2.165 Y-24.095 Z-4.490 F2500
G1 X2.165 Y-24.095 Z-4.490 F2500
G1 X2.165 Y-26.631 Z-4.490 F2500
G1 X-2.165 Y-26.631 Z-4.490 F2500
G2 X-2.212 Y-28.517 Z-4.490 I-10.245 J-0.687 F2500
G2 X-2.372 Y-29.167 Z-4.490 I-2.839 J0.356 F2500
G1 X2.372 Y-29.167 Z-4.490 F2500
G3 X5.226 Y-31.703 Z-4.490 I3.616 J1.196 F2500
G1 X-5.226 Y-31.703 Z-4.490 F2500
G0 Z5.000
G0 X-5.226 Y-31.704 Z5.000
G0 X-5.226 Y-31.704 Z3.000
G1 X-5.226 Y-31.704 Z-4.490 F1500
G2 X-6.000 Y-31.782 Z-4.490 I-0.774 J3.756 F2500
G1 X-17.000 Y-31.782 Z-4.490 F2500
G2 X-20.835 Y-27.947 Z-4.490 I0.000 J3.835 F2500
G1 X-20.835 Y-18.947 Z-4.490 F2500
G2 X-17.000 Y-15.112 Z-4.490 I3.835 J-0.000 F2500
G1 X-6.000 Y-15.112 Z-4.490 F2500
G2 X-2.165 Y-18.947 Z-4.490 I0.000 J-3.835 F2500
G1 X-2.165 Y-27.947 Z-4.490 F2500
G2 X-5.226 Y-31.704 Z-4.490 I-3.835 J0.000 F2500
G0 Z5.000
G0 X-19.929 Y-16.487 Z5.000
G0 X-19.929 Y-16.487 Z3.000
G1 X-19.929 Y-16.487 Z-4.490 F1500
G1 X-35.665 Y-16.487 Z-4.490 F2500
G1 X-35.665 Y-19.023 Z-4.490 F2500
G1 X-20.835 Y-19.023 Z-4.490 F2500
G1 X-20.835 Y-21.559 Z-4.490 F2500
G1 X-35.665 Y-21.559 Z-4.490 F2500
G1 X-35.665 Y-24.095 Z-4.490 F2500
G1 X-20.835 Y-24.095 Z-4.490 F2500
G1 X-20.835 Y-26.631 Z-4.490 F2500
G1 X-35.665 Y-26.631 Z-4.490 F2500
G1 X-35.665 Y-29.167 Z-4.490 F2500
G1 X-20.628 Y-29.167 Z-4.490 F2500
G3 X-17.774 Y-31.703 Z-4.490 I3.616 J1.196 F2500
G1 X-35.665 Y-31.703 Z-4.490 F2500
G0 Z5.000
G0 X-24.298 Y-1.271 Z5.000
G0 X-24.298 Y-1.271 Z3.000
G1 X-24.298 Y-1.271 Z-4.490 F1500
G2 X-23.983 Y-1.191 Z-4.490 I0.177 J-0.037 F2500
G1 X-23.844 Y-1.271 Z-4.490 F2500
G1 X-24.298 Y-1.271 Z-4.490 F2500
G0 Z5.000
G0 X-15.496 Z5.000
G0 X-15.496 Z3.000
G1 X-15.496 Y-1.271 Z-4.490 F1500
G1 X-7.150 Y-1.271 Z-4.490 F2500
G2 X-8.321 Y1.265 Z-4.490 I2.660 J2.767 F2500
G1 X-14.032 Y1.265 Z-4.490 F2500
G1 X-12.568 Y3.801 Z-4.490 F2500
G1 X-8.335 Y3.801 Z-4.490 F2500
G1 X-8.335 Y6.337 Z-4.490 F2500
G1 X-11.108 Y6.337 Z-4.490 F2500
G3 X-10.730 Y8.873 Z-4.490 I-3.312 J1.791 F2500
G1 X-8.335 Y8.873 Z-4.490 F2500
G1 X-8.335 Y11.409 Z-4.490 F2500
G1 X-12.474 Y11.409 Z-4.490 F2500
G3 X-12.531 Y11.445 Z-4.490 I-0.768 J-1.140 F2500
G3 X-16.859 Y13.945 Z-4.490 I-103.987 J-175.068 F2500
G1 X-8.052 Y13.945 Z-4.490 F2500
G2 X-4.545 Y16.334 Z-4.490 I3.551 J-1.443 F2500
G2 X-4.993 Y16.481 Z-4.490 I0.977 J3.740 F2500
G1 X-21.252 Y16.481 Z-4.490 F2500
G0 Z5.000
G0 X-35.493 Y44.377 Z5.000
G0 X-35.493 Y44.377 Z3.000
G1 X-35.493 Y44.377 Z-4.490 F1500
G1 X-35.665 Y44.377 Z-4.490 F2500
G1 X-35.665 Y44.542 Z-4.490 F2500
G3 X-35.493 Y44.377 Z-4.490 I3.843 J3.836 F2500
G0 Z5.000
G0 X-35.665 Y50.450 Z5.000
G0 X-35.665 Y50.450 Z3.000
G1 X-35.665 Y50.450 Z-4.490 F1500
G2 X-34.644 Y51.306 Z-4.490 I4.515 J-4.350 F2500
G3 X-34.627 Y51.391 Z-4.490 I-0.139 J0.072 F2500
G3 X-34.738 Y51.601 Z-4.490 I-0.419 J-0.087 F2500
G2 X-35.665 Y53.610 Z-4.490 I4.755 J3.413 F2500
G1 X-35.665 Y50.450 Z-4.490 F2500
G0 Z5.000
G0 Y51.985 Z5.000
G0 Y51.985 Z3.000
G1 X-35.665 Y51.985 Z-4.490 F1500
G1 X-35.665 Y50.450 Z-4.490 F2500
G2 X-34.680 Y51.260 Z-4.490 I3.153 J-2.832 F2500
G3 X-34.643 Y51.448 Z-4.490 I-0.103 J0.118 F2500
G3 X-34.988 Y51.985 Z-4.490 I-11.786 J-7.192 F2500
G1 X-35.665 Y51.985 Z-4.490 F2500
G1 X-35.665 Y53.610 Z-4.490 F2500
G3 X-34.988 Y51.985 Z-4.490 I5.575 J1.370 F2500
G0 Z5.000
G0 X7.150 Y-1.271 Z5.000
G0 X7.150 Y-1.271 Z3.000
G1 X7.150 Y-1.271 Z-4.490 F1500
G1 X15.496 Y-1.271 Z-4.490 F2500
G1 X14.032 Y1.265 Z-4.490 F2500
G1 X8.321 Y1.265 Z-4.490 F2500
G3 X8.333 Y1.410 Z-4.490 I-2.947 J0.318 F2500
G3 X8.335 Y3.801 Z-4.490 I-32.666 J1.226 F2500
G1 X12.568 Y3.801 Z-4.490 F2500
G1 X11.166 Y6.230 Z-4.490 F2500
G2 X11.108 Y6.337 Z-4.490 I1.520 J0.878 F2500
G1 X8.335 Y6.337 Z-4.490 F2500
G1 X8.335 Y8.873 Z-4.490 F2500
G1 X10.730 Y8.873 Z-4.490 F2500
G2 X12.474 Y11.409 Z-4.490 I3.757 J-0.716 F2500
G1 X8.335 Y11.409 Z-4.490 F2500
G1 X8.335 Y12.500 Z-4.490 F2500
G3 X8.052 Y13.945 Z-4.490 I-3.885 J-0.011 F2500
G1 X16.859 Y13.945 Z-4.490 F2500
G1 X21.252 Y16.481 Z-4.490 F2500
G1 X4.993 Y16.481 Z-4.490 F2500
G3 X9.736 Y19.017 Z-4.490 I-4.806 J14.693 F2500
G1 X35.665 Y19.017 Z-4.490 F2500
G1 X35.665 Y21.553 Z-4.490 F2500
G1 X12.318 Y21.553 Z-4.490 F2500
G3 X13.983 Y24.089 Z-4.490 I-11.422 J9.310 F2500
G1 X35.665 Y24.089 Z-4.490 F2500
G1 X35.665 Y26.625 Z-4.490 F2500
G1 X15.060 Y26.625 Z-4.490 F2500
G3 X15.661 Y29.161 Z-4.490 I-14.398 J4.751 F2500
G1 X35.665 Y29.161 Z-4.490 F2500
G1 X35.665 Y31.697 Z-4.490 F2500
G1 X15.829 Y31.697 Z-4.490 F2500
G3 X15.589 Y34.233 Z-4.490 I-14.344 J-0.078 F2500
G1 X35.665 Y34.233 Z-4.490 F2500
G1 X35.665 Y36.769 Z-4.490 F2500
G1 X14.922 Y36.769 Z-4.490 F2500
G3 X13.774 Y39.305 Z-4.490 I-12.860 J-4.293 F2500
G1 X35.665 Y39.305 Z-4.490 F2500
G1 X35.665 Y41.841 Z-4.490 F2500
G1 X11.979 Y41.841 Z-4.490 F2500
G3 X9.202 Y44.377 Z-4.490 I-11.195 J-9.471 F2500
G1 X29.498 Y44.377 Z-4.490 F2500
G3 X35.493 Y44.377 Z-4.490 I2.997 J3.100 F2500
G1 X35.665 Y44.377 Z-4.490 F2500
G1 X35.665 Y44.542 Z-4.490 F2500
G2 X35.493 Y44.377 Z-4.490 I-3.843 J3.836 F2500
G0 Z5.000
G0 X35.665 Y50.450 Z5.000
G0 X35.665 Y50.450 Z3.000
G1 X35.665 Y50.450 Z-4.490 F1500
G1 X35.665 Y53.610 Z-4.490 F2500
G2 X34.632 Y51.420 Z-4.490 I-6.344 J1.654 F2500
G3 X34.680 Y51.260 Z-4.490 I0.151 J-0.042 F2500
G2 X35.665 Y50.450 Z-4.490 I-2.168 J-3.642 F2500
G0 Z5.000
G0 Y51.985 Z5.000
G0 Y51.985 Z3.000
G1 X35.665 Y51.985 Z-4.490 F1500
G1 X35.665 Y53.610 Z-4.490 F2500
G2 X34.988 Y51.985 Z-4.490 I-5.575 J1.370 F2500
G1 X35.665 Y51.985 Z-4.490 F2500
G1 X35.665 Y50.450 Z-4.490 F2500
G3 X34.644 Y51.306 Z-4.490 I-4.515 J-4.350 F2500
G2 X34.738 Y51.601 Z-4.490 I0.229 J0.090 F2500
G1 X34.988 Y51.985 Z-4.490 F2500
G0 Z5.000
G0 Z5.000
(Finish operation: Pocket_3D001)
(Begin operation: Pocket_3D002)
(Path: Pocket_3D002)
(Pocket_3D002)
G0 Z5.000
G0 X23.148 Y56.689
G0 Z3.000
G1 X23.148 Y56.689 Z-6.500 F1500
G3 X21.928 Y57.665 Z-6.500 I-1.165 J-0.206 F2500
G1 X14.072 Y57.665 Z-6.500 F2500
G3 X12.835 Y56.428 Z-6.500 I-0.055 J-1.182 F2500
G1 X12.835 Y51.572 Z-6.500 F2500
G3 X14.072 Y50.335 Z-6.500 I1.182 J-0.055 F2500
G1 X21.928 Y50.335 Z-6.500 F2500
G3 X23.165 Y51.572 Z-6.500 I0.055 J1.182 F2500
G1 X23.165 Y56.428 Z-6.500 F2500
G3 X23.148 Y56.689 Z-6.500 I-1.182 J0.055 F2500
G0 Z5.000
G0 X23.165 Y55.464 Z5.000
G0 X23.165 Y55.464 Z3.000
G1 X23.165 Y55.464 Z-6.500 F1500
G1 X23.165 Y56.428 Z-6.500 F2500
G3 X21.928 Y57.665 Z-6.500 I-1.182 J0.055 F2500
G1 X14.072 Y57.665 Z-6.500 F2500
G3 X12.855 Y56.681 Z-6.500 I-0.057 J-1.174 F2500
G3 X12.835 Y55.464 Z-6.500 I7.725 J-0.735 F2500
G1 X23.165 Y55.464 Z-6.500 F2500
G1 X23.165 Y52.928 Z-6.500 F2500
G1 X12.835 Y52.928 Z-6.500 F2500
G1 X12.835 Y51.572 Z-6.500 F2500
G3 X13.665 Y50.392 Z-6.500 I1.172 J-0.058 F2500
G1 X22.335 Y50.392 Z-6.500 F2500
G2 X21.928 Y50.335 Z-6.500 I-0.383 J1.257 F2500
G1 X14.072 Y50.335 Z-6.500 F2500
G2 X13.665 Y50.392 Z-6.500 I-0.024 J1.314 F2500
G0 Z5.000
G0 X5.158 Y51.380 Z5.000
G0 X5.158 Y51.380 Z3.000
G1 X5.158 Y51.380 Z-6.500 F1500
G3 X5.165 Y51.572 Z-6.500 I-1.175 J0.137 F2500
G1 X5.165 Y56.428 Z-6.500 F2500
G3 X3.928 Y57.665 Z-6.500 I-1.182 J0.055 F2500
G1 X-3.928 Y57.665 Z-6.500 F2500
G3 X-5.165 Y56.428 Z-6.500 I-0.055 J-1.182 F2500
G1 X-5.165 Y51.572 Z-6.500 F2500
G3 X-3.928 Y50.335 Z-6.500 I1.182 J-0.055 F2500
G1 X3.928 Y50.335 Z-6.500 F2500
G3 X5.158 Y51.380 Z-6.500 I0.055 J1.182 F2500
G0 Z5.000
G0 X5.165 Y55.464 Z5.000
G0 X5.165 Y55.464 Z3.000
G1 X5.165 Y55.464 Z-6.500 F1500
G1 X5.165 Y56.428 Z-6.500 F2500
G3 X3.928 Y57.665 Z-6.500 I-1.182 J0.055 F2500
G1 X-3.928 Y57.665 Z-6.500 F2500
G3 X-5.145 Y56.681 Z-6.500 I-0.057 J-1.174 F2500
G3 X-5.165 Y55.464 Z-6.500 I7.725 J-0.735 F2500
G1 X5.165 Y55.464 Z-6.500 F2500
G1 X5.165 Y52.928 Z-6.500 F2500
G1 X-5.165 Y52.928 Z-6.500 F2500
G1 X-5.165 Y51.572 Z-6.500 F2500
G3 X-4.335 Y50.392 Z-6.500 I1.172 J-0.058 F2500
G1 X4.335 Y50.392 Z-6.500 F2500
G2 X3.928 Y50.335 Z-6.500 I-0.383 J1.257 F2500
G1 X-3.928 Y50.335 Z-6.500 F2500
G2 X-4.335 Y50.392 Z-6.500 I-0.024 J1.314 F2500
G0 Z5.000
G0 X-12.842 Y51.380 Z5.000
G0 X-12.842 Y51.380 Z3.000
G1 X-12.842 Y51.380 Z-6.500 F1500
G3 X-12.835 Y51.572 Z-6.500 I-1.175 J0.137 F2500
G1 X-12.835 Y56.428 Z-6.500 F2500
G3 X-14.072 Y57.665 Z-6.500 I-1.182 J0.055 F2500
G1 X-21.928 Y57.665 Z-6.500 F2500
G3 X-23.165 Y56.428 Z-6.500 I-0.055 J-1.182 F2500
G1 X-23.165 Y51.572 Z-6.500 F2500
G3 X-21.928 Y50.335 Z-6.500 I1.182 J-0.055 F2500
G1 X-14.072 Y50.335 Z-6.500 F2500
G3 X-12.842 Y51.380 Z-6.500 I0.055 J1.182 F2500
G0 Z5.000
G0 X-12.835 Y55.464 Z5.000
G0 X-12.835 Y55.464 Z3.000
G1 X-12.835 Y55.464 Z-6.500 F1500
G1 X-12.835 Y56.428 Z-6.500 F2500
G3 X-14.072 Y57.665 Z-6.500 I-1.182 J0.055 F2500
G1 X-21.928 Y57.665 Z-6.500 F2500
G3 X-23.145 Y56.681 Z-6.500 I-0.057 J-1.174 F2500
G3 X-23.165 Y55.464 Z-6.500 I7.725 J-0.735 F2500
G1 X-12.835 Y55.464 Z-6.500 F2500
G1 X-12.835 Y52.928 Z-6.500 F2500
G1 X-23.165 Y52.928 Z-6.500 F2500
G1 X-23.165 Y51.572 Z-6.500 F2500
G3 X-22.335 Y50.392 Z-6.500 I1.172 J-0.058 F2500
G1 X-13.665 Y50.392 Z-6.500 F2500
G2 X-14.072 Y50.335 Z-6.500 I-0.383 J1.257 F2500
G1 X-21.928 Y50.335 Z-6.500 F2500
G2 X-22.335 Y50.392 Z-6.500 I-0.024 J1.314 F2500
G0 Z5.000
G0 Y41.665 Z5.000
G0 Y41.665 Z3.000
G1 X-22.335 Y41.665 Z-6.500 F1500
G1 X-27.428 Y41.665 Z-6.500 F2500
G3 X-28.665 Y40.428 Z-6.500 I-0.055 J-1.182 F2500
G1 X-28.665 Y36.572 Z-6.500 F2500
G3 X-27.428 Y35.335 Z-6.500 I1.182 J-0.055 F2500
G1 X-19.559 Y35.335 Z-6.500 F2500
G3 X-18.375 Y36.154 Z-6.500 I0.049 J1.194 F2500
G1 X-16.904 Y40.054 Z-6.500 F2500
G3 X-18.055 Y41.665 Z-6.500 I-1.091 J0.437 F2500
G1 X-22.335 Y41.665 Z-6.500 F2500
G0 Z5.000
G0 X-16.846 Y40.248 Z5.000
G0 X-16.846 Y40.248 Z3.000
G1 X-16.846 Y40.248 Z-6.500 F1500
G3 X-18.055 Y41.665 Z-6.500 I-1.148 J0.245 F2500
G1 X-27.428 Y41.665 Z-6.500 F2500
G1 X-27.681 Y41.645 Z-6.500 F2500
G3 X-28.665 Y40.248 Z-6.500 I0.211 J-1.193 F2500
G1 X-16.846 Y40.248 Z-6.500 F2500
G2 X-16.904 Y40.054 Z-6.500 I-1.229 J0.264 F2500
G1 X-17.787 Y37.712 Z-6.500 F2500
G1 X-28.665 Y37.712 Z-6.500 F2500
G1 X-28.665 Y36.572 Z-6.500 F2500
G3 X-27.428 Y35.335 Z-6.500 I1.182 J-0.055 F2500
G1 X-19.559 Y35.335 Z-6.500 F2500
G3 X-18.375 Y36.154 Z-6.500 I0.049 J1.194 F2500
G1 X-17.787 Y37.712 Z-6.500 F2500
G0 Z5.000
G0 X-19.329 Y27.652 Z5.000
G0 X-19.329 Y27.652 Z3.000
G1 X-19.329 Y27.652 Z-6.500 F1500
G3 X-19.559 Y27.665 Z-6.500 I-0.181 J-1.181 F2500
G1 X-27.428 Y27.665 Z-6.500 F2500
G3 X-28.665 Y26.428 Z-6.500 I-0.055 J-1.182 F2500
G1 X-28.665 Y22.572 Z-6.500 F2500
G3 X-27.428 Y21.335 Z-6.500 I1.182 J-0.055 F2500
G1 X-18.055 Y21.335 Z-6.500 F2500
G3 X-16.917 Y22.980 Z-6.500 I0.060 J1.175 F2500
G1 X-18.375 Y26.846 Z-6.500 F2500
G3 X-19.329 Y27.652 Z-6.500 I-1.135 J-0.375 F2500
G0 Z5.000
G0 X-16.825 Y22.496 Z5.000
G0 X-16.825 Y22.496 Z3.000
G1 X-16.825 Y22.496 Z-6.500 F1500
G2 X-18.055 Y21.335 Z-6.500 I-1.167 J0.004 F2500
G1 X-27.428 Y21.335 Z-6.500 F2500
G2 X-28.659 Y22.496 Z-6.500 I-0.060 J1.170 F2500
G1 X-16.825 Y22.496 Z-6.500 F2500
G3 X-16.917 Y22.980 Z-6.500 I-1.276 J0.008 F2500
G1 X-17.691 Y25.032 Z-6.500 F2500
G1 X-28.665 Y25.032 Z-6.500 F2500
G1 X-28.665 Y26.428 Z-6.500 F2500
G2 X-27.942 Y27.568 Z-6.500 I1.167 J0.059 F2500
G1 X-19.045 Y27.568 Z-6.500 F2500
G3 X-19.559 Y27.665 Z-6.500 I-0.487 J-1.166 F2500
G1 X-27.428 Y27.665 Z-6.500 F2500
G3 X-27.942 Y27.568 Z-6.500 I-0.066 J-1.061 F2500
G0 Z5.000
G0 X-25.565 Y-6.837 Z5.000
G0 X-25.565 Y-6.837 Z3.000
G1 X-25.565 Y-6.837 Z-6.500 F1500
G3 X-26.665 Y-8.055 Z-6.500 I0.082 J-1.180 F2500
G3 X-26.645 Y-9.181 Z-6.500 I7.167 J-0.437 F2500
G3 X-25.428 Y-10.165 Z-6.500 I1.160 J0.191 F2500
G1 X-17.572 Y-10.165 Z-6.500 F2500
G3 X-16.335 Y-8.945 Z-6.500 I0.055 J1.181 F2500
G3 X-16.355 Y-7.819 Z-6.500 I-7.167 J0.437 F2500
G3 X-17.572 Y-6.835 Z-6.500 I-1.160 J-0.191 F2500
G1 X-25.428 Y-6.835 Z-6.500 F2500
G3 X-25.565 Y-6.837 Z-6.500 I-0.055 J-1.181 F2500
G0 Z5.000
G0 X-26.657 Y-7.936 Z5.000
G0 X-26.657 Y-7.936 Z3.000
G1 X-26.657 Y-7.936 Z-6.500 F1500
G2 X-25.428 Y-6.835 Z-6.500 I1.167 J-0.067 F2500
G1 X-17.572 Y-6.835 Z-6.500 F2500
G2 X-16.346 Y-7.936 Z-6.500 I0.062 J-1.164 F2500
G1 X-26.657 Y-7.936 Z-6.500 F2500
G3 X-26.665 Y-8.928 Z-6.500 I7.178 J-0.553 F2500
G3 X-25.428 Y-10.165 Z-6.500 I1.182 J-0.055 F2500
G1 X-17.572 Y-10.165 Z-6.500 F2500
G3 X-16.351 Y-9.166 Z-6.500 I0.056 J1.176 F2500
G3 X-16.346 Y-7.936 Z-6.500 I-7.212 J0.648 F2500
G0 Z5.000
G0 X-5.175 Y-8.274 Z5.000
G0 X-5.175 Y-8.274 Z3.000
G1 X-5.175 Y-8.274 Z-6.500 F1500
G3 X-5.145 Y-9.181 Z-6.500 I7.177 J-0.217 F2500
G3 X-3.928 Y-10.165 Z-6.500 I1.160 J0.191 F2500
G1 X3.928 Y-10.165 Z-6.500 F2500
G3 X5.165 Y-8.945 Z-6.500 I0.055 J1.181 F2500
G3 X5.145 Y-7.819 Z-6.500 I-7.167 J0.437 F2500
G3 X3.928 Y-6.835 Z-6.500 I-1.160 J-0.191 F2500
G1 X-3.928 Y-6.835 Z-6.500 F2500
G3 X-5.165 Y-8.055 Z-6.500 I-0.055 J-1.181 F2500
G3 X-5.175 Y-8.274 Z-6.500 I7.167 J-0.437 F2500
G0 Z5.000
G0 X-5.157 Y-7.936 Z5.000
G0 X-5.157 Y-7.936 Z3.000
G1 X-5.157 Y-7.936 Z-6.500 F1500
G2 X-3.928 Y-6.835 Z-6.500 I1.167 J-0.067 F2500
G1 X3.928 Y-6.835 Z-6.500 F2500
G2 X5.154 Y-7.936 Z-6.500 I0.062 J-1.164 F2500
G1 X-5.157 Y-7.936 Z-6.500 F2500
G3 X-5.165 Y-8.928 Z-6.500 I7.178 J-0.553 F2500
G3 X-3.928 Y-10.165 Z-6.500 I1.182 J-0.055 F2500
G1 X3.928 Y-10.165 Z-6.500 F2500
G3 X5.149 Y-9.166 Z-6.500 I0.056 J1.176 F2500
G3 X5.154 Y-7.936 Z-6.500 I-7.212 J0.648 F2500
G0 Z5.000
G0 X16.325 Y-8.274 Z5.000
G0 X16.325 Y-8.274 Z3.000
G1 X16.325 Y-8.274 Z-6.500 F1500
G3 X16.355 Y-9.181 Z-6.500 I7.177 J-0.217 F2500
G3 X17.572 Y-10.165 Z-6.500 I1.160 J0.191 F2500
G1 X25.428 Y-10.165 Z-6.500 F2500
G3 X26.665 Y-8.945 Z-6.500 I0.055 J1.181 F2500
G3 X26.645 Y-7.819 Z-6.500 I-7.167 J0.437 F2500
G3 X25.428 Y-6.835 Z-6.500 I-1.160 J-0.191 F2500
G1 X17.572 Y-6.835 Z-6.500 F2500
G3 X16.335 Y-8.055 Z-6.500 I-0.055 J-1.181 F2500
G3 X16.325 Y-8.274 Z-6.500 I7.167 J-0.437 F2500
G0 Z5.000
G0 X16.343 Y-7.936 Z5.000
G0 X16.343 Y-7.936 Z3.000
G1 X16.343 Y-7.936 Z-6.500 F1500
G2 X17.572 Y-6.835 Z-6.500 I1.167 J-0.067 F2500
G1 X25.428 Y-6.835 Z-6.500 F2500
G2 X26.654 Y-7.936 Z-6.500 I0.062 J-1.164 F2500
G1 X16.343 Y-7.936 Z-6.500 F2500
G3 X16.335 Y-8.928 Z-6.500 I7.177 J-0.553 F2500
G3 X17.572 Y-10.165 Z-6.500 I1.182 J-0.055 F2500
G1 X25.428 Y-10.165 Z-6.500 F2500
G3 X26.649 Y-9.166 Z-6.500 I0.056 J1.176 F2500
G3 X26.654 Y-7.936 Z-6.500 I-7.212 J0.648 F2500
G0 Z5.000
G0 X26.863 Y-18.271 Z5.000
G0 X26.863 Y-18.271 Z3.000
G1 X26.863 Y-18.271 Z-6.500 F1500
G3 X26.319 Y-18.302 Z-6.500 I0.145 J-7.179 F2500
G3 X25.335 Y-19.520 Z-6.500 I0.191 J-1.160 F2500
G1 X25.335 Y-27.375 Z-6.500 F2500
G3 X26.555 Y-28.612 Z-6.500 I1.181 J-0.055 F2500
G1 X27.428 Y-28.612 Z-6.500 F2500
G3 X28.665 Y-27.375 Z-6.500 I0.055 J1.182 F2500
G1 X28.665 Y-19.520 Z-6.500 F2500
G3 X27.445 Y-18.282 Z-6.500 I-1.181 J0.055 F2500
G3 X26.863 Y-18.271 Z-6.500 I-0.437 J-7.167 F2500
G0 Z5.000
G0 X28.665 Y-20.616 Z5.000
G0 X28.665 Y-20.616 Z3.000
G1 X28.665 Y-20.616 Z-6.500 F1500
G1 X28.665 Y-19.520 Z-6.500 F2500
G3 X27.666 Y-18.299 Z-6.500 I-1.176 J0.056 F2500
G3 X26.572 Y-18.282 Z-6.500 I-0.656 J-7.319 F2500
G3 X25.355 Y-19.266 Z-6.500 I-0.057 J-1.174 F2500
G3 X25.335 Y-20.616 Z-6.500 I8.567 J-0.802 F2500
G1 X28.665 Y-20.616 Z-6.500 F2500
G1 X28.665 Y-23.152 Z-6.500 F2500
G1 X25.335 Y-23.152 Z-6.500 F2500
G1 X25.335 Y-25.688 Z-6.500 F2500
G1 X28.665 Y-25.688 Z-6.500 F2500
G1 X28.665 Y-27.375 Z-6.500 F2500
G2 X28.357 Y-28.224 Z-6.500 I-1.194 J-0.047 F2500
G1 X25.643 Y-28.224 Z-6.500 F2500
G3 X26.334 Y-28.596 Z-6.500 I0.846 J0.743 F2500
G3 X27.428 Y-28.612 Z-6.500 I0.656 J7.319 F2500
G3 X28.357 Y-28.224 Z-6.500 I0.055 J1.173 F2500
G0 Z5.000
G0 X22.639 Y-36.804 Z5.000
G0 X22.639 Y-36.804 Z3.000
G1 X22.639 Y-36.804 Z-6.500 F1500
G3 X21.928 Y-36.607 Z-6.500 I-0.656 J-0.985 F2500
G1 X17.356 Y-36.607 Z-6.500 F2500
G3 X16.119 Y-37.844 Z-6.500 I-0.055 J-1.182 F2500
G1 X16.119 Y-39.528 Z-6.500 F2500
G3 X16.511 Y-40.475 Z-6.500 I1.244 J-0.039 F2500
G1 X18.581 Y-42.545 Z-6.500 F2500
G3 X19.528 Y-42.937 Z-6.500 I0.908 J0.852 F2500
G1 X21.928 Y-42.937 Z-6.500 F2500
G3 X23.165 Y-41.700 Z-6.500 I0.055 J1.182 F2500
G1 X23.165 Y-37.844 Z-6.500 F2500
G3 X22.639 Y-36.804 Z-6.500 I-1.182 J0.055 F2500
G0 Z5.000
G0 X16.119 Y-38.368 Z5.000
G0 X16.119 Y-38.368 Z3.000
G1 X16.119 Y-38.368 Z-6.500 F1500
G1 X16.119 Y-37.844 Z-6.500 F2500
G2 X17.356 Y-36.607 Z-6.500 I1.182 J0.055 F2500
G1 X21.928 Y-36.607 Z-6.500 F2500
G2 X23.103 Y-37.414 Z-6.500 I0.056 J-1.176 F2500
G2 X23.165 Y-38.368 Z-6.500 I-2.208 J-0.624 F2500
G1 X16.119 Y-38.368 Z-6.500 F2500
G1 X16.119 Y-39.528 Z-6.500 F2500
G3 X16.346 Y-40.282 Z-6.500 I1.224 J-0.042 F2500
G3 X16.940 Y-40.904 Z-6.500 I4.250 J3.462 F2500
G1 X23.165 Y-40.904 Z-6.500 F2500
G1 X23.165 Y-41.700 Z-6.500 F2500
G2 X21.928 Y-42.937 Z-6.500 I-1.182 J-0.055 F2500
G1 X19.528 Y-42.937 Z-6.500 F2500
G2 X18.581 Y-42.545 Z-6.500 I-0.039 J1.244 F2500
G1 X16.940 Y-40.904 Z-6.500 F2500
G0 Z5.000
G0 X11.517 Y-46.328 Z5.000
G0 X11.517 Y-46.328 Z3.000
G1 X11.517 Y-46.328 Z-6.500 F1500
G1 X9.180 Y-43.991 Z-6.500 F2500
G3 X8.835 Y-44.134 Z-6.500 I-0.168 J-0.082 F2500
G1 X8.835 Y-49.410 Z-6.500 F2500
G3 X9.000 Y-49.656 Z-6.500 I0.178 J-0.059 F2500
G3 X9.180 Y-49.553 Z-6.500 I-0.016 J0.238 F2500
G1 X11.781 Y-46.952 Z-6.500 F2500
G3 X11.781 Y-46.592 Z-6.500 I-0.106 J0.180 F2500
G1 X11.517 Y-46.328 Z-6.500 F2500
G0 Z5.000
G0 X11.165 Y-45.976 Z5.000
G0 X11.165 Y-45.976 Z3.000
G1 X11.165 Y-45.976 Z-6.500 F1500
G1 X9.180 Y-43.991 Z-6.500 F2500
G3 X8.835 Y-44.134 Z-6.500 I-0.168 J-0.082 F2500
G1 X8.835 Y-45.976 Z-6.500 F2500
G1 X11.165 Y-45.976 Z-6.500 F2500
G1 X11.781 Y-46.592 Z-6.500 F2500
G2 X11.781 Y-46.952 Z-6.500 I-0.106 J-0.180 F2500
G1 X10.221 Y-48.512 Z-6.500 F2500
G1 X8.835 Y-48.512 Z-6.500 F2500
G1 X8.835 Y-49.410 Z-6.500 F2500
G3 X9.180 Y-49.553 Z-6.500 I0.177 J-0.061 F2500
G1 X10.221 Y-48.512 Z-6.500 F2500
G0 Z5.000
G0 X16.375 Y-53.220 Z5.000
G0 X16.375 Y-53.220 Z3.000
G1 X16.375 Y-53.220 Z-6.500 F1500
G3 X16.119 Y-54.016 Z-6.500 I0.989 J-0.756 F2500
G1 X16.119 Y-55.700 Z-6.500 F2500
G3 X17.356 Y-56.937 Z-6.500 I1.182 J-0.055 F2500
G1 X21.928 Y-56.937 Z-6.500 F2500
G3 X23.165 Y-55.700 Z-6.500 I0.055 J1.182 F2500
G1 X23.165 Y-51.844 Z-6.500 F2500
G3 X21.928 Y-50.607 Z-6.500 I-1.182 J0.055 F2500
G1 X19.528 Y-50.607 Z-6.500 F2500
G3 X18.581 Y-50.999 Z-6.500 I-0.039 J-1.244 F2500
G1 X16.511 Y-53.069 Z-6.500 F2500
G3 X16.375 Y-53.220 Z-6.500 I0.852 J-0.908 F2500
G0 Z5.000
G0 X16.179 Y-56.120 Z5.000
G0 X16.179 Y-56.120 Z3.000
G1 X16.179 Y-56.120 Z-6.500 F1500
G3 X17.356 Y-56.937 Z-6.500 I1.120 J0.357 F2500
G1 X21.928 Y-56.937 Z-6.500 F2500
G3 X23.105 Y-56.120 Z-6.500 I0.060 J1.171 F2500
G1 X16.179 Y-56.120 Z-6.500 F2500
G2 X16.119 Y-55.700 Z-6.500 I1.296 J0.399 F2500
G1 X16.119 Y-54.016 Z-6.500 F2500
G2 X16.182 Y-53.585 Z-6.500 I1.390 J0.018 F2500
G1 X23.165 Y-53.584 Z-6.500 F2500
G1 X23.165 Y-51.844 Z-6.500 F2500
G3 X22.902 Y-51.048 Z-6.500 I-1.159 J0.058 F2500
G3 X21.928 Y-50.607 Z-6.500 I-0.919 J-0.734 F2500
G1 X19.528 Y-50.607 Z-6.500 F2500
G3 X18.532 Y-51.048 Z-6.500 I-0.034 J-1.267 F2500
G1 X22.902 Y-51.048 Z-6.500 F2500
G0 Z5.000
G0 X2.881 Y-55.741 Z5.000
G0 X2.881 Y-55.741 Z3.000
G1 X2.881 Y-55.741 Z-6.500 F1500
G3 X2.638 Y-55.607 Z-6.500 I-0.182 J-0.043 F2500
G1 X-2.638 Y-55.607 Z-6.500 F2500
G3 X-2.781 Y-55.952 Z-6.500 I-0.061 J-0.177 F2500
G1 X-0.180 Y-58.553 Z-6.500 F2500
G3 X0.000 Y-58.656 Z-6.500 I0.197 J0.134 F2500
G3 X0.180 Y-58.553 Z-6.500 I-0.016 J0.238 F2500
G1 X2.781 Y-55.952 Z-6.500 F2500
G3 X2.881 Y-55.741 Z-6.500 I-0.082 J0.168 F2500
G0 Z5.000
G0 X2.613 Y-56.120 Z5.000
G0 X2.613 Y-56.120 Z3.000
G1 X2.613 Y-56.120 Z-6.500 F1500
G1 X2.781 Y-55.952 Z-6.500 F2500
G3 X2.638 Y-55.607 Z-6.500 I-0.082 J0.168 F2500
G1 X-2.638 Y-55.607 Z-6.500 F2500
G3 X-2.881 Y-55.803 Z-6.500 I-0.060 J-0.174 F2500
G3 X-2.613 Y-56.120 Z-6.500 I0.556 J0.198 F2500
G1 X2.613 Y-56.120 Z-6.500 F2500
G1 X0.180 Y-58.553 Z-6.500 F2500
G2 X-0.000 Y-58.656 Z-6.500 I-0.197 J0.134 F2500
G0 Z5.000
G0 Y-48.937 Z5.000
G0 Y-48.937 Z3.000
G1 X-0.000 Y-48.937 Z-6.500 F1500
G1 X0.928 Y-48.937 Z-6.500 F2500
G3 X2.165 Y-47.700 Z-6.500 I0.055 J1.182 F2500
G1 X2.165 Y-45.844 Z-6.500 F2500
G3 X0.928 Y-44.607 Z-6.500 I-1.182 J0.055 F2500
G1 X-0.928 Y-44.607 Z-6.500 F2500
G3 X-2.165 Y-45.844 Z-6.500 I-0.055 J-1.182 F2500
G1 X-2.165 Y-47.700 Z-6.500 F2500
G3 X-0.928 Y-48.937 Z-6.500 I1.182 J-0.055 F2500
G1 X-0.000 Y-48.937 Z-6.500 F2500
G0 Z5.000
G0 X1.888 Y-48.512 Z5.000
G0 X1.888 Y-48.512 Z3.000
G1 X1.888 Y-48.512 Z-6.500 F1500
G2 X0.928 Y-48.937 Z-6.500 I-0.905 J0.747 F2500
G1 X-0.928 Y-48.937 Z-6.500 F2500
G2 X-1.888 Y-48.512 Z-6.500 I-0.055 J1.172 F2500
G1 X1.888 Y-48.512 Z-6.500 F2500
G3 X2.165 Y-47.700 Z-6.500 I-0.914 J0.765 F2500
G1 X2.165 Y-45.976 Z-6.500 F2500
G1 X-2.165 Y-45.976 Z-6.500 F2500
G2 X-0.928 Y-44.607 Z-6.500 I1.189 J0.169 F2500
G1 X0.928 Y-44.607 Z-6.500 F2500
G2 X2.165 Y-45.976 Z-6.500 I0.045 J-1.203 F2500
G0 Z5.000
G0 Y-37.937 Z5.000
G0 Y-37.937 Z3.000
G1 X2.165 Y-37.937 Z-6.500 F1500
G1 X2.638 Y-37.937 Z-6.500 F2500
G3 X2.781 Y-37.592 Z-6.500 I0.061 J0.177 F2500
G1 X0.180 Y-34.991 Z-6.500 F2500
G3 X-0.180 Y-34.991 Z-6.500 I-0.180 J-0.106 F2500
G1 X-2.781 Y-37.592 Z-6.500 F2500
G3 X-2.638 Y-37.937 Z-6.500 I0.082 J-0.169 F2500
G1 X2.165 Y-37.937 Z-6.500 F2500
G0 Z5.000
G0 X1.021 Y-35.832 Z5.000
G0 X1.021 Y-35.832 Z3.000
G1 X1.021 Y-35.832 Z-6.500 F1500
G1 X0.180 Y-34.991 Z-6.500 F2500
G3 X-0.180 Y-34.991 Z-6.500 I-0.180 J-0.106 F2500
G1 X-1.021 Y-35.832 Z-6.500 F2500
G1 X1.021 Y-35.832 Z-6.500 F2500
G1 X2.781 Y-37.592 Z-6.500 F2500
G2 X2.638 Y-37.937 Z-6.500 I-0.082 J-0.169 F2500
G1 X-2.638 Y-37.937 Z-6.500 F2500
G2 X-2.781 Y-37.592 Z-6.500 I-0.061 J0.177 F2500
G1 X-1.021 Y-35.832 Z-6.500 F2500
G0 Z5.000
G0 X-8.882 Y-43.938 Z5.000
G0 X-8.882 Y-43.938 Z3.000
G1 X-8.882 Y-43.938 Z-6.500 F1500
G3 X-9.180 Y-43.991 Z-6.500 I-0.130 J-0.134 F2500
G1 X-11.781 Y-46.592 Z-6.500 F2500
G3 X-11.781 Y-46.952 Z-6.500 I0.106 J-0.180 F2500
G1 X-9.180 Y-49.553 Z-6.500 F2500
G3 X-9.000 Y-49.656 Z-6.500 I0.197 J0.134 F2500
G3 X-8.835 Y-49.410 Z-6.500 I-0.013 J0.187 F2500
G1 X-8.835 Y-44.134 Z-6.500 F2500
G3 X-8.882 Y-43.938 Z-6.500 I-0.177 J0.061 F2500
G0 Z5.000
G0 X-8.835 Y-45.976 Z5.000
G0 X-8.835 Y-45.976 Z3.000
G1 X-8.835 Y-45.976 Z-6.500 F1500
G1 X-8.835 Y-44.134 Z-6.500 F2500
G3 X-9.180 Y-43.991 Z-6.500 I-0.177 J0.061 F2500
G1 X-11.165 Y-45.976 Z-6.500 F2500
G1 X-8.835 Y-45.976 Z-6.500 F2500
G1 X-8.835 Y-48.512 Z-6.500 F2500
G1 X-10.221 Y-48.512 Z-6.500 F2500
G1 X-9.180 Y-49.553 Z-6.500 F2500
G3 X-8.847 Y-49.530 Z-6.500 I0.163 J0.071 F2500
G3 X-8.835 Y-48.512 Z-6.500 I-5.164 J0.569 F2500
G0 Z5.000
G0 X-16.315 Y-53.305 Z5.000
G0 X-16.315 Y-53.305 Z3.000
G1 X-16.315 Y-53.305 Z-6.500 F1500
G3 X-16.511 Y-53.069 Z-6.500 I-1.048 J-0.672 F2500
G1 X-18.581 Y-50.999 Z-6.500 F2500
G3 X-19.528 Y-50.607 Z-6.500 I-0.908 J-0.852 F2500
G1 X-21.928 Y-50.607 Z-6.500 F2500
G3 X-23.165 Y-51.844 Z-6.500 I-0.055 J-1.182 F2500
G1 X-23.165 Y-55.700 Z-6.500 F2500
G3 X-21.928 Y-56.937 Z-6.500 I1.182 J-0.055 F2500
G1 X-17.356 Y-56.937 Z-6.500 F2500
G3 X-16.119 Y-55.700 Z-6.500 I0.055 J1.182 F2500
G1 X-16.119 Y-54.016 Z-6.500 F2500
G3 X-16.315 Y-53.305 Z-6.500 I-1.244 J0.039 F2500
G0 Z5.000
G0 X-18.532 Y-51.048 Z5.000
G0 X-18.532 Y-51.048 Z3.000
G1 X-18.532 Y-51.048 Z-6.500 F1500
G3 X-19.528 Y-50.607 Z-6.500 I-0.962 J-0.826 F2500
G1 X-21.928 Y-50.607 Z-6.500 F2500
G3 X-22.902 Y-51.048 Z-6.500 I-0.055 J-1.175 F2500
G1 X-18.532 Y-51.048 Z-6.500 F2500
G1 X-16.511 Y-53.069 Z-6.500 F2500
G2 X-16.182 Y-53.584 Z-6.500 I-0.910 J-0.944 F2500
G1 X-23.165 Y-53.584 Z-6.500 F2500
G1 X-23.165 Y-55.700 Z-6.500 F2500
G3 X-23.105 Y-56.120 Z-6.500 I1.356 J-0.021 F2500
G1 X-16.179 Y-56.120 Z-6.500 F2500
G2 X-17.356 Y-56.937 Z-6.500 I-1.118 J0.354 F2500
G1 X-21.928 Y-56.937 Z-6.500 F2500
G2 X-23.105 Y-56.120 Z-6.500 I-0.057 J1.174 F2500
G0 Z5.000
G0 X-22.075 Y-42.935 Z5.000
G0 X-22.075 Y-42.935 Z3.000
G1 X-22.075 Y-42.935 Z-6.500 F1500
G3 X-21.928 Y-42.937 Z-6.500 I0.092 J1.180 F2500
G1 X-19.528 Y-42.937 Z-6.500 F2500
G3 X-18.581 Y-42.545 Z-6.500 I0.039 J1.244 F2500
G1 X-16.511 Y-40.475 Z-6.500 F2500
G3 X-16.119 Y-39.528 Z-6.500 I-0.852 J0.908 F2500
G1 X-16.119 Y-37.844 Z-6.500 F2500
G3 X-17.356 Y-36.607 Z-6.500 I-1.182 J0.055 F2500
G1 X-21.928 Y-36.607 Z-6.500 F2500
G3 X-23.165 Y-37.844 Z-6.500 I-0.055 J-1.182 F2500
G1 X-23.165 Y-41.700 Z-6.500 F2500
G3 X-22.075 Y-42.935 Z-6.500 I1.182 J-0.055 F2500
G0 Z5.000
G0 X-23.165 Y-40.904 Z5.000
G0 X-23.165 Y-40.904 Z3.000
G1 X-23.165 Y-40.904 Z-6.500 F1500
G3 X-23.145 Y-41.953 Z-6.500 I6.676 J-0.398 F2500
G3 X-21.928 Y-42.937 Z-6.500 I1.160 J0.191 F2500
G1 X-19.528 Y-42.937 Z-6.500 F2500
G3 X-18.581 Y-42.545 Z-6.500 I0.039 J1.244 F2500
G1 X-16.940 Y-40.904 Z-6.500 F2500
G1 X-23.165 Y-40.904 Z-6.500 F2500
G1 X-23.165 Y-38.368 Z-6.500 F2500
G1 X-23.165 Y-37.844 Z-6.500 F2500
G2 X-21.928 Y-36.607 Z-6.500 I1.182 J0.055 F2500
G1 X-17.356 Y-36.607 Z-6.500 F2500
G2 X-16.182 Y-37.414 Z-6.500 I0.056 J-1.176 F2500
G2 X-16.119 Y-38.368 Z-6.500 I-2.208 J-0.624 F2500
G1 X-23.165 Y-38.368 Z-6.500 F2500
G0 Z5.000
G0 X-26.170 Y-28.562 Z5.000
G0 X-26.170 Y-28.562 Z3.000
G1 X-26.170 Y-28.562 Z-6.500 F1500
G3 X-25.335 Y-27.375 Z-6.500 I-0.347 J1.131 F2500
G1 X-25.335 Y-19.520 Z-6.500 F2500
G3 X-26.555 Y-18.282 Z-6.500 I-1.181 J0.055 F2500
G3 X-27.681 Y-18.302 Z-6.500 I-0.437 J-7.167 F2500
G3 X-28.665 Y-19.520 Z-6.500 I0.191 J-1.160 F2500
G1 X-28.665 Y-27.375 Z-6.500 F2500
G3 X-27.445 Y-28.612 Z-6.500 I1.181 J-0.055 F2500
G1 X-26.572 Y-28.612 Z-6.500 F2500
G3 X-26.170 Y-28.562 Z-6.500 I0.055 J1.182 F2500
G0 Z5.000
G0 X-25.643 Y-28.224 Z5.000
G0 X-25.643 Y-28.224 Z3.000
G1 X-25.643 Y-28.224 Z-6.500 F1500
G2 X-26.572 Y-28.612 Z-6.500 I-0.874 J0.785 F2500
G2 X-27.666 Y-28.596 Z-6.500 I-0.438 J7.336 F2500
G2 X-28.357 Y-28.224 Z-6.500 I0.155 J1.115 F2500
G1 X-25.643 Y-28.224 Z-6.500 F2500
G3 X-25.335 Y-27.375 Z-6.500 I-0.886 J0.802 F2500
G1 X-25.335 Y-25.688 Z-6.500 F2500
G1 X-28.665 Y-25.688 Z-6.500 F2500
G1 X-28.665 Y-23.152 Z-6.500 F2500
G1 X-25.335 Y-23.152 Z-6.500 F2500
G1 X-25.335 Y-20.616 Z-6.500 F2500
G1 X-28.665 Y-20.616 Z-6.500 F2500
G2 X-28.645 Y-19.266 Z-6.500 I8.587 J0.548 F2500
G2 X-27.428 Y-18.282 Z-6.500 I1.160 J-0.191 F2500
G2 X-26.334 Y-18.299 Z-6.500 I0.438 J-7.335 F2500
G2 X-25.335 Y-19.520 Z-6.500 I-0.178 J-1.164 F2500
G1 X-25.335 Y-20.616 Z-6.500 F2500
G0 Z5.000
G0 X17.161 Y21.680 Z5.000
G0 X17.161 Y21.680 Z3.000
G1 X17.161 Y21.680 Z-6.500 F1500
G3 X18.055 Y21.335 Z-6.500 I0.834 J0.830 F2500
G1 X27.428 Y21.335 Z-6.500 F2500
G3 X28.665 Y22.572 Z-6.500 I0.055 J1.182 F2500
G1 X28.665 Y26.428 Z-6.500 F2500
G3 X27.428 Y27.665 Z-6.500 I-1.182 J0.055 F2500
G1 X19.559 Y27.665 Z-6.500 F2500
G3 X18.375 Y26.846 Z-6.500 I-0.049 J-1.194 F2500
G1 X16.917 Y22.980 Z-6.500 F2500
G3 X17.161 Y21.680 Z-6.500 I1.078 J-0.470 F2500
G0 Z5.000
G0 X19.045 Y27.568 Z5.000
G0 X19.045 Y27.568 Z3.000
G1 X19.045 Y27.568 Z-6.500 F1500
G2 X19.559 Y27.665 Z-6.500 I0.456 J-1.003 F2500
G1 X27.428 Y27.665 Z-6.500 F2500
G2 X27.942 Y27.568 Z-6.500 I0.028 J-1.259 F2500
G1 X19.045 Y27.568 Z-6.500 F2500
G3 X18.375 Y26.846 Z-6.500 I0.445 J-1.086 F2500
G1 X17.691 Y25.032 Z-6.500 F2500
G1 X28.665 Y25.032 Z-6.500 F2500
G1 X28.665 Y22.572 Z-6.500 F2500
G1 X28.659 Y22.496 Z-6.500 F2500
G1 X16.825 Y22.496 Z-6.500 F2500
G3 X18.055 Y21.335 Z-6.500 I1.167 J0.004 F2500
G1 X27.428 Y21.335 Z-6.500 F2500
G3 X28.659 Y22.496 Z-6.500 I0.060 J1.170 F2500
G0 Z5.000
G0 X27.582 Y35.338 Z5.000
G0 X27.582 Y35.338 Z3.000
G1 X27.582 Y35.338 Z-6.500 F1500
G3 X28.665 Y36.572 Z-6.500 I-0.099 J1.179 F2500
G1 X28.665 Y40.428 Z-6.500 F2500
G3 X27.428 Y41.665 Z-6.500 I-1.182 J0.055 F2500
G1 X18.055 Y41.665 Z-6.500 F2500
G3 X16.917 Y40.020 Z-6.500 I-0.060 J-1.175 F2500
G1 X18.375 Y36.154 Z-6.500 F2500
G3 X19.559 Y35.335 Z-6.500 I1.135 J0.375 F2500
G1 X27.428 Y35.335 Z-6.500 F2500
G3 X27.582 Y35.338 Z-6.500 I0.055 J1.182 F2500
G0 Z5.000
G0 X28.665 Y37.712 Z5.000
G0 X28.665 Y37.712 Z3.000
G1 X28.665 Y37.712 Z-6.500 F1500
G2 X28.645 Y36.319 Z-6.500 I-8.861 J-0.570 F2500
G2 X27.428 Y35.335 Z-6.500 I-1.160 J0.191 F2500
G1 X19.559 Y35.335 Z-6.500 F2500
G2 X18.375 Y36.154 Z-6.500 I-0.049 J1.194 F2500
G1 X17.787 Y37.712 Z-6.500 F2500
G1 X28.665 Y37.712 Z-6.500 F2500
G1 X28.665 Y40.248 Z-6.500 F2500
G1 X16.851 Y40.248 Z-6.500 F2500
G2 X18.055 Y41.665 Z-6.500 I1.139 J0.252 F2500
G1 X27.428 Y41.665 Z-6.500 F2500
G2 X28.665 Y40.248 Z-6.500 I0.040 J-1.214 F2500
G0 Z5.000
G0 X28.397 Z5.000
G0 X28.397 Z3.000
G1 X28.397 Y40.248 Z-8.500 F1500
G1 X28.397 Y40.425 Z-8.500 F2500
G3 X27.478 Y41.397 Z-8.500 I-0.900 J0.069 F2500
G1 X18.056 Y41.397 Z-8.500 F2500
G3 X17.155 Y40.149 Z-8.500 I-0.070 J-0.899 F2500
G3 X18.658 Y36.164 Z-8.500 I150.389 J54.462 F2500
G3 X19.498 Y35.603 Z-8.500 I0.832 J0.336 F2500
G1 X27.450 Y35.603 Z-8.500 F2500
G3 X28.397 Y36.526 Z-8.500 I0.047 J0.899 F2500
G1 X28.397 Y40.248 Z-8.500 F2500
G1 X28.397 Y40.248 Z-8.500 F1500
G1 X28.397 Y40.443 Z-8.500 F2500
G3 X27.465 Y41.397 Z-8.500 I-0.902 J0.051 F2500
G1 X18.056 Y41.397 Z-8.500 F2500
G3 X17.155 Y40.149 Z-8.500 I-0.070 J-0.899 F2500
G3 X18.658 Y36.164 Z-8.500 I150.389 J54.462 F2500
G3 X19.498 Y35.603 Z-8.500 I0.832 J0.336 F2500
G1 X27.450 Y35.603 Z-8.500 F2500
G3 X28.397 Y36.526 Z-8.500 I0.047 J0.899 F2500
G1 X28.397 Y40.248 Z-8.500 F2500
G0 Z5.000
G0 X28.390 Y40.550 Z5.000
G0 X28.390 Y40.550 Z3.000
G1 X28.390 Y40.550 Z-8.500 F1500
G1 X17.088 Y40.550 Z-8.500 F2500
G2 X18.056 Y41.397 Z-8.500 I0.895 J-0.045 F2500
G1 X27.465 Y41.397 Z-8.500 F2500
G2 X28.390 Y40.550 Z-8.500 I0.034 J-0.892 F2500
G1 X28.397 Y40.443 Z-8.500 F2500
G1 X28.397 Y38.014 Z-8.500 F2500
G1 X17.960 Y38.014 Z-8.500 F2500
G1 X18.646 Y36.195 Z-8.500 F2500
G3 X19.478 Y35.603 Z-8.500 I0.844 J0.306 F2500
G3 X27.450 Y35.603 Z-8.500 I3.996 J411.475 F2500
G3 X28.395 Y36.447 Z-8.500 I0.048 J0.897 F2500
G3 X28.397 Y38.014 Z-8.500 I-27.692 J0.823 F2500
G1 X28.397 Y38.014 Z-8.500 F1500
G2 X28.395 Y36.447 Z-8.500 I-27.694 J-0.744 F2500
G2 X27.450 Y35.603 Z-8.500 I-0.897 J0.053 F2500
G2 X19.478 Y35.603 Z-8.500 I-3.976 J411.475 F2500
G2 X18.646 Y36.195 Z-8.500 I0.012 J0.898 F2500
G1 X17.960 Y38.014 Z-8.500 F2500
G1 X28.397 Y38.014 Z-8.500 F2500
G1 X28.397 Y40.425 Z-8.500 F2500
G1 X28.387 Y40.550 Z-8.500 F2500
G3 X27.478 Y41.397 Z-8.500 I-0.883 J-0.036 F2500
G1 X18.056 Y41.397 Z-8.500 F2500
G3 X17.088 Y40.550 Z-8.500 I-0.073 J-0.893 F2500
G1 X28.387 Y40.550 Z-8.500 F2500
G0 Z5.000
G0 X22.451 Y50.725 Z5.000
G0 X22.451 Y50.725 Z3.000
G1 X22.451 Y50.725 Z-8.500 F1500
G3 X22.897 Y51.512 Z-8.500 I-0.453 J0.776 F2500
G1 X22.897 Y56.457 Z-8.500 F2500
G3 X21.980 Y57.397 Z-8.500 I-0.899 J0.040 F2500
G1 X14.030 Y57.397 Z-8.500 F2500
G3 X13.103 Y56.483 Z-8.500 I-0.028 J-0.899 F2500
G1 X13.103 Y51.575 Z-8.500 F2500
G3 X14.020 Y50.603 Z-8.500 I0.903 J-0.067 F2500
G1 X21.980 Y50.603 Z-8.500 F2500
G3 X22.451 Y50.725 Z-8.500 I0.019 J0.898 F2500
G0 Z5.000
G0 X22.451 Y50.725 Z5.000
G0 X22.451 Y50.725 Z3.000
G1 X22.451 Y50.725 Z-8.500 F1500
G3 X22.897 Y51.512 Z-8.500 I-0.453 J0.776 F2500
G1 X22.897 Y56.425 Z-8.500 F2500
G3 X21.966 Y57.397 Z-8.500 I-0.900 J0.069 F2500
G1 X14.030 Y57.397 Z-8.500 F2500
G3 X13.103 Y56.483 Z-8.500 I-0.028 J-0.899 F2500
G1 X13.103 Y51.575 Z-8.500 F2500
G3 X14.021 Y50.603 Z-8.500 I0.900 J-0.069 F2500
G1 X21.980 Y50.603 Z-8.500 F2500
G3 X22.451 Y50.725 Z-8.500 I0.019 J0.899 F2500
G0 Z5.000
G0 X22.897 Y55.766 Z5.000
G0 X22.897 Y55.766 Z3.000
G1 X22.897 Y55.766 Z-8.500 F1500
G1 X22.897 Y56.457 Z-8.500 F2500
G3 X21.980 Y57.397 Z-8.500 I-0.899 J0.041 F2500
G1 X14.030 Y57.397 Z-8.500 F2500
G3 X13.117 Y56.653 Z-8.500 I-0.029 J-0.897 F2500
G3 X13.103 Y55.766 Z-8.500 I3.491 J-0.497 F2500
G1 X22.897 Y55.766 Z-8.500 F2500
G1 X22.897 Y53.230 Z-8.500 F2500
G1 X13.103 Y53.230 Z-8.500 F2500
G1 X13.103 Y51.575 Z-8.500 F2500
G3 X13.625 Y50.694 Z-8.500 I0.878 J-0.075 F2500
G1 X22.389 Y50.694 Z-8.500 F2500
G2 X21.980 Y50.603 Z-8.500 I-0.391 J0.797 F2500
G1 X14.020 Y50.603 Z-8.500 F2500
G2 X13.625 Y50.694 Z-8.500 I-0.019 J0.822 F2500
G0 Z5.000
G0 X13.610 Z5.000
G0 X13.610 Z3.000
G1 X13.610 Y50.694 Z-8.500 F1500
G3 X14.021 Y50.603 Z-8.500 I0.397 J0.824 F2500
G1 X21.980 Y50.603 Z-8.500 F2500
G3 X22.391 Y50.694 Z-8.500 I0.020 J0.890 F2500
G1 X13.610 Y50.694 Z-8.500 F2500
G2 X13.103 Y51.575 Z-8.500 I0.400 J0.816 F2500
G1 X13.103 Y53.230 Z-8.500 F2500
G1 X22.897 Y53.230 Z-8.500 F2500
G1 X22.897 Y55.766 Z-8.500 F2500
G1 X13.103 Y55.766 Z-8.500 F2500
G2 X13.117 Y56.653 Z-8.500 I3.504 J0.390 F2500
G2 X14.030 Y57.397 Z-8.500 I0.884 J-0.153 F2500
G1 X21.966 Y57.397 Z-8.500 F2500
G2 X22.897 Y56.425 Z-8.500 I0.031 J-0.903 F2500
G1 X22.897 Y55.766 Z-8.500 F2500
G0 Z5.000
G0 X4.897 Z5.000
G0 X4.897 Z3.000
G1 X4.897 Y55.766 Z-8.500 F1500
G1 X4.897 Y56.425 Z-8.500 F2500
G3 X3.987 Y57.397 Z-8.500 I-0.899 J0.070 F2500
G1 X-3.965 Y57.397 Z-8.500 F2500
G3 X-4.896 Y56.515 Z-8.500 I-0.033 J-0.897 F2500
G3 X-4.897 Y55.766 Z-8.500 I14.446 J-0.394 F2500
G1 X4.897 Y55.766 Z-8.500 F2500
G1 X4.897 Y53.230 Z-8.500 F2500
G1 X-4.897 Y53.230 Z-8.500 F2500
G1 X-4.897 Y51.575 Z-8.500 F2500
G3 X-4.389 Y50.694 Z-8.500 I0.914 J-0.061 F2500
G1 X4.388 Y50.694 Z-8.500 F2500
G2 X3.980 Y50.603 Z-8.500 I-0.379 J0.745 F2500
G1 X-3.980 Y50.603 Z-8.500 F2500
G2 X-4.389 Y50.694 Z-8.500 I-0.018 J0.890 F2500
G0 Z5.000
G0 X-4.389 Y50.694 Z5.000
G0 X-4.389 Y50.694 Z3.000
G1 X-4.389 Y50.694 Z-8.500 F1500
G3 X-3.972 Y50.603 Z-8.500 I0.396 J0.815 F2500
G1 X3.980 Y50.603 Z-8.500 F2500
G3 X4.897 Y51.537 Z-8.500 I0.019 J0.899 F2500
G1 X4.897 Y56.425 Z-8.500 F2500
G3 X3.986 Y57.397 Z-8.500 I-0.899 J0.070 F2500
G1 X-3.965 Y57.397 Z-8.500 F2500
G3 X-4.897 Y56.476 Z-8.500 I-0.032 J-0.900 F2500
G1 X-4.897 Y51.575 Z-8.500 F2500
G3 X-4.389 Y50.694 Z-8.500 I0.903 J-0.066 F2500
G0 Z5.000
G0 X-4.390 Y50.693 Z5.000
G0 X-4.390 Y50.693 Z3.000
G1 X-4.390 Y50.693 Z-8.500 F1500
G3 X-3.980 Y50.603 Z-8.500 I0.392 J0.812 F2500
G1 X3.980 Y50.603 Z-8.500 F2500
G3 X4.897 Y51.537 Z-8.500 I0.018 J0.899 F2500
G1 X4.897 Y56.425 Z-8.500 F2500
G3 X3.987 Y57.397 Z-8.500 I-0.899 J0.070 F2500
G1 X-3.965 Y57.397 Z-8.500 F2500
G3 X-4.897 Y56.476 Z-8.500 I-0.032 J-0.900 F2500
G1 X-4.897 Y51.575 Z-8.500 F2500
G3 X-4.390 Y50.693 Z-8.500 I0.899 J-0.070 F2500
G0 Z5.000
G0 X-4.386 Y50.694 Z5.000
G0 X-4.386 Y50.694 Z3.000
G1 X-4.386 Y50.694 Z-8.500 F1500
G3 X-3.972 Y50.603 Z-8.500 I0.386 J0.774 F2500
G1 X3.980 Y50.603 Z-8.500 F2500
G3 X4.370 Y50.694 Z-8.500 I0.021 J0.797 F2500
G1 X-4.386 Y50.694 Z-8.500 F2500
G2 X-4.897 Y51.575 Z-8.500 I0.383 J0.811 F2500
G1 X-4.897 Y53.230 Z-8.500 F2500
G1 X4.897 Y53.230 Z-8.500 F2500
G1 X4.897 Y55.766 Z-8.500 F2500
G1 X-4.897 Y55.766 Z-8.500 F2500
G2 X-4.896 Y56.515 Z-8.500 I14.447 J0.355 F2500
G2 X-3.965 Y57.397 Z-8.500 I0.898 J-0.015 F2500
G1 X3.986 Y57.397 Z-8.500 F2500
G2 X4.897 Y56.425 Z-8.500 I0.012 J-0.901 F2500
G1 X4.897 Y55.766 Z-8.500 F2500
G0 Z5.000
G0 X-13.103 Z5.000
G0 X-13.103 Z3.000
G1 X-13.103 Y55.766 Z-8.500 F1500
G1 X-13.103 Y56.425 Z-8.500 F2500
G3 X-14.025 Y57.397 Z-8.500 I-0.900 J0.070 F2500
G1 X-21.965 Y57.397 Z-8.500 F2500
G3 X-22.881 Y56.663 Z-8.500 I-0.034 J-0.897 F2500
G3 X-22.897 Y55.766 Z-8.500 I3.491 J-0.509 F2500
G1 X-13.103 Y55.766 Z-8.500 F2500
G1 X-13.103 Y53.230 Z-8.500 F2500
G1 X-22.897 Y53.230 Z-8.500 F2500
G1 X-22.897 Y51.581 Z-8.500 F2500
G3 X-22.387 Y50.694 Z-8.500 I0.893 J-0.077 F2500
G1 X-13.608 Y50.694 Z-8.500 F2500
G2 X-14.020 Y50.603 Z-8.500 I-0.396 J0.817 F2500
G1 X-21.988 Y50.603 Z-8.500 F2500
G2 X-22.387 Y50.694 Z-8.500 I-0.010 J0.877 F2500
G0 Z5.000
G0 X-22.387 Y50.692 Z5.000
G0 X-22.387 Y50.692 Z3.000
G1 X-22.387 Y50.692 Z-8.500 F1500
G3 X-21.972 Y50.603 Z-8.500 I0.391 J0.815 F2500
G1 X-14.020 Y50.603 Z-8.500 F2500
G3 X-13.103 Y51.530 Z-8.500 I0.018 J0.899 F2500
G1 X-13.103 Y56.425 Z-8.500 F2500
G3 X-14.012 Y57.397 Z-8.500 I-0.899 J0.070 F2500
G1 X-21.982 Y57.397 Z-8.500 F2500
G3 X-22.897 Y56.476 Z-8.500 I-0.017 J-0.898 F2500
G1 X-22.897 Y51.581 Z-8.500 F2500
G3 X-22.387 Y50.692 Z-8.500 I0.901 J-0.075 F2500
G0 Z5.000
G0 X-22.388 Y50.692 Z5.000
G0 X-22.388 Y50.692 Z3.000
G1 X-22.388 Y50.692 Z-8.500 F1500
G3 X-21.988 Y50.603 Z-8.500 I0.390 J0.814 F2500
G1 X-14.020 Y50.603 Z-8.500 F2500
G3 X-13.103 Y51.530 Z-8.500 I0.018 J0.899 F2500
G1 X-13.103 Y56.425 Z-8.500 F2500
G3 X-14.025 Y57.397 Z-8.500 I-0.901 J0.068 F2500
G1 X-21.965 Y57.397 Z-8.500 F2500
G3 X-22.897 Y56.476 Z-8.500 I-0.033 J-0.899 F2500
G1 X-22.897 Y51.581 Z-8.500 F2500
G3 X-22.388 Y50.692 Z-8.500 I0.900 J-0.076 F2500
G0 Z5.000
G0 X-22.391 Y50.694 Z5.000
G0 X-22.391 Y50.694 Z3.000
G1 X-22.391 Y50.694 Z-8.500 F1500
G3 X-21.972 Y50.603 Z-8.500 I0.396 J0.816 F2500
G1 X-14.020 Y50.603 Z-8.500 F2500
G3 X-13.608 Y50.694 Z-8.500 I0.016 J0.908 F2500
G1 X-22.391 Y50.694 Z-8.500 F2500
G2 X-22.897 Y51.581 Z-8.500 I0.395 J0.813 F2500
G1 X-22.897 Y53.230 Z-8.500 F2500
G1 X-13.103 Y53.230 Z-8.500 F2500
G1 X-13.103 Y55.766 Z-8.500 F2500
G1 X-22.897 Y55.766 Z-8.500 F2500
G2 X-22.890 Y56.610 Z-8.500 I4.496 J0.383 F2500
G2 X-21.982 Y57.397 Z-8.500 I0.890 J-0.110 F2500
G1 X-14.012 Y57.397 Z-8.500 F2500
G2 X-13.103 Y56.425 Z-8.500 I0.009 J-0.902 F2500
G1 X-13.103 Y55.766 Z-8.500 F2500
G0 Z5.000
G0 X-17.715 Y41.354 Z5.000
G0 X-17.715 Y41.354 Z3.000
G1 X-17.715 Y41.354 Z-8.500 F1500
G3 X-18.012 Y41.397 Z-8.500 I-0.276 J-0.861 F2500
G1 X-27.477 Y41.397 Z-8.500 F2500
G3 X-28.397 Y40.450 Z-8.500 I-0.021 J-0.900 F2500
G1 X-28.397 Y36.525 Z-8.500 F2500
G3 X-27.474 Y35.603 Z-8.500 I0.900 J-0.022 F2500
G1 X-19.506 Y35.603 Z-8.500 F2500
G3 X-18.641 Y36.208 Z-8.500 I0.015 J0.899 F2500
G1 X-17.151 Y40.159 Z-8.500 F2500
G3 X-17.715 Y41.354 Z-8.500 I-0.840 J0.335 F2500
G0 Z5.000
G0 X-17.715 Y41.354 Z5.000
G0 X-17.715 Y41.354 Z3.000
G1 X-17.715 Y41.354 Z-8.500 F1500
G3 X-18.012 Y41.397 Z-8.500 I-0.276 J-0.861 F2500
G1 X-27.477 Y41.397 Z-8.500 F2500
G3 X-28.397 Y40.450 Z-8.500 I-0.021 J-0.900 F2500
G1 X-28.397 Y36.525 Z-8.500 F2500
G3 X-27.474 Y35.603 Z-8.500 I0.900 J-0.022 F2500
G1 X-19.506 Y35.603 Z-8.500 F2500
G3 X-18.644 Y36.201 Z-8.500 I0.015 J0.899 F2500
G1 X-17.151 Y40.159 Z-8.500 F2500
G3 X-17.715 Y41.354 Z-8.500 I-0.840 J0.335 F2500
G0 Z5.000
G0 X-17.098 Y40.550 Z5.000
G0 X-17.098 Y40.550 Z3.000
G1 X-17.098 Y40.550 Z-8.500 F1500
G1 X-28.392 Y40.550 Z-8.500 F2500
G2 X-27.477 Y41.397 Z-8.500 I0.892 J-0.045 F2500
G1 X-18.012 Y41.397 Z-8.500 F2500
G2 X-17.098 Y40.550 Z-8.500 I0.024 J-0.890 F2500
G2 X-17.135 Y40.203 Z-8.500 I-0.635 J-0.106 F2500
G2 X-17.960 Y38.014 Z-8.500 I-38.197 J13.130 F2500
G1 X-28.397 Y38.014 Z-8.500 F2500
G1 X-28.397 Y36.525 Z-8.500 F2500
G3 X-27.474 Y35.603 Z-8.500 I0.900 J-0.022 F2500
G1 X-19.506 Y35.603 Z-8.500 F2500
G3 X-18.667 Y36.142 Z-8.500 I0.015 J0.898 F2500
G3 X-17.960 Y38.014 Z-8.500 I-46.503 J18.642 F2500
G1 X-17.960 Y38.014 Z-8.500 F1500
G2 X-18.674 Y36.126 Z-8.500 I-33.530 J11.615 F2500
G2 X-19.506 Y35.603 Z-8.500 I-0.816 J0.374 F2500
G1 X-27.474 Y35.603 Z-8.500 F2500
G2 X-28.397 Y36.525 Z-8.500 I-0.023 J0.900 F2500
G1 X-28.397 Y38.014 Z-8.500 F2500
G1 X-17.960 Y38.014 Z-8.500 F2500
G3 X-17.135 Y40.203 Z-8.500 I-37.372 J15.320 F2500
G3 X-17.094 Y40.550 Z-8.500 I-0.652 J0.254 F2500
G3 X-18.012 Y41.397 Z-8.500 I-0.893 J-0.047 F2500
G1 X-27.477 Y41.397 Z-8.500 F2500
G3 X-28.392 Y40.550 Z-8.500 I-0.023 J-0.892 F2500
G1 X-17.094 Y40.550 Z-8.500 F2500
G0 Z5.000
G0 X-19.339 Y27.384 Z5.000
G0 X-19.339 Y27.384 Z3.000
G1 X-19.339 Y27.384 Z-8.500 F1500
G3 X-19.504 Y27.397 Z-8.500 I-0.151 J-0.885 F2500
G1 X-27.441 Y27.397 Z-8.500 F2500
G3 X-28.397 Y26.456 Z-8.500 I-0.054 J-0.902 F2500
G1 X-28.397 Y22.541 Z-8.500 F2500
G3 X-27.428 Y21.603 Z-8.500 I0.903 J-0.036 F2500
G1 X-18.006 Y21.603 Z-8.500 F2500
G3 X-17.175 Y22.905 Z-8.500 I0.022 J0.903 F2500
G3 X-18.660 Y26.841 Z-8.500 I-155.615 J-56.463 F2500
G3 X-19.339 Y27.384 Z-8.500 I-0.830 J-0.342 F2500
G1 X-19.339 Y27.384 Z-8.500 F1500
G3 X-19.504 Y27.397 Z-8.500 I-0.151 J-0.885 F2500
G1 X-27.441 Y27.397 Z-8.500 F2500
G3 X-28.397 Y26.456 Z-8.500 I-0.054 J-0.902 F2500
G1 X-28.397 Y22.541 Z-8.500 F2500
G3 X-27.428 Y21.603 Z-8.500 I0.903 J-0.036 F2500
G1 X-18.006 Y21.603 Z-8.500 F2500
G3 X-17.171 Y22.894 Z-8.500 I0.023 J0.902 F2500
G3 X-18.660 Y26.841 Z-8.500 I-156.042 J-56.618 F2500
G3 X-19.339 Y27.384 Z-8.500 I-0.830 J-0.342 F2500
G0 Z5.000
G0 X-18.091 Y25.334 Z5.000
G0 X-18.091 Y25.334 Z3.000
G1 X-18.091 Y25.334 Z-8.500 F1500
G1 X-28.397 Y25.334 Z-8.500 F2500
G2 X-28.391 Y26.586 Z-8.500 I13.063 J0.561 F2500
G2 X-27.441 Y27.397 Z-8.500 I0.894 J-0.085 F2500
G1 X-19.504 Y27.397 Z-8.500 F2500
G2 X-18.646 Y26.806 Z-8.500 I0.014 J-0.898 F2500
G1 X-18.091 Y25.334 Z-8.500 F2500
G1 X-17.171 Y22.894 Z-8.500 F2500
G1 X-17.144 Y22.798 Z-8.500 F2500
G1 X-28.397 Y22.798 Z-8.500 F2500
G1 X-28.397 Y22.541 Z-8.500 F2500
G3 X-27.428 Y21.603 Z-8.500 I0.903 J-0.037 F2500
G1 X-18.006 Y21.603 Z-8.500 F2500
G3 X-17.144 Y22.798 Z-8.500 I0.027 J0.890 F2500
G0 Z5.000
G0 X-17.146 Z5.000
G0 X-17.146 Z3.000
G1 X-17.146 Y22.798 Z-8.500 F1500
G2 X-18.006 Y21.603 Z-8.500 I-0.833 J-0.307 F2500
G1 X-27.428 Y21.603 Z-8.500 F2500
G2 X-28.397 Y22.541 Z-8.500 I-0.066 J0.902 F2500
G1 X-28.397 Y22.798 Z-8.500 F2500
G1 X-17.146 Y22.798 Z-8.500 F2500
G1 X-17.175 Y22.905 Z-8.500 F2500
G1 X-18.091 Y25.334 Z-8.500 F2500
G1 X-18.646 Y26.806 Z-8.500 F2500
G3 X-19.504 Y27.397 Z-8.500 I-0.844 J-0.307 F2500
G1 X-27.441 Y27.397 Z-8.500 F2500
G3 X-28.391 Y26.586 Z-8.500 I-0.056 J-0.896 F2500
G3 X-28.397 Y25.334 Z-8.500 I13.057 J-0.691 F2500
G1 X-18.091 Y25.334 Z-8.500 F2500
G0 Z5.000
G0 Y-7.103 Z5.000
G0 Y-7.103 Z3.000
G1 X-18.091 Y-7.103 Z-8.500 F1500
G1 X-25.479 Y-7.103 Z-8.500 F2500
G3 X-26.397 Y-8.076 Z-8.500 I-0.018 J-0.902 F2500
G3 X-26.380 Y-9.138 Z-8.500 I6.504 J-0.425 F2500
G3 X-25.407 Y-9.897 Z-8.500 I0.881 J0.126 F2500
G1 X-17.575 Y-9.897 Z-8.500 F2500
G3 X-16.603 Y-8.919 Z-8.500 I0.067 J0.905 F2500
G3 X-16.612 Y-7.879 Z-8.500 I-5.800 J0.472 F2500
G3 X-17.583 Y-7.103 Z-8.500 I-0.894 J-0.123 F2500
G1 X-18.091 Y-7.103 Z-8.500 F2500
G1 X-18.091 Y-7.103 Z-8.500 F1500
G1 X-25.479 Y-7.103 Z-8.500 F2500
G3 X-26.397 Y-8.076 Z-8.500 I-0.018 J-0.902 F2500
G3 X-26.379 Y-9.145 Z-8.500 I6.544 J-0.425 F2500
G3 X-25.418 Y-9.897 Z-8.500 I0.881 J0.135 F2500
G1 X-17.566 Y-9.897 Z-8.500 F2500
G3 X-16.603 Y-8.936 Z-8.500 I0.048 J0.915 F2500
G3 X-16.612 Y-7.879 Z-8.500 I-5.892 J0.480 F2500
G3 X-17.583 Y-7.103 Z-8.500 I-0.894 J-0.123 F2500
G1 X-18.091 Y-7.103 Z-8.500 F2500
G0 Z5.000
G0 X-16.682 Y-7.634 Z5.000
G0 X-16.682 Y-7.634 Z3.000
G1 X-16.682 Y-7.634 Z-8.500 F1500
G2 X-16.603 Y-8.021 Z-8.500 I-0.827 J-0.369 F2500
G2 X-16.615 Y-9.114 Z-8.500 I-7.800 J-0.457 F2500
G2 X-17.566 Y-9.897 Z-8.500 I-0.898 J0.121 F2500
G1 X-25.418 Y-9.897 Z-8.500 F2500
G2 X-26.397 Y-8.925 Z-8.500 I-0.074 J0.905 F2500
G2 X-26.378 Y-7.852 Z-8.500 I6.476 J0.425 F2500
G2 X-26.309 Y-7.634 Z-8.500 I0.696 J-0.101 F2500
G1 X-16.682 Y-7.634 Z-8.500 F2500
G3 X-17.583 Y-7.103 Z-8.500 I-0.825 J-0.369 F2500
G1 X-25.479 Y-7.103 Z-8.500 F2500
G3 X-26.309 Y-7.634 Z-8.500 I-0.025 J-0.875 F2500
G1 X-26.309 Y-7.634 Z-8.500 F1500
G2 X-25.479 Y-7.103 Z-8.500 I0.805 J-0.344 F2500
G1 X-17.583 Y-7.103 Z-8.500 F2500
G2 X-16.682 Y-7.634 Z-8.500 I0.077 J-0.901 F2500
G1 X-26.309 Y-7.634 Z-8.500 F2500
G3 X-26.378 Y-7.852 Z-8.500 I0.627 J-0.319 F2500
G3 X-26.397 Y-8.925 Z-8.500 I6.458 J-0.648 F2500
G3 X-25.407 Y-9.897 Z-8.500 I0.906 J-0.067 F2500
G1 X-17.575 Y-9.897 Z-8.500 F2500
G3 X-16.624 Y-9.162 Z-8.500 I0.074 J0.886 F2500
G3 X-16.603 Y-8.021 Z-8.500 I-6.439 J0.693 F2500
