(Exported by FreeCAD)
(Post Processor: grbl_post)
(Output Time:2021-02-01 16:55:58.568637)
(Begin preamble)
G17 G90
G21
(Begin operation: 2*4mm_Single_Flute001)
(Path: 2*4mm_Single_Flute001)
(2*4mm_Single_Flute001)
(Begin toolchange)
( M6 T1.0 )
M3 S18000.0
(Finish operation: 2*4mm_Single_Flute001)
(Begin operation: Fixture)
(Path: Fixture)
G54
G0 Z3.000
(Finish operation: Fixture)
(Begin operation: Profile004)
(Path: Profile004)
(Profile004)
(Compensated Tool Path. Diameter: 2.0)
G0 Z3.000
G0 X33.258 Y62.256
G0 Z1.000
G1 X33.258 Y62.256 Z-5.000 F1000
G1 X30.100 Y65.414 Z-5.000 F2000
G3 X25.257 Y67.400 Z-5.000 I-4.848 J-4.922 F2000
G1 X-25.308 Y67.399 Z-5.000 F2000
G3 X-30.136 Y65.379 Z-5.000 I0.053 J-6.908 F2000
G1 X-36.414 Y59.100 Z-5.000 F2000
G3 X-38.400 Y54.257 Z-5.000 I4.922 J-4.848 F2000
G1 X-38.399 Y-54.308 Z-5.000 F2000
G3 X-36.379 Y-59.136 Z-5.000 I6.908 J0.053 F2000
G1 X-30.100 Y-65.414 Z-5.000 F2000
G3 X-25.257 Y-67.400 Z-5.000 I4.848 J4.922 F2000
G1 X25.308 Y-67.399 Z-5.000 F2000
G3 X30.136 Y-65.379 Z-5.000 I-0.053 J6.908 F2000
G1 X36.414 Y-59.100 Z-5.000 F2000
G3 X38.400 Y-54.257 Z-5.000 I-4.922 J4.848 F2000
G1 X38.399 Y54.308 Z-5.000 F2000
G3 X36.379 Y59.136 Z-5.000 I-6.908 J-0.053 F2000
G1 X33.258 Y62.256 Z-5.000 F2000
G0 Z3.000
G0 Z3.000
(Finish operation: Profile004)
(Begin operation: Profile005)
(Path: Profile005)
(Profile005)
(Compensated Tool Path. Diameter: 2.0)
G0 Z3.000
G0 X5.275 Y13.275
G0 Z1.000
G1 X5.275 Y13.275 Z-5.000 F1000
G2 X5.600 Y12.456 Z-5.000 I-0.786 J-0.786 F2000
G1 X5.600 Y1.544 Z-5.000 F2000
G2 X4.456 Y0.400 Z-5.000 I-1.112 J-0.033 F2000
G1 X-4.456 Y0.400 Z-5.000 F2000
G2 X-5.600 Y1.544 Z-5.000 I-0.033 J1.112 F2000
G1 X-5.600 Y12.456 Z-5.000 F2000
G2 X-4.456 Y13.600 Z-5.000 I1.112 J0.033 F2000
G1 X4.456 Y13.600 Z-5.000 F2000
G2 X5.275 Y13.275 Z-5.000 I0.033 J-1.112 F2000
G0 Z3.000
G0 Z3.000
G0 X5.275 Y13.275
G0 X-13.426 Y8.422
G0 X-13.426 Y8.422 Z1.000
G1 X-13.426 Y8.422 Z-5.000 F1000
G2 X-13.556 Y7.559 Z-5.000 I-1.076 J-0.279 F2000
G1 X-18.012 Y-0.159 Z-5.000 F2000
G2 X-19.575 Y-0.578 Z-5.000 I-0.979 J0.528 F2000
G1 X-22.690 Y1.221 Z-5.000 F2000
G3 X-26.951 Y-0.585 Z-5.000 I-1.447 J-2.514 F2000
G2 X-29.220 Y-2.998 Z-5.000 I-3.062 J0.606 F2000
G2 X-32.436 Y1.922 Z-5.000 I-0.779 J3.002 F2000
G3 X-32.248 Y5.025 Z-5.000 I-2.352 J1.699 F2000
G3 X-33.540 Y6.289 Z-5.000 I-2.967 J-1.741 F2000
G2 X-31.583 Y8.812 Z-5.000 I1.043 J1.211 F2000
G3 X-27.547 Y9.733 Z-5.000 I1.565 J2.444 F2000
G1 X-24.988 Y14.159 Z-5.000 F2000
G2 X-23.425 Y14.578 Z-5.000 I0.979 J-0.527 F2000
G1 X-13.975 Y9.122 Z-5.000 F2000
G2 X-13.426 Y8.422 Z-5.000 I-0.528 J-0.979 F2000
G0 Z3.000
G0 Z3.000
G0 X-13.426 Y8.422
G0 Y-17.847
G0 Y-17.847 Z1.000
G1 X-13.426 Y-17.847 Z-5.000 F1000
G1 X-6.044 Y-17.847 Z-5.000 F2000
G2 X-4.900 Y-18.992 Z-5.000 I0.033 J-1.112 F2000
G1 X-4.900 Y-27.903 Z-5.000 F2000
G2 X-6.044 Y-29.047 Z-5.000 I-1.112 J-0.033 F2000
G1 X-16.956 Y-29.047 Z-5.000 F2000
G2 X-18.100 Y-27.903 Z-5.000 I-0.033 J1.112 F2000
G1 X-18.100 Y-18.992 Z-5.000 F2000
G2 X-16.956 Y-17.847 Z-5.000 I1.112 J0.033 F2000
G1 X-13.426 Y-17.847 Z-5.000 F2000
G0 Z3.000
G0 Z3.000
G0 X-13.426 Y-17.847
G0 X4.901 Y-18.896
G0 X4.901 Y-18.896 Z1.000
G1 X4.901 Y-18.896 Z-5.000 F1000
G2 X6.044 Y-17.847 Z-5.000 I1.110 J-0.063 F2000
G1 X16.956 Y-17.847 Z-5.000 F2000
G2 X18.100 Y-18.992 Z-5.000 I0.033 J-1.112 F2000
G1 X18.100 Y-27.903 Z-5.000 F2000
G2 X16.956 Y-29.047 Z-5.000 I-1.112 J-0.033 F2000
G1 X6.044 Y-29.047 Z-5.000 F2000
G2 X4.900 Y-27.903 Z-5.000 I-0.033 J1.112 F2000
G1 X4.900 Y-18.992 Z-5.000 F2000
G2 X4.901 Y-18.896 Z-5.000 I1.112 J0.033 F2000
G0 Z3.000
G0 Z3.000
G0 X4.901 Y-18.896
G0 X31.393 Y-46.352
G0 X31.393 Y-46.352 Z1.000
G1 X31.393 Y-46.352 Z-5.000 F1000
G2 X31.905 Y-46.019 Z-5.000 I1.120 J-1.161 F2000
G2 X33.245 Y-48.922 Z-5.000 I0.593 J-1.487 F2000
G3 X32.424 Y-53.059 Z-5.000 I1.538 J-2.456 F2000
G2 X30.745 Y-58.007 Z-5.000 I-2.430 J-1.934 F2000
G2 X29.206 Y-52.000 Z-5.000 I-0.743 J3.010 F2000
G3 X31.052 Y-48.195 Z-5.000 I-0.862 J2.768 F2000
G2 X31.393 Y-46.352 Z-5.000 I1.461 J0.683 F2000
G0 Z3.000
G0 Z3.000
G0 X31.393 Y-46.352
G0 X30.094 Y-3.096
G0 X30.094 Y-3.096 Z1.000
G1 X30.094 Y-3.096 Z-5.000 F1000
G2 X26.957 Y-0.607 Z-5.000 I-0.093 J3.104 F2000
G3 X22.765 Y1.260 Z-5.000 I-2.817 J-0.685 F2000
G1 X19.576 Y-0.577 Z-5.000 F2000
G2 X18.012 Y-0.159 Z-5.000 I-0.584 J0.946 F2000
G1 X13.556 Y7.559 Z-5.000 F2000
G2 X13.975 Y9.122 Z-5.000 I0.946 J0.584 F2000
G1 X23.425 Y14.578 Z-5.000 F2000
G2 X24.988 Y14.159 Z-5.000 I0.584 J-0.946 F2000
G1 X27.504 Y9.802 Z-5.000 F2000
G3 X30.215 Y8.361 Z-5.000 I2.513 J1.458 F2000
G3 X31.867 Y8.966 Z-5.000 I-0.328 J3.455 F2000
G2 X33.272 Y6.097 Z-5.000 I0.631 J-1.469 F2000
G3 X32.424 Y1.941 Z-5.000 I1.516 J-2.474 F2000
G2 X30.901 Y-2.964 Z-5.000 I-2.430 J-1.934 F2000
G2 X30.094 Y-3.096 Z-5.000 I-0.900 J2.972 F2000
G0 Z3.000
G0 Z3.000
G0 X30.094 Y-3.096
G0 X8.597 Y21.617
G0 X8.597 Y21.617 Z1.000
G1 X8.597 Y21.617 Z-5.000 F1000
G2 X1.952 Y18.547 Z-5.000 I-8.597 J9.883 F2000
G2 X-1.952 Y44.453 Z-5.000 I-1.952 J12.953 F2000
G2 X8.597 Y21.617 Z-5.000 I1.952 J-12.953 F2000
G0 Z3.000
G0 Z3.000
G0 X8.597 Y21.617
G0 X31.414 Y46.330
G0 X31.414 Y46.330 Z1.000
G1 X31.414 Y46.330 Z-5.000 F1000
G2 X31.051 Y48.190 Z-5.000 I1.088 J1.178 F2000
G3 X29.226 Y51.993 Z-5.000 I-2.704 J1.042 F2000
G2 X27.600 Y56.959 Z-5.000 I0.783 J3.005 F2000
G2 X32.435 Y53.077 Z-5.000 I2.400 J-1.962 F2000
G3 X33.241 Y48.925 Z-5.000 I2.350 J-1.698 F2000
G2 X33.005 Y45.985 Z-5.000 I-0.749 J-1.419 F2000
G2 X31.414 Y46.330 Z-5.000 I-0.503 J1.523 F2000
G0 Z3.000
G0 Z3.000
G0 X31.414 Y46.330
G0 X-26.932 Y54.564
G0 X-26.932 Y54.564 Z1.000
G1 X-26.932 Y54.564 Z-5.000 F1000
G2 X-29.206 Y52.000 Z-5.000 I-3.070 J0.433 F2000
G3 X-31.052 Y48.195 Z-5.000 I0.862 J-2.768 F2000
G2 X-31.905 Y46.019 Z-5.000 I-1.461 J-0.683 F2000
G2 X-33.245 Y48.922 Z-5.000 I-0.593 J1.487 F2000
G3 X-32.424 Y53.059 Z-5.000 I-1.538 J2.456 F2000
G2 X-30.745 Y58.007 Z-5.000 I2.430 J1.934 F2000
G2 X-26.932 Y54.564 Z-5.000 I0.743 J-3.010 F2000
G0 Z3.000
G0 Z3.000
G0 X-26.932 Y54.564
G0 X-32.411 Y-45.907
G0 X-32.411 Y-45.907 Z1.000
G1 X-32.411 Y-45.907 Z-5.000 F1000
G2 X-31.051 Y-48.190 Z-5.000 I-0.087 J-1.599 F2000
G3 X-29.226 Y-51.993 Z-5.000 I2.704 J-1.042 F2000
G2 X-27.044 Y-54.074 Z-5.000 I-0.803 J-3.026 F2000
G2 X-27.600 Y-56.959 Z-5.000 I-2.956 J-0.926 F2000
G2 X-32.435 Y-53.077 Z-5.000 I-2.400 J1.962 F2000
G3 X-33.241 Y-48.925 Z-5.000 I-2.350 J1.698 F2000
G2 X-33.865 Y-46.672 Z-5.000 I0.759 J1.423 F2000
G2 X-32.411 Y-45.907 Z-5.000 I1.367 J-0.834 F2000
G0 Z3.000
G0 Z3.000
(Finish operation: Profile005)
(Begin postamble)
M5
G17 G90
M2
