(Exported by FreeCAD)
(Post Processor: grbl_post)
(Output Time:2021-02-01 16:55:58.568637)
(Begin preamble)
G17 G90
G21
(Begin operation: 3.175*12mm_Single_Flute001)
(Path: 3.175*12mm_Single_Flute001)
(3.175*12mm_Single_Flute001)
(Begin toolchange)
( M6 T1.0 )
M3 S18000.0
(Finish operation: 3.175*12mm_Single_Flute001)
(Begin operation: Fixture)
(Path: Fixture)
G54
G0 Z3.000
(Finish operation: Fixture)
(Begin operation: MillFace)
(Path: MillFace)
(MillFace)
G0 Z3.000
G0 X0.000 Y0.000
G0 X0.331
G0 X0.331 Z1.000
G1 X0.331 Y0.000 Z-0.500 F1000
G1 X0.331 Y-30.331 Z-0.500 F2500
G1 X-0.331 Y-30.331 Z-0.500 F2500
G1 X-0.331 Y30.331 Z-0.500 F2500
G1 X0.331 Y30.331 Z-0.500 F2500
G1 X0.331 Y0.000 Z-0.500 F2500
G1 X1.123 Y0.000 Z-0.500 F1000
G1 X1.123 Y-31.123 Z-0.500 F2500
G1 X-1.124 Y-31.123 Z-0.500 F2500
G1 X-1.124 Y31.123 Z-0.500 F2500
G1 X1.123 Y31.123 Z-0.500 F2500
G1 X1.123 Y0.000 Z-0.500 F2500
G1 X1.916 Y0.000 Z-0.500 F1000
G1 X1.916 Y-31.916 Z-0.500 F2500
G1 X-1.916 Y-31.916 Z-0.500 F2500
G1 X-1.916 Y31.916 Z-0.500 F2500
G1 X1.916 Y31.916 Z-0.500 F2500
G1 X1.916 Y0.000 Z-0.500 F2500
G1 X4.452 Y0.000 Z-0.500 F1000
G1 X4.452 Y-34.452 Z-0.500 F2500
G1 X-4.452 Y-34.452 Z-0.500 F2500
G1 X-4.452 Y34.452 Z-0.500 F2500
G1 X4.452 Y34.452 Z-0.500 F2500
G1 X4.452 Y0.000 Z-0.500 F2500
G1 X6.988 Y0.000 Z-0.500 F1000
G1 X6.988 Y-36.988 Z-0.500 F2500
G1 X-6.988 Y-36.988 Z-0.500 F2500
G1 X-6.988 Y36.988 Z-0.500 F2500
G1 X6.988 Y36.988 Z-0.500 F2500
G1 X6.988 Y0.000 Z-0.500 F2500
G1 X9.524 Y0.000 Z-0.500 F1000
G1 X9.524 Y-39.524 Z-0.500 F2500
G1 X-9.524 Y-39.524 Z-0.500 F2500
G1 X-9.524 Y39.524 Z-0.500 F2500
G1 X9.524 Y39.524 Z-0.500 F2500
G1 X9.524 Y0.000 Z-0.500 F2500
G1 X12.060 Y0.000 Z-0.500 F1000
G1 X12.060 Y-42.060 Z-0.500 F2500
G1 X-12.060 Y-42.060 Z-0.500 F2500
G1 X-12.060 Y42.060 Z-0.500 F2500
G1 X12.060 Y42.060 Z-0.500 F2500
G1 X12.060 Y0.000 Z-0.500 F2500
G1 X14.596 Y0.000 Z-0.500 F1000
G1 X14.596 Y-44.596 Z-0.500 F2500
G1 X-14.596 Y-44.596 Z-0.500 F2500
G1 X-14.596 Y44.596 Z-0.500 F2500
G1 X14.596 Y44.596 Z-0.500 F2500
G1 X14.596 Y0.000 Z-0.500 F2500
G1 X17.132 Y0.000 Z-0.500 F1000
G1 X17.132 Y-47.132 Z-0.500 F2500
G1 X-17.132 Y-47.132 Z-0.500 F2500
G1 X-17.132 Y47.132 Z-0.500 F2500
G1 X17.132 Y47.132 Z-0.500 F2500
G1 X17.132 Y0.000 Z-0.500 F2500
G1 X19.668 Y0.000 Z-0.500 F1000
G1 X19.668 Y-49.668 Z-0.500 F2500
G1 X-19.668 Y-49.668 Z-0.500 F2500
G1 X-19.668 Y49.668 Z-0.500 F2500
G1 X19.668 Y49.668 Z-0.500 F2500
G1 X19.668 Y0.000 Z-0.500 F2500
G1 X22.204 Y0.000 Z-0.500 F1000
G1 X22.204 Y-52.204 Z-0.500 F2500
G1 X-22.204 Y-52.204 Z-0.500 F2500
G1 X-22.204 Y52.204 Z-0.500 F2500
G1 X22.204 Y52.204 Z-0.500 F2500
G1 X22.204 Y0.000 Z-0.500 F2500
G1 X24.740 Y0.000 Z-0.500 F1000
G1 X24.740 Y-54.740 Z-0.500 F2500
G1 X-24.740 Y-54.740 Z-0.500 F2500
G1 X-24.740 Y54.740 Z-0.500 F2500
G1 X24.740 Y54.740 Z-0.500 F2500
G1 X24.740 Y0.000 Z-0.500 F2500
G1 X27.276 Y0.000 Z-0.500 F1000
G1 X27.276 Y-57.276 Z-0.500 F2500
G1 X-27.276 Y-57.276 Z-0.500 F2500
G1 X-27.276 Y57.276 Z-0.500 F2500
G1 X27.276 Y57.276 Z-0.500 F2500
G1 X27.276 Y0.000 Z-0.500 F2500
G1 X29.812 Y0.000 Z-0.500 F1000
G1 X29.812 Y-59.812 Z-0.500 F2500
G1 X-29.812 Y-59.812 Z-0.500 F2500
G1 X-29.812 Y59.812 Z-0.500 F2500
G1 X29.812 Y59.812 Z-0.500 F2500
G1 X29.812 Y0.000 Z-0.500 F2500
G1 X32.348 Y0.000 Z-0.500 F1000
G1 X32.348 Y-62.348 Z-0.500 F2500
G1 X-32.348 Y-62.348 Z-0.500 F2500
G1 X-32.348 Y62.348 Z-0.500 F2500
G1 X32.348 Y62.348 Z-0.500 F2500
G1 X32.348 Y0.000 Z-0.500 F2500
G1 X34.884 Y0.000 Z-0.500 F1000
G1 X34.884 Y-64.884 Z-0.500 F2500
G1 X-34.884 Y-64.884 Z-0.500 F2500
G1 X-34.884 Y64.884 Z-0.500 F2500
G1 X34.884 Y64.884 Z-0.500 F2500
G1 X34.884 Y0.000 Z-0.500 F2500
G1 X37.420 Y0.000 Z-0.500 F1000
G1 X37.420 Y-67.420 Z-0.500 F2500
G1 X-37.420 Y-67.420 Z-0.500 F2500
G1 X-37.420 Y67.420 Z-0.500 F2500
G1 X37.420 Y67.420 Z-0.500 F2500
G1 X37.420 Y0.000 Z-0.500 F2500
G1 X39.956 Y0.000 Z-0.500 F1000
G1 X39.956 Y-69.956 Z-0.500 F2500
G1 X-39.956 Y-69.956 Z-0.500 F2500
G1 X-39.956 Y69.956 Z-0.500 F2500
G1 X39.956 Y69.956 Z-0.500 F2500
G1 X39.956 Y0.000 Z-0.500 F2500
G1 X42.492 Y0.000 Z-0.500 F1000
G1 X42.492 Y-72.492 Z-0.500 F2500
G1 X-42.492 Y-72.492 Z-0.500 F2500
G1 X-42.492 Y72.492 Z-0.500 F2500
G1 X42.492 Y72.492 Z-0.500 F2500
G1 X42.492 Y0.000 Z-0.500 F2500
G1 X45.028 Y0.000 Z-0.500 F1000
G1 X45.028 Y-75.028 Z-0.500 F2500
G1 X-45.028 Y-75.028 Z-0.500 F2500
G1 X-45.028 Y75.028 Z-0.500 F2500
G1 X45.028 Y75.028 Z-0.500 F2500
G1 X45.028 Y0.000 Z-0.500 F2500
G1 X47.564 Y0.000 Z-0.500 F1000
G1 X47.564 Y-77.564 Z-0.500 F2500
G1 X-47.564 Y-77.564 Z-0.500 F2500
G1 X-47.564 Y77.564 Z-0.500 F2500
G1 X47.564 Y77.564 Z-0.500 F2500
G1 X47.564 Y0.000 Z-0.500 F2500
G1 X50.100 Y0.000 Z-0.500 F1000
G1 X50.100 Y-80.100 Z-0.500 F2500
G1 X-50.100 Y-80.100 Z-0.500 F2500
G1 X-50.100 Y80.100 Z-0.500 F2500
G1 X50.100 Y80.100 Z-0.500 F2500
G1 X50.100 Y0.000 Z-0.500 F2500
G0 Z3.000
G0 Z3.000
(Finish operation: MillFace)
(Begin operation: Pocket_3D)
(Path: Pocket_3D)
(Pocket_3D)
G0 Z3.000
G0 X48.415 Y78.415
G0 Z1.000
G1 X48.415 Y78.415 Z-2.000 F1000
G1 X-48.415 Y78.415 Z-2.000 F2500
G1 X-48.415 Y-78.415 Z-2.000 F2500
G1 X48.415 Y-78.415 Z-2.000 F2500
G1 X48.415 Y78.415 Z-2.000 F2500
G0 Z3.000
G0 Y76.281 Z3.000
G0 Y76.281 Z1.000
G1 X48.415 Y76.281 Z-2.000 F1000
G1 X48.415 Y78.415 Z-2.000 F2500
G1 X-48.415 Y78.415 Z-2.000 F2500
G1 X-48.415 Y76.281 Z-2.000 F2500
G1 X48.415 Y76.281 Z-2.000 F2500
G1 X48.415 Y73.745 Z-2.000 F2500
G1 X-48.415 Y73.745 Z-2.000 F2500
G1 X-48.415 Y71.209 Z-2.000 F2500
G1 X48.415 Y71.209 Z-2.000 F2500
G1 X48.415 Y68.673 Z-2.000 F2500
G1 X-48.415 Y68.673 Z-2.000 F2500
G1 X-48.415 Y66.137 Z-2.000 F2500
G1 X48.415 Y66.137 Z-2.000 F2500
G1 X48.415 Y63.601 Z-2.000 F2500
G1 X-48.415 Y63.601 Z-2.000 F2500
G1 X-48.415 Y61.065 Z-2.000 F2500
G1 X48.415 Y61.065 Z-2.000 F2500
G1 X48.415 Y58.529 Z-2.000 F2500
G1 X-48.415 Y58.529 Z-2.000 F2500
G1 X-48.415 Y55.993 Z-2.000 F2500
G1 X-20.353 Y55.993 Z-2.000 F2500
G2 X-15.647 Y55.993 Z-2.000 I2.353 J-1.989 F2500
G1 X-2.353 Y55.993 Z-2.000 F2500
G2 X2.353 Y55.993 Z-2.000 I2.353 J-1.989 F2500
G1 X15.647 Y55.993 Z-2.000 F2500
G2 X20.353 Y55.993 Z-2.000 I2.353 J-1.989 F2500
G1 X48.415 Y55.993 Z-2.000 F2500
G1 X48.415 Y53.457 Z-2.000 F2500
G1 X21.033 Y53.457 Z-2.000 F2500
G2 X18.130 Y50.921 Z-2.000 I-3.037 J0.547 F2500
G1 X48.415 Y50.921 Z-2.000 F2500
G1 X48.415 Y48.385 Z-2.000 F2500
G1 X-48.415 Y48.385 Z-2.000 F2500
G1 X-48.415 Y45.849 Z-2.000 F2500
G1 X48.415 Y45.849 Z-2.000 F2500
G1 X48.415 Y43.313 Z-2.000 F2500
G1 X-48.415 Y43.313 Z-2.000 F2500
G1 X-48.415 Y40.777 Z-2.000 F2500
G1 X-25.190 Y40.777 Z-2.000 F2500
G2 X-21.045 Y40.777 Z-2.000 I2.073 J-2.254 F2500
G1 X21.045 Y40.777 Z-2.000 F2500
G2 X25.190 Y40.777 Z-2.000 I2.073 J-2.254 F2500
G1 X48.415 Y40.777 Z-2.000 F2500
G1 X48.415 Y38.241 Z-2.000 F2500
G1 X26.183 Y38.241 Z-2.000 F2500
G2 X24.421 Y35.705 Z-2.000 I-3.051 J0.240 F2500
G1 X48.415 Y35.705 Z-2.000 F2500
G1 X48.415 Y33.169 Z-2.000 F2500
G1 X-48.415 Y33.169 Z-2.000 F2500
G1 X-48.415 Y30.633 Z-2.000 F2500
G1 X48.415 Y30.633 Z-2.000 F2500
G1 X48.415 Y28.097 Z-2.000 F2500
G1 X-48.415 Y28.097 Z-2.000 F2500
G1 X-48.415 Y25.561 Z-2.000 F2500
G1 X-26.005 Y25.561 Z-2.000 F2500
G2 X-20.230 Y25.561 Z-2.000 I2.887 J-1.047 F2500
G1 X20.230 Y25.561 Z-2.000 F2500
G2 X26.005 Y25.561 Z-2.000 I2.887 J-1.047 F2500
G1 X48.415 Y25.561 Z-2.000 F2500
G1 X48.415 Y23.025 Z-2.000 F2500
G1 X25.822 Y23.025 Z-2.000 F2500
G0 Z3.000
G0 X25.826 Y23.023 Z3.000
G0 X25.826 Y23.023 Z1.000
G1 X25.826 Y23.023 Z-2.000 F1000
G2 X23.118 Y21.415 Z-2.000 I-2.708 J1.477 F2500
G2 X23.118 Y27.585 Z-2.000 I-0.000 J3.085 F2500
G2 X25.826 Y23.023 Z-2.000 I0.000 J-3.085 F2500
G0 Z3.000
G0 X23.649 Y35.461 Z3.000
G0 X23.649 Y35.461 Z1.000
G1 X23.649 Y35.461 Z-2.000 F1000
G2 X23.118 Y35.415 Z-2.000 I-0.532 J3.039 F2500
G2 X23.118 Y41.585 Z-2.000 I0.000 J3.085 F2500
G2 X23.649 Y35.461 Z-2.000 I-0.000 J-3.085 F2500
G0 Z3.000
G0 X21.814 Y35.705 Z3.000
G0 X21.814 Y35.705 Z1.000
G1 X21.814 Y35.705 Z-2.000 F1000
G1 X-21.814 Y35.705 Z-2.000 F2500
G3 X-20.052 Y38.241 Z-2.000 I-1.289 J2.776 F2500
G1 X20.052 Y38.241 Z-2.000 F2500
G2 X21.045 Y40.777 Z-2.000 I3.047 J0.269 F2500
G1 X-21.045 Y40.777 Z-2.000 F2500
G0 Z3.000
G0 X-21.041 Y40.781 Z3.000
G0 X-21.041 Y40.781 Z1.000
G1 X-21.041 Y40.781 Z-2.000 F1000
G2 X-23.118 Y35.415 Z-2.000 I-2.077 J-2.281 F2500
G2 X-26.203 Y38.500 Z-2.000 I-0.000 J3.085 F2500
G2 X-23.118 Y41.585 Z-2.000 I3.085 J0.000 F2500
G2 X-21.041 Y40.781 Z-2.000 I0.000 J-3.085 F2500
G0 Z3.000
G0 X-24.421 Y35.705 Z3.000
G0 X-24.421 Y35.705 Z1.000
G1 X-24.421 Y35.705 Z-2.000 F1000
G1 X-48.415 Y35.705 Z-2.000 F2500
G1 X-48.415 Y38.241 Z-2.000 F2500
G1 X-26.183 Y38.241 Z-2.000 F2500
G2 X-25.190 Y40.777 Z-2.000 I3.047 J0.269 F2500
G1 X-48.415 Y40.777 Z-2.000 F2500
G0 Z3.000
G0 Y25.561 Z3.000
G0 Y25.561 Z1.000
G1 X-48.415 Y25.561 Z-2.000 F1000
G1 X-26.005 Y25.561 Z-2.000 F2500
G3 X-25.822 Y23.025 Z-2.000 I2.867 J-1.068 F2500
G1 X-48.415 Y23.025 Z-2.000 F2500
G1 X-48.415 Y20.489 Z-2.000 F2500
G1 X48.415 Y20.489 Z-2.000 F2500
G1 X48.415 Y17.953 Z-2.000 F2500
G1 X-48.415 Y17.953 Z-2.000 F2500
G1 X-48.415 Y15.417 Z-2.000 F2500
G1 X48.415 Y15.417 Z-2.000 F2500
G1 X48.415 Y12.881 Z-2.000 F2500
G1 X-48.415 Y12.881 Z-2.000 F2500
G1 X-48.415 Y10.345 Z-2.000 F2500
G1 X48.415 Y10.345 Z-2.000 F2500
G1 X48.415 Y7.809 Z-2.000 F2500
G1 X-48.415 Y7.809 Z-2.000 F2500
G1 X-48.415 Y5.273 Z-2.000 F2500
G1 X48.415 Y5.273 Z-2.000 F2500
G1 X48.415 Y2.737 Z-2.000 F2500
G1 X-48.415 Y2.737 Z-2.000 F2500
G1 X-48.415 Y0.201 Z-2.000 F2500
G1 X48.415 Y0.201 Z-2.000 F2500
G1 X48.415 Y-2.335 Z-2.000 F2500
G1 X-48.415 Y-2.335 Z-2.000 F2500
G1 X-48.415 Y-4.871 Z-2.000 F2500
G1 X48.415 Y-4.871 Z-2.000 F2500
G1 X48.415 Y-7.407 Z-2.000 F2500
G1 X24.376 Y-7.407 Z-2.000 F2500
G3 X18.624 Y-7.407 Z-2.000 I-2.876 J-1.080 F2500
G1 X2.876 Y-7.407 Z-2.000 F2500
G3 X-2.876 Y-7.407 Z-2.000 I-2.876 J-1.080 F2500
G1 X-18.624 Y-7.407 Z-2.000 F2500
G3 X-24.376 Y-7.407 Z-2.000 I-2.876 J-1.080 F2500
G1 X-48.415 Y-7.407 Z-2.000 F2500
G1 X-48.415 Y-9.943 Z-2.000 F2500
G1 X-24.224 Y-9.943 Z-2.000 F2500
G0 Z3.000
G0 X-24.226 Y-9.944 Z3.000
G0 X-24.226 Y-9.944 Z1.000
G1 X-24.226 Y-9.944 Z-2.000 F1000
G2 X-21.500 Y-5.415 Z-2.000 I2.726 J1.444 F2500
G2 X-18.415 Y-8.500 Z-2.000 I0.000 J-3.085 F2500
G2 X-21.500 Y-11.585 Z-2.000 I-3.085 J0.000 F2500
G2 X-24.226 Y-9.944 Z-2.000 I-0.000 J3.085 F2500
G0 Z3.000
G0 X-26.379 Y-20.426 Z3.000
G0 X-26.379 Y-20.426 Z1.000
G1 X-26.379 Y-20.426 Z-2.000 F1000
G2 X-27.000 Y-26.532 Z-2.000 I-0.621 J-3.022 F2500
G2 X-30.085 Y-23.447 Z-2.000 I-0.000 J3.085 F2500
G2 X-27.000 Y-20.362 Z-2.000 I3.085 J0.000 F2500
G2 X-26.379 Y-20.426 Z-2.000 I-0.000 J-3.085 F2500
G0 Z3.000
G0 X-29.557 Y-25.159 Z3.000
G0 X-29.557 Y-25.159 Z1.000
G1 X-29.557 Y-25.159 Z-2.000 F1000
G1 X-48.415 Y-25.159 Z-2.000 F2500
G1 X-48.415 Y-22.623 Z-2.000 F2500
G1 X-29.969 Y-22.623 Z-2.000 F2500
G2 X-24.031 Y-22.623 Z-2.000 I2.969 J-0.819 F2500
G1 X24.031 Y-22.623 Z-2.000 F2500
G2 X29.969 Y-22.623 Z-2.000 I2.969 J-0.819 F2500
G1 X48.415 Y-22.623 Z-2.000 F2500
G1 X48.415 Y-20.087 Z-2.000 F2500
G1 X-48.415 Y-20.087 Z-2.000 F2500
G1 X-48.415 Y-17.551 Z-2.000 F2500
G1 X48.415 Y-17.551 Z-2.000 F2500
G1 X48.415 Y-15.015 Z-2.000 F2500
G1 X-48.415 Y-15.015 Z-2.000 F2500
G1 X-48.415 Y-12.479 Z-2.000 F2500
G1 X48.415 Y-12.479 Z-2.000 F2500
G1 X48.415 Y-9.943 Z-2.000 F2500
G1 X24.224 Y-9.943 Z-2.000 F2500
G3 X24.376 Y-7.407 Z-2.000 I-2.716 J1.436 F2500
G1 X48.415 Y-7.407 Z-2.000 F2500
G0 Z3.000
G0 Y-22.623 Z3.000
G0 Y-22.623 Z1.000
G1 X48.415 Y-22.623 Z-2.000 F1000
G1 X29.969 Y-22.623 Z-2.000 F2500
G2 X29.557 Y-25.159 Z-2.000 I-2.956 J-0.821 F2500
G1 X48.415 Y-25.159 Z-2.000 F2500
G1 X48.415 Y-27.695 Z-2.000 F2500
G1 X-48.415 Y-27.695 Z-2.000 F2500
G1 X-48.415 Y-30.231 Z-2.000 F2500
G1 X48.415 Y-30.231 Z-2.000 F2500
G1 X48.415 Y-32.767 Z-2.000 F2500
G1 X-48.415 Y-32.767 Z-2.000 F2500
G1 X-48.415 Y-35.303 Z-2.000 F2500
G1 X-2.779 Y-35.303 Z-2.000 F2500
G2 X2.779 Y-35.303 Z-2.000 I2.779 J-1.339 F2500
G1 X48.415 Y-35.303 Z-2.000 F2500
G1 X48.415 Y-37.839 Z-2.000 F2500
G1 X22.109 Y-37.839 Z-2.000 F2500
G3 X17.175 Y-37.839 Z-2.000 I-2.467 J-1.846 F2500
G1 X2.839 Y-37.839 Z-2.000 F2500
G0 Z3.000
G0 X2.843 Y-37.841 Z3.000
G0 X2.843 Y-37.841 Z1.000
G1 X2.843 Y-37.841 Z-2.000 F1000
G2 X0.000 Y-39.727 Z-2.000 I-2.843 J1.198 F2500
G2 X-0.000 Y-33.557 Z-2.000 I0.000 J3.085 F2500
G2 X2.843 Y-37.841 Z-2.000 I0.000 J-3.085 F2500
G0 Z3.000
G0 X0.936 Y-43.832 Z3.000
G0 X0.936 Y-43.832 Z1.000
G1 X0.936 Y-43.832 Z-2.000 F1000
G2 X-0.000 Y-49.857 Z-2.000 I-0.936 J-2.940 F2500
G2 X-0.000 Y-43.687 Z-2.000 I0.000 J3.085 F2500
G2 X0.936 Y-43.832 Z-2.000 I-0.000 J-3.085 F2500
G0 Z3.000
G0 X2.786 Y-45.447 Z3.000
G0 X2.786 Y-45.447 Z1.000
G1 X2.786 Y-45.447 Z-2.000 F1000
G1 X7.344 Y-45.447 Z-2.000 F2500
G3 X7.296 Y-47.983 Z-2.000 I2.777 J-1.321 F2500
G1 X2.834 Y-47.983 Z-2.000 F2500
G0 Z3.000
G0 X7.087 Y-47.277 Z3.000
G0 X7.087 Y-47.277 Z1.000
G1 X7.087 Y-47.277 Z-2.000 F1000
G2 X10.130 Y-43.687 Z-2.000 I3.043 J0.505 F2500
G2 X13.215 Y-46.772 Z-2.000 I0.000 J-3.085 F2500
G2 X10.130 Y-49.857 Z-2.000 I-3.085 J0.000 F2500
G2 X7.087 Y-47.277 Z-2.000 I-0.000 J3.085 F2500
G0 Z3.000
G0 X12.963 Y-47.983 Z3.000
G0 X12.963 Y-47.983 Z1.000
G1 X12.963 Y-47.983 Z-2.000 F1000
G1 X48.415 Y-47.983 Z-2.000 F2500
G1 X48.415 Y-45.447 Z-2.000 F2500
G1 X12.915 Y-45.447 Z-2.000 F2500
G3 X7.344 Y-45.447 Z-2.000 I-2.786 J-1.324 F2500
G1 X2.786 Y-45.447 Z-2.000 F2500
G3 X-2.786 Y-45.447 Z-2.000 I-2.786 J-1.324 F2500
G1 X-7.344 Y-45.447 Z-2.000 F2500
G3 X-12.915 Y-45.447 Z-2.000 I-2.786 J-1.324 F2500
G1 X-48.415 Y-45.447 Z-2.000 F2500
G1 X-48.415 Y-42.911 Z-2.000 F2500
G1 X48.415 Y-42.911 Z-2.000 F2500
G1 X48.415 Y-40.375 Z-2.000 F2500
G1 X22.650 Y-40.375 Z-2.000 F2500
G3 X22.109 Y-37.839 Z-2.000 I-3.000 J0.686 F2500
G1 X48.415 Y-37.839 Z-2.000 F2500
G0 Z3.000
G0 Y-53.055 Z3.000
G0 Y-53.055 Z1.000
G1 X48.415 Y-53.055 Z-2.000 F1000
G1 X22.644 Y-53.055 Z-2.000 F2500
G2 X22.132 Y-55.591 Z-2.000 I-2.991 J-0.716 F2500
G1 X48.415 Y-55.591 Z-2.000 F2500
G1 X48.415 Y-58.127 Z-2.000 F2500
G1 X2.828 Y-58.127 Z-2.000 F2500
G0 Z3.000
G0 X2.831 Y-58.128 Z3.000
G0 X2.831 Y-58.128 Z1.000
G1 X2.831 Y-58.128 Z-2.000 F1000
G2 X-0.000 Y-59.987 Z-2.000 I-2.831 J1.226 F2500
G2 X-0.000 Y-53.817 Z-2.000 I0.000 J3.085 F2500
G2 X2.831 Y-58.128 Z-2.000 I-0.000 J-3.085 F2500
G0 Z3.000
G0 X-7.810 Y-48.805 Z3.000
G0 X-7.810 Y-48.805 Z1.000
G1 X-7.810 Y-48.805 Z-2.000 F1000
G2 X-10.130 Y-49.857 Z-2.000 I-2.320 J2.033 F2500
G2 X-13.215 Y-46.772 Z-2.000 I-0.000 J3.085 F2500
G2 X-10.130 Y-43.687 Z-2.000 I3.085 J0.000 F2500
G2 X-7.810 Y-48.805 Z-2.000 I0.000 J-3.085 F2500
G0 Z3.000
G0 X-7.296 Y-47.983 Z3.000
G0 X-7.296 Y-47.983 Z1.000
G1 X-7.296 Y-47.983 Z-2.000 F1000
G1 X-2.834 Y-47.983 Z-2.000 F2500
G2 X-2.786 Y-45.447 Z-2.000 I2.825 J1.215 F2500
G1 X-7.344 Y-45.447 Z-2.000 F2500
G0 Z3.000
G0 X-16.841 Y-41.065 Z3.000
G0 X-16.841 Y-41.065 Z1.000
G1 X-16.841 Y-41.065 Z-2.000 F1000
G2 X-19.642 Y-42.857 Z-2.000 I-2.801 J1.293 F2500
G2 X-19.642 Y-36.687 Z-2.000 I0.000 J3.085 F2500
G2 X-16.841 Y-41.065 Z-2.000 I-0.000 J-3.085 F2500
G0 Z3.000
G0 X-22.666 Y-40.375 Z3.000
G0 X-22.666 Y-40.375 Z1.000
G1 X-22.666 Y-40.375 Z-2.000 F1000
G1 X-48.415 Y-40.375 Z-2.000 F2500
G1 X-48.415 Y-37.839 Z-2.000 F2500
G1 X-22.046 Y-37.839 Z-2.000 F2500
G2 X-17.238 Y-37.839 Z-2.000 I2.404 J-1.932 F2500
G1 X-2.839 Y-37.839 Z-2.000 F2500
G2 X-2.779 Y-35.303 Z-2.000 I2.830 J1.202 F2500
G1 X-48.415 Y-35.303 Z-2.000 F2500
G0 Z3.000
G0 Y-45.447 Z3.000
G0 Y-45.447 Z1.000
G1 X-48.415 Y-45.447 Z-2.000 F1000
G1 X-12.915 Y-45.447 Z-2.000 F2500
G3 X-12.963 Y-47.983 Z-2.000 I2.777 J-1.321 F2500
G1 X-48.415 Y-47.983 Z-2.000 F2500
G1 X-48.415 Y-50.519 Z-2.000 F2500
G1 X48.415 Y-50.519 Z-2.000 F2500
G1 X48.415 Y-53.055 Z-2.000 F2500
G1 X22.644 Y-53.055 Z-2.000 F2500
G3 X16.645 Y-53.055 Z-2.000 I-3.000 J-0.716 F2500
G1 X-16.642 Y-53.055 Z-2.000 F2500
G3 X-22.642 Y-53.055 Z-2.000 I-3.000 J-0.716 F2500
G1 X-48.415 Y-53.055 Z-2.000 F2500
G1 X-48.415 Y-55.591 Z-2.000 F2500
G1 X-22.130 Y-55.591 Z-2.000 F2500
G0 Z3.000
G0 X-22.133 Y-55.593 Z3.000
G0 X-22.133 Y-55.593 Z1.000
G1 X-22.133 Y-55.593 Z-2.000 F1000
G2 X-19.642 Y-50.687 Z-2.000 I2.490 J1.821 F2500
G2 X-19.642 Y-56.857 Z-2.000 I-0.000 J-3.085 F2500
G2 X-22.133 Y-55.593 Z-2.000 I0.000 J3.085 F2500
G0 Z3.000
G0 X-48.415 Y-55.591 Z3.000
G0 X-48.415 Y-55.591 Z1.000
G1 X-48.415 Y-55.591 Z-2.000 F1000
G1 X-22.130 Y-55.591 Z-2.000 F2500
G3 X-17.154 Y-55.591 Z-2.000 I2.488 J1.811 F2500
G1 X-2.792 Y-55.591 Z-2.000 F2500
G3 X-2.828 Y-58.127 Z-2.000 I2.785 J-1.308 F2500
G1 X-48.415 Y-58.127 Z-2.000 F2500
G1 X-48.415 Y-60.663 Z-2.000 F2500
G1 X48.415 Y-60.663 Z-2.000 F2500
G1 X48.415 Y-63.199 Z-2.000 F2500
G1 X-48.415 Y-63.199 Z-2.000 F2500
G1 X-48.415 Y-65.735 Z-2.000 F2500
G1 X48.415 Y-65.735 Z-2.000 F2500
G1 X48.415 Y-68.271 Z-2.000 F2500
G1 X-48.415 Y-68.271 Z-2.000 F2500
G1 X-48.415 Y-70.807 Z-2.000 F2500
G1 X48.415 Y-70.807 Z-2.000 F2500
G1 X48.415 Y-73.343 Z-2.000 F2500
G1 X-48.415 Y-73.343 Z-2.000 F2500
G1 X-48.415 Y-75.879 Z-2.000 F2500
G1 X48.415 Y-75.879 Z-2.000 F2500
G1 X48.415 Y-78.415 Z-2.000 F2500
G1 X-48.415 Y-78.415 Z-2.000 F2500
G0 Z3.000
G0 X16.744 Y-54.822 Z3.000
G0 X16.744 Y-54.822 Z1.000
G1 X16.744 Y-54.822 Z-2.000 F1000
G2 X19.645 Y-50.687 Z-2.000 I2.901 J1.050 F2500
G2 X22.730 Y-53.772 Z-2.000 I0.000 J-3.085 F2500
G2 X19.645 Y-56.857 Z-2.000 I-3.085 J0.000 F2500
G2 X16.744 Y-54.822 Z-2.000 I0.000 J3.085 F2500
G0 Z3.000
G0 X17.157 Y-55.591 Z3.000
G0 X17.157 Y-55.591 Z1.000
G1 X17.157 Y-55.591 Z-2.000 F1000
G1 X2.792 Y-55.591 Z-2.000 F2500
G3 X-2.792 Y-55.591 Z-2.000 I-2.792 J-1.310 F2500
G1 X-17.154 Y-55.591 Z-2.000 F2500
G3 X-16.642 Y-53.055 Z-2.000 I-2.479 J1.820 F2500
G1 X16.645 Y-53.055 Z-2.000 F2500
G0 Z3.000
G0 X18.967 Y-42.699 Z3.000
G0 X18.967 Y-42.699 Z1.000
G1 X18.967 Y-42.699 Z-2.000 F1000
G2 X19.642 Y-36.604 Z-2.000 I0.675 J3.010 F2500
G2 X19.642 Y-42.774 Z-2.000 I-0.000 J-3.085 F2500
G2 X18.967 Y-42.699 Z-2.000 I-0.000 J3.085 F2500
G0 Z3.000
G0 X16.634 Y-40.375 Z3.000
G0 X16.634 Y-40.375 Z1.000
G1 X16.634 Y-40.375 Z-2.000 F1000
G1 X-16.618 Y-40.375 Z-2.000 F2500
G3 X-17.238 Y-37.839 Z-2.000 I-3.029 J0.603 F2500
G1 X-2.839 Y-37.839 Z-2.000 F2500
G3 X2.839 Y-37.839 Z-2.000 I2.839 J1.190 F2500
G1 X17.175 Y-37.839 Z-2.000 F2500
G0 Z3.000
G0 X25.261 Y-25.995 Z3.000
G0 X25.261 Y-25.995 Z1.000
G1 X25.261 Y-25.995 Z-2.000 F1000
G2 X27.000 Y-20.362 Z-2.000 I1.739 J2.548 F2500
G2 X30.085 Y-23.447 Z-2.000 I-0.000 J-3.085 F2500
G2 X27.000 Y-26.532 Z-2.000 I-3.085 J0.000 F2500
G2 X25.261 Y-25.995 Z-2.000 I0.000 J3.085 F2500
G0 Z3.000
G0 X24.443 Y-25.159 Z3.000
G0 X24.443 Y-25.159 Z1.000
G1 X24.443 Y-25.159 Z-2.000 F1000
G1 X-24.443 Y-25.159 Z-2.000 F2500
G3 X-24.031 Y-22.623 Z-2.000 I-2.544 J1.715 F2500
G1 X24.031 Y-22.623 Z-2.000 F2500
G0 Z3.000
G0 X22.044 Y-11.537 Z3.000
G0 X22.044 Y-11.537 Z1.000
G1 X22.044 Y-11.537 Z-2.000 F1000
G2 X21.500 Y-11.585 Z-2.000 I-0.544 J3.037 F2500
G2 X21.500 Y-5.415 Z-2.000 I-0.000 J3.085 F2500
G2 X22.044 Y-11.537 Z-2.000 I0.000 J-3.085 F2500
G0 Z3.000
G0 X18.776 Y-9.943 Z3.000
G0 X18.776 Y-9.943 Z1.000
G1 X18.776 Y-9.943 Z-2.000 F1000
G1 X2.724 Y-9.943 Z-2.000 F2500
G3 X2.876 Y-7.407 Z-2.000 I-2.716 J1.436 F2500
G1 X18.624 Y-7.407 Z-2.000 F2500
G0 Z3.000
G0 X3.080 Y-8.319 Z3.000
G0 X3.080 Y-8.319 Z1.000
G1 X3.080 Y-8.319 Z-2.000 F1000
G2 X-0.000 Y-11.585 Z-2.000 I-3.080 J-0.181 F2500
G2 X-0.000 Y-5.415 Z-2.000 I0.000 J3.085 F2500
G2 X3.080 Y-8.319 Z-2.000 I-0.000 J-3.085 F2500
G0 Z3.000
G0 X-2.876 Y-7.407 Z3.000
G0 X-2.876 Y-7.407 Z1.000
G1 X-2.876 Y-7.407 Z-2.000 F1000
G1 X-18.624 Y-7.407 Z-2.000 F2500
G2 X-18.776 Y-9.943 Z-2.000 I-2.868 J-1.100 F2500
G1 X-2.724 Y-9.943 Z-2.000 F2500
G0 Z3.000
G0 X-21.546 Y21.845 Z3.000
G0 X-21.546 Y21.845 Z1.000
G1 X-21.546 Y21.845 Z-2.000 F1000
G2 X-23.118 Y21.415 Z-2.000 I-1.572 J2.655 F2500
G2 X-23.118 Y27.585 Z-2.000 I0.000 J3.085 F2500
G2 X-21.546 Y21.845 Z-2.000 I-0.000 J-3.085 F2500
G0 Z3.000
G0 X-20.413 Y23.025 Z3.000
G0 X-20.413 Y23.025 Z1.000
G1 X-20.413 Y23.025 Z-2.000 F1000
G1 X20.413 Y23.025 Z-2.000 F2500
G2 X20.230 Y25.561 Z-2.000 I2.684 J1.468 F2500
G1 X-20.230 Y25.561 Z-2.000 F2500
G0 Z3.000
G0 X-18.241 Y50.924 Z3.000
G0 X-18.241 Y50.924 Z1.000
G1 X-18.241 Y50.924 Z-2.000 F1000
G2 X-18.000 Y57.085 Z-2.000 I0.241 J3.076 F2500
G2 X-18.000 Y50.915 Z-2.000 I-0.000 J-3.085 F2500
G2 X-18.241 Y50.924 Z-2.000 I-0.000 J3.085 F2500
G0 Z3.000
G0 X-18.130 Y50.921 Z3.000
G0 X-18.130 Y50.921 Z1.000
G1 X-18.130 Y50.921 Z-2.000 F1000
G1 X-48.415 Y50.921 Z-2.000 F2500
G1 X-48.415 Y53.457 Z-2.000 F2500
G1 X-21.033 Y53.457 Z-2.000 F2500
G2 X-20.353 Y55.993 Z-2.000 I3.057 J0.539 F2500
G1 X-48.415 Y55.993 Z-2.000 F2500
G0 Z3.000
G0 X-15.647 Z3.000
G0 X-15.647 Z1.000
G1 X-15.647 Y55.993 Z-2.000 F1000
G1 X-2.353 Y55.993 Z-2.000 F2500
G3 X-3.033 Y53.457 Z-2.000 I2.378 J-1.997 F2500
G1 X-14.967 Y53.457 Z-2.000 F2500
G2 X-17.870 Y50.921 Z-2.000 I-3.037 J0.547 F2500
G1 X-0.130 Y50.921 Z-2.000 F2500
G0 Z3.000
G0 X-0.131 Y50.918 Z3.000
G0 X-0.131 Y50.918 Z1.000
G1 X-0.131 Y50.918 Z-2.000 F1000
G2 X-0.000 Y57.085 Z-2.000 I0.131 J3.082 F2500
G2 X3.085 Y54.000 Z-2.000 I0.000 J-3.085 F2500
G2 X0.000 Y50.915 Z-2.000 I-3.085 J0.000 F2500
G2 X-0.131 Y50.918 Z-2.000 I0.000 J3.085 F2500
G0 Z3.000
G0 X2.353 Y55.993 Z3.000
G0 X2.353 Y55.993 Z1.000
G1 X2.353 Y55.993 Z-2.000 F1000
G1 X15.647 Y55.993 Z-2.000 F2500
G3 X14.967 Y53.457 Z-2.000 I2.378 J-1.997 F2500
G1 X3.033 Y53.457 Z-2.000 F2500
G2 X0.130 Y50.921 Z-2.000 I-3.037 J0.547 F2500
G1 X17.870 Y50.921 Z-2.000 F2500
G0 Z3.000
G0 X17.869 Y50.918 Z3.000
G0 X17.869 Y50.918 Z1.000
G1 X17.869 Y50.918 Z-2.000 F1000
G2 X18.000 Y57.085 Z-2.000 I0.131 J3.082 F2500
G2 X21.085 Y54.000 Z-2.000 I0.000 J-3.085 F2500
G2 X18.000 Y50.915 Z-2.000 I-3.085 J0.000 F2500
G2 X17.869 Y50.918 Z-2.000 I0.000 J3.085 F2500
G0 Z3.000
G0 Z3.000
(Finish operation: Pocket_3D)
(Begin operation: Pocket_Shape)
(Path: Pocket_Shape)
(Pocket_Shape)
G0 Z3.000
G0 X4.610 Y12.610
G0 Z1.000
G1 X4.610 Y12.610 Z-3.500 F1000
G3 X4.410 Y12.665 Z-3.500 I-0.148 J-0.148 F2500
G1 X-4.410 Y12.665 Z-3.500 F2500
G3 X-4.665 Y12.410 Z-3.500 I-0.053 J-0.203 F2500
G1 X-4.665 Y1.590 Z-3.500 F2500
G3 X-4.410 Y1.335 Z-3.500 I0.203 J-0.053 F2500
G1 X4.410 Y1.335 Z-3.500 F2500
G3 X4.665 Y1.590 Z-3.500 I0.053 J0.203 F2500
G1 X4.665 Y12.410 Z-3.500 F2500
G3 X4.610 Y12.610 Z-3.500 I-0.203 J0.053 F2500
G0 Z3.000
G0 X4.410 Y12.665 Z3.000
G0 X4.410 Y12.665 Z1.000
G1 X4.410 Y12.665 Z-3.500 F1000
G1 X-4.410 Y12.665 Z-3.500 F2500
G3 X-4.665 Y12.410 Z-3.500 I-0.053 J-0.203 F2500
G1 X-4.665 Y10.129 Z-3.500 F2500
G1 X4.665 Y10.129 Z-3.500 F2500
G1 X4.665 Y7.593 Z-3.500 F2500
G1 X-4.665 Y7.593 Z-3.500 F2500
G1 X-4.665 Y5.057 Z-3.500 F2500
G1 X4.665 Y5.057 Z-3.500 F2500
G1 X4.665 Y2.521 Z-3.500 F2500
G1 X-4.665 Y2.521 Z-3.500 F2500
G3 X-4.653 Y1.470 Z-3.500 I5.344 J-0.465 F2500
G3 X-4.410 Y1.335 Z-3.500 I0.189 J0.054 F2500
G1 X4.410 Y1.335 Z-3.500 F2500
G3 X4.665 Y1.590 Z-3.500 I0.053 J0.203 F2500
G1 X4.665 Y2.521 Z-3.500 F2500
G1 X4.665 Y2.521 Z-5.000 F1000
G1 X4.665 Y1.590 Z-5.000 F2500
G2 X4.410 Y1.335 Z-5.000 I-0.203 J-0.053 F2500
G1 X-4.410 Y1.335 Z-5.000 F2500
G2 X-4.653 Y1.470 Z-5.000 I-0.054 J0.189 F2500
G2 X-4.665 Y2.521 Z-5.000 I5.332 J0.586 F2500
G1 X4.665 Y2.521 Z-5.000 F2500
G1 X4.665 Y5.057 Z-5.000 F2500
G1 X-4.665 Y5.057 Z-5.000 F2500
G1 X-4.665 Y7.593 Z-5.000 F2500
G1 X4.665 Y7.593 Z-5.000 F2500
G1 X4.665 Y10.129 Z-5.000 F2500
G1 X-4.665 Y10.129 Z-5.000 F2500
G1 X-4.665 Y12.410 Z-5.000 F2500
G2 X-4.410 Y12.665 Z-5.000 I0.203 J0.053 F2500
G1 X4.410 Y12.665 Z-5.000 F2500
G1 X4.410 Y12.665 Z-5.000 F1000
G1 X-4.410 Y12.665 Z-5.000 F2500
G3 X-4.665 Y12.410 Z-5.000 I-0.053 J-0.203 F2500
G1 X-4.665 Y1.590 Z-5.000 F2500
G3 X-4.410 Y1.335 Z-5.000 I0.203 J-0.053 F2500
G1 X4.410 Y1.335 Z-5.000 F2500
G3 X4.665 Y1.590 Z-5.000 I0.053 J0.203 F2500
G1 X4.665 Y12.410 Z-5.000 F2500
G3 X4.410 Y12.665 Z-5.000 I-0.203 J0.053 F2500
G0 Z3.000
G0 Z3.000
G0 X4.410 Y12.665
G0 X-14.335 Y8.182
G0 X-14.335 Y8.182 Z1.000
G1 X-14.335 Y8.182 Z-3.500 F1000
G3 X-14.482 Y8.335 Z-3.500 I-0.204 J-0.049 F2500
G1 X-23.853 Y13.745 Z-3.500 F2500
G3 X-24.201 Y13.652 Z-3.500 I-0.147 J-0.149 F2500
G2 X-26.715 Y9.298 Z-3.500 I-193.253 J108.696 F2500
G2 X-31.993 Y7.971 Z-3.500 I-3.299 J1.960 F2500
G3 X-32.987 Y7.942 Z-3.500 I-0.482 J-0.517 F2500
G3 X-32.929 Y7.001 Z-3.500 I0.487 J-0.442 F2500
G2 X-30.972 Y3.208 Z-3.500 I-1.920 J-3.392 F2500
G2 X-31.885 Y1.056 Z-3.500 I-4.288 J0.550 F2500
G3 X-30.044 Y-2.160 Z-3.500 I1.885 J-1.056 F2500
G3 X-27.841 Y-0.299 Z-3.500 I0.017 J2.215 F2500
G2 X-22.223 Y2.031 Z-3.500 I3.705 J-0.995 F2500
G1 X-19.147 Y0.255 Z-3.500 F2500
G3 X-18.799 Y0.348 Z-3.500 I0.147 J0.149 F2500
G1 X-14.389 Y7.987 Z-3.500 F2500
G3 X-14.335 Y8.182 Z-3.500 I-0.149 J0.147 F2500
G0 Z3.000
G0 X-14.332 Y8.127 Z3.000
G0 X-14.332 Y8.127 Z1.000
G1 X-14.332 Y8.127 Z-3.500 F1000
G3 X-14.482 Y8.335 Z-3.500 I-0.202 J0.013 F2500
G1 X-16.867 Y9.712 Z-3.500 F2500
G1 X-16.867 Y3.694 Z-3.500 F2500
G1 X-18.799 Y0.348 Z-3.500 F2500
G2 X-19.147 Y0.255 Z-3.500 I-0.202 J0.056 F2500
G1 X-19.403 Y0.403 Z-3.500 F2500
G1 X-19.403 Y11.176 Z-3.500 F2500
G1 X-21.939 Y12.640 Z-3.500 F2500
G1 X-21.939 Y1.867 Z-3.500 F2500
G3 X-24.475 Y2.525 Z-3.500 I-2.206 J-3.285 F2500
G1 X-24.475 Y13.177 Z-3.500 F2500
G2 X-26.715 Y9.298 Z-3.500 I-172.188 J96.851 F2500
G2 X-27.011 Y8.872 Z-3.500 I-6.088 J3.917 F2500
G1 X-27.011 Y1.243 Z-3.500 F2500
G3 X-27.973 Y-0.749 Z-3.500 I3.244 J-2.796 F2500
G2 X-29.547 Y-2.108 Z-3.500 I-2.010 J0.738 F2500
G1 X-29.547 Y7.446 Z-3.500 F2500
G2 X-32.083 Y8.019 Z-3.500 I-0.454 J3.889 F2500
G1 X-32.083 Y6.336 Z-3.500 F2500
G3 X-32.929 Y7.001 Z-3.500 I-5.733 J-6.416 F2500
G2 X-32.083 Y8.019 Z-3.500 I0.435 J0.499 F2500
G0 Z3.000
G0 Y0.561 Z3.000
G0 Y0.561 Z1.000
G1 X-32.083 Y0.561 Z-3.500 F1000
G1 X-32.083 Y-0.555 Z-3.500 F2500
G2 X-32.083 Y0.561 Z-3.500 I1.962 J0.558 F2500
G1 X-32.083 Y0.561 Z-5.000 F1000
G1 X-32.083 Y-0.555 Z-5.000 F2500
G2 X-32.083 Y0.561 Z-5.000 I1.962 J0.558 F2500
G0 Z3.000
G0 X-32.086 Y0.562 Z3.000
G0 X-32.086 Y0.562 Z1.000
G1 X-32.086 Y0.562 Z-5.000 F1000
G3 X-30.044 Y-2.160 Z-5.000 I2.086 J-0.562 F2500
G3 X-27.841 Y-0.299 Z-5.000 I0.017 J2.215 F2500
G2 X-22.223 Y2.031 Z-5.000 I3.705 J-0.995 F2500
G1 X-19.147 Y0.255 Z-5.000 F2500
G3 X-18.799 Y0.348 Z-5.000 I0.147 J0.149 F2500
G1 X-14.389 Y7.987 Z-5.000 F2500
G3 X-14.482 Y8.335 Z-5.000 I-0.149 J0.147 F2500
G1 X-23.853 Y13.745 Z-5.000 F2500
G3 X-24.201 Y13.652 Z-5.000 I-0.147 J-0.149 F2500
G2 X-26.715 Y9.298 Z-5.000 I-193.253 J108.696 F2500
G2 X-31.993 Y7.971 Z-5.000 I-3.299 J1.960 F2500
G3 X-32.987 Y7.942 Z-5.000 I-0.482 J-0.517 F2500
G3 X-32.929 Y7.001 Z-5.000 I0.487 J-0.442 F2500
G2 X-30.972 Y3.208 Z-5.000 I-1.920 J-3.392 F2500
G2 X-31.885 Y1.056 Z-5.000 I-4.288 J0.550 F2500
G3 X-32.086 Y0.562 Z-5.000 I1.885 J-1.056 F2500
G0 Z3.000
G0 X-32.083 Y8.019 Z3.000
G0 X-32.083 Y8.019 Z1.000
G1 X-32.083 Y8.019 Z-5.000 F1000
G3 X-32.929 Y7.001 Z-5.000 I-0.411 J-0.519 F2500
G2 X-32.083 Y6.336 Z-5.000 I-4.888 J-7.081 F2500
G1 X-32.083 Y8.019 Z-5.000 F2500
G3 X-29.547 Y7.446 Z-5.000 I2.082 J3.316 F2500
G1 X-29.547 Y-2.108 Z-5.000 F2500
G3 X-27.973 Y-0.749 Z-5.000 I-0.437 J2.096 F2500
G2 X-27.011 Y1.243 Z-5.000 I4.207 J-0.803 F2500
G1 X-27.011 Y8.872 Z-5.000 F2500
G3 X-26.715 Y9.298 Z-5.000 I-5.792 J4.343 F2500
G3 X-24.475 Y13.177 Z-5.000 I-169.948 J100.729 F2500
G1 X-24.475 Y2.525 Z-5.000 F2500
G2 X-21.939 Y1.867 Z-5.000 I0.330 J-3.943 F2500
G1 X-21.939 Y12.640 Z-5.000 F2500
G1 X-19.403 Y11.176 Z-5.000 F2500
G1 X-19.403 Y0.403 Z-5.000 F2500
G1 X-19.147 Y0.255 Z-5.000 F2500
G3 X-18.799 Y0.348 Z-5.000 I0.147 J0.149 F2500
G1 X-16.867 Y3.694 Z-5.000 F2500
G1 X-16.867 Y9.712 Z-5.000 F2500
G1 X-14.482 Y8.335 Z-5.000 F2500
G2 X-14.332 Y8.127 Z-5.000 I-0.052 J-0.196 F2500
G0 Z3.000
G0 Z3.000
G0 X-14.332 Y8.127
G0 Y-18.782
G0 Y-18.782 Z1.000
G1 X-14.332 Y-18.782 Z-3.500 F1000
G1 X-16.910 Y-18.782 Z-3.500 F2500
G3 X-17.165 Y-19.038 Z-3.500 I-0.053 J-0.203 F2500
G1 X-17.165 Y-27.857 Z-3.500 F2500
G3 X-16.910 Y-28.112 Z-3.500 I0.203 J-0.053 F2500
G1 X-6.090 Y-28.112 Z-3.500 F2500
G3 X-5.835 Y-27.857 Z-3.500 I0.053 J0.203 F2500
G1 X-5.835 Y-19.038 Z-3.500 F2500
G3 X-6.090 Y-18.782 Z-3.500 I-0.203 J0.053 F2500
G1 X-14.332 Y-18.782 Z-3.500 F2500
G0 Z3.000
G0 X-15.979 Y-28.112 Z3.000
G0 X-15.979 Y-28.112 Z1.000
G1 X-15.979 Y-28.112 Z-3.500 F1000
G1 X-16.910 Y-28.112 Z-3.500 F2500
G2 X-17.165 Y-27.857 Z-3.500 I-0.053 J0.203 F2500
G1 X-17.165 Y-19.038 Z-3.500 F2500
G2 X-17.030 Y-18.794 Z-3.500 I0.189 J0.054 F2500
G2 X-15.979 Y-18.782 Z-3.500 I0.586 J-5.332 F2500
G1 X-15.979 Y-28.112 Z-3.500 F2500
G1 X-13.443 Y-28.112 Z-3.500 F2500
G1 X-13.443 Y-18.782 Z-3.500 F2500
G1 X-10.907 Y-18.782 Z-3.500 F2500
G1 X-10.907 Y-28.112 Z-3.500 F2500
G1 X-8.371 Y-28.112 Z-3.500 F2500
G1 X-8.371 Y-18.782 Z-3.500 F2500
G1 X-6.090 Y-18.782 Z-3.500 F2500
G2 X-5.835 Y-19.038 Z-3.500 I0.053 J-0.203 F2500
G1 X-5.835 Y-27.857 Z-3.500 F2500
G1 X-5.835 Y-27.857 Z-5.000 F1000
G1 X-5.835 Y-19.038 Z-5.000 F2500
G3 X-6.090 Y-18.782 Z-5.000 I-0.203 J0.053 F2500
G1 X-16.910 Y-18.782 Z-5.000 F2500
G3 X-17.165 Y-19.038 Z-5.000 I-0.053 J-0.203 F2500
G1 X-17.165 Y-27.857 Z-5.000 F2500
G3 X-16.910 Y-28.112 Z-5.000 I0.203 J-0.053 F2500
G1 X-6.090 Y-28.112 Z-5.000 F2500
G3 X-5.835 Y-27.857 Z-5.000 I0.053 J0.203 F2500
G1 X-5.835 Y-27.857 Z-5.000 F1000
G1 X-5.835 Y-19.038 Z-5.000 F2500
G3 X-6.090 Y-18.782 Z-5.000 I-0.203 J0.053 F2500
G1 X-8.371 Y-18.782 Z-5.000 F2500
G1 X-8.371 Y-28.112 Z-5.000 F2500
G1 X-10.907 Y-28.112 Z-5.000 F2500
G1 X-10.907 Y-18.782 Z-5.000 F2500
G1 X-13.443 Y-18.782 Z-5.000 F2500
G1 X-13.443 Y-28.112 Z-5.000 F2500
G1 X-15.979 Y-28.112 Z-5.000 F2500
G1 X-15.979 Y-18.782 Z-5.000 F2500
G3 X-17.030 Y-18.794 Z-5.000 I-0.465 J-5.344 F2500
G3 X-17.165 Y-19.038 Z-5.000 I0.054 J-0.189 F2500
G1 X-17.165 Y-27.857 Z-5.000 F2500
G3 X-16.910 Y-28.112 Z-5.000 I0.203 J-0.053 F2500
G1 X-15.979 Y-28.112 Z-5.000 F2500
G0 Z3.000
G0 Z3.000
G0 X-15.979 Y-28.112
G0 X5.828 Y-27.912
G0 X5.828 Y-27.912 Z1.000
G1 X5.828 Y-27.912 Z-3.500 F1000
G3 X6.090 Y-28.112 Z-3.500 I0.209 J0.002 F2500
G1 X16.910 Y-28.112 Z-3.500 F2500
G3 X17.165 Y-27.857 Z-3.500 I0.053 J0.203 F2500
G1 X17.165 Y-19.038 Z-3.500 F2500
G3 X16.910 Y-18.782 Z-3.500 I-0.203 J0.053 F2500
G1 X6.090 Y-18.782 Z-3.500 F2500
G3 X5.835 Y-19.038 Z-3.500 I-0.053 J-0.203 F2500
G1 X5.835 Y-27.857 Z-3.500 F2500
G3 X5.828 Y-27.912 Z-3.500 I0.203 J-0.053 F2500
G0 Z3.000
G0 X5.835 Y-26.390 Z3.000
G0 X5.835 Y-26.390 Z1.000
G1 X5.835 Y-26.390 Z-3.500 F1000
G1 X17.165 Y-26.390 Z-3.500 F2500
G1 X17.165 Y-27.857 Z-3.500 F2500
G2 X16.910 Y-28.112 Z-3.500 I-0.203 J-0.053 F2500
G1 X6.090 Y-28.112 Z-3.500 F2500
G2 X5.835 Y-27.857 Z-3.500 I-0.053 J0.203 F2500
G1 X5.835 Y-26.390 Z-3.500 F2500
G1 X5.835 Y-23.854 Z-3.500 F2500
G1 X17.165 Y-23.854 Z-3.500 F2500
G1 X17.165 Y-21.318 Z-3.500 F2500
G1 X5.835 Y-21.318 Z-3.500 F2500
G1 X5.835 Y-19.038 Z-3.500 F2500
G2 X6.090 Y-18.782 Z-3.500 I0.203 J0.053 F2500
G1 X16.910 Y-18.782 Z-3.500 F2500
G1 X16.910 Y-18.782 Z-5.000 F1000
G1 X6.090 Y-18.782 Z-5.000 F2500
G3 X5.835 Y-19.038 Z-5.000 I-0.053 J-0.203 F2500
G1 X5.835 Y-21.318 Z-5.000 F2500
G1 X17.165 Y-21.318 Z-5.000 F2500
G1 X17.165 Y-23.854 Z-5.000 F2500
G1 X5.835 Y-23.854 Z-5.000 F2500
G1 X5.835 Y-26.390 Z-5.000 F2500
G1 X5.835 Y-27.857 Z-5.000 F2500
G3 X6.090 Y-28.112 Z-5.000 I0.203 J-0.053 F2500
G1 X16.910 Y-28.112 Z-5.000 F2500
G3 X17.165 Y-27.857 Z-5.000 I0.053 J0.203 F2500
G1 X17.165 Y-26.390 Z-5.000 F2500
G1 X5.835 Y-26.390 Z-5.000 F2500
G1 X5.835 Y-26.390 Z-5.000 F1000
G1 X5.835 Y-27.857 Z-5.000 F2500
G3 X6.090 Y-28.112 Z-5.000 I0.203 J-0.053 F2500
G1 X16.910 Y-28.112 Z-5.000 F2500
G3 X17.165 Y-27.857 Z-5.000 I0.053 J0.203 F2500
G1 X17.165 Y-19.038 Z-5.000 F2500
G3 X16.910 Y-18.782 Z-5.000 I-0.203 J0.053 F2500
G1 X6.090 Y-18.782 Z-5.000 F2500
G3 X5.835 Y-19.038 Z-5.000 I-0.053 J-0.203 F2500
G1 X5.835 Y-26.390 Z-5.000 F2500
G0 Z3.000
G0 Z3.000
G0 X5.835 Y-26.390
G0 X31.984 Y-47.092
G0 X31.984 Y-47.092 Z1.000
G1 X31.984 Y-47.092 Z-3.500 F1000
G3 X31.843 Y-47.528 Z-3.500 I0.516 J-0.408 F2500
G2 X32.128 Y-48.617 Z-3.500 I-391.360 J-102.960 F2500
G2 X33.009 Y-47.917 Z-3.500 I252.272 J-316.583 F2500
G3 X33.146 Y-47.374 Z-3.500 I-0.509 J0.417 F2500
G3 X31.984 Y-47.092 Z-3.500 I-0.646 J-0.126 F2500
G0 Z3.000
G0 X31.991 Y-47.097 Z3.000
G0 X31.991 Y-47.097 Z1.000
G1 X31.991 Y-47.097 Z-3.500 F1000
G3 X31.945 Y-47.918 Z-3.500 I0.651 J-0.449 F2500
G2 X32.128 Y-48.617 Z-3.500 I-2.638 J-1.062 F2500
G2 X33.009 Y-47.917 Z-3.500 I252.272 J-316.583 F2500
G3 X32.059 Y-47.012 Z-3.500 I-0.509 J0.417 F2500
G3 X31.991 Y-47.097 Z-3.500 I0.583 J-0.534 F2500
G0 Z3.000
G0 X31.005 Y-51.986 Z3.000
G0 X31.005 Y-51.986 Z1.000
G1 X31.005 Y-51.986 Z-3.500 F1000
G2 X29.118 Y-53.028 Z-3.500 I-2.953 J3.117 F2500
G3 X29.915 Y-57.159 Z-3.500 I0.882 J-1.972 F2500
G3 X31.629 Y-53.551 Z-3.500 I0.071 J2.177 F2500
G2 X31.005 Y-51.986 Z-3.500 I3.060 J2.126 F2500
G0 Z3.000
G0 X28.086 Y-55.990 Z3.000
G0 X28.086 Y-55.990 Z1.000
G1 X28.086 Y-55.990 Z-3.500 F1000
G1 X28.086 Y-54.007 Z-3.500 F2500
G3 X28.086 Y-55.990 Z-3.500 I1.874 J-0.992 F2500
G3 X30.622 Y-57.064 Z-3.500 I1.906 J0.969 F2500
G1 X30.622 Y-52.318 Z-3.500 F2500
G3 X31.005 Y-51.986 Z-3.500 I-1.741 J2.391 F2500
G3 X31.629 Y-53.551 Z-3.500 I3.683 J0.561 F2500
G2 X30.622 Y-57.064 Z-3.500 I-1.648 J-1.428 F2500
G1 X30.622 Y-57.064 Z-5.000 F1000
G3 X31.629 Y-53.551 Z-5.000 I-0.641 J2.084 F2500
G2 X31.005 Y-51.986 Z-5.000 I3.060 J2.126 F2500
G2 X30.622 Y-52.318 Z-5.000 I-2.124 J2.059 F2500
G1 X30.622 Y-57.064 Z-5.000 F2500
G2 X28.086 Y-55.990 Z-5.000 I-0.630 J2.043 F2500
G2 X28.086 Y-54.007 Z-5.000 I1.874 J0.992 F2500
G1 X28.086 Y-55.990 Z-5.000 F2500
G0 Z3.000
G0 X28.081 Y-55.992 Z3.000
G0 X28.081 Y-55.992 Z1.000
G1 X28.081 Y-55.992 Z-5.000 F1000
G3 X29.915 Y-57.159 Z-5.000 I1.919 J0.992 F2500
G3 X31.629 Y-53.551 Z-5.000 I0.071 J2.177 F2500
G2 X31.005 Y-51.986 Z-5.000 I3.060 J2.126 F2500
G2 X29.118 Y-53.028 Z-5.000 I-2.953 J3.117 F2500
G3 X28.081 Y-55.992 Z-5.000 I0.882 J-1.972 F2500
G0 Z3.000
G0 X32.128 Y-48.617 Z3.000
G0 X32.128 Y-48.617 Z1.000
G1 X32.128 Y-48.617 Z-5.000 F1000
G2 X33.009 Y-47.917 Z-5.000 I252.272 J-316.583 F2500
G3 X33.146 Y-47.374 Z-5.000 I-0.509 J0.417 F2500
G3 X31.843 Y-47.528 Z-5.000 I-0.646 J-0.126 F2500
G2 X32.128 Y-48.617 Z-5.000 I-391.360 J-102.960 F2500
G0 Z3.000
G0 X32.128 Z3.000
G0 X32.128 Z1.000
G1 X32.128 Y-48.617 Z-5.000 F1000
G2 X33.009 Y-47.917 Z-5.000 I252.272 J-316.583 F2500
G3 X32.059 Y-47.012 Z-5.000 I-0.509 J0.417 F2500
G3 X31.945 Y-47.918 Z-5.000 I0.583 J-0.534 F2500
G2 X32.128 Y-48.617 Z-5.000 I-2.638 J-1.062 F2500
G0 Z3.000
G0 Z3.000
G0 X32.128 Y-48.617
G0 X30.080 Y-2.159
G0 X30.080 Y-2.159 Z1.000
G1 X30.080 Y-2.159 Z-3.500 F1000
G3 X31.629 Y1.449 Z-3.500 I-0.096 J2.177 F2500
G2 X32.701 Y6.838 Z-3.500 I3.142 J2.176 F2500
G3 X33.111 Y7.745 Z-3.500 I-0.254 J0.660 F2500
G3 X32.239 Y8.104 Z-3.500 I-0.611 J-0.245 F2500
G2 X27.149 Y8.704 Z-3.500 I-2.203 J3.199 F2500
G2 X26.694 Y9.334 Z-3.500 I4.073 J3.427 F2500
G1 X24.201 Y13.652 Z-3.500 F2500
G3 X23.853 Y13.745 Z-3.500 I-0.202 J-0.056 F2500
G1 X14.482 Y8.335 Z-3.500 F2500
G3 X14.389 Y7.987 Z-3.500 I0.056 J-0.202 F2500
G1 X18.799 Y0.348 Z-3.500 F2500
G3 X19.147 Y0.255 Z-3.500 I0.202 J0.056 F2500
G2 X22.260 Y2.052 Z-3.500 I78.110 J-131.739 F2500
G2 X27.854 Y-0.344 Z-3.500 I1.879 J-3.341 F2500
G3 X30.044 Y-2.160 Z-3.500 I2.154 J0.368 F2500
G3 X30.080 Y-2.159 Z-3.500 I-0.059 J2.179 F2500
G0 Z3.000
G0 X33.158 Y7.517 Z3.000
G0 X33.158 Y7.517 Z1.000
G1 X33.158 Y7.517 Z-3.500 F1000
G3 X32.239 Y8.104 Z-3.500 I-0.658 J-0.017 F2500
G2 X30.622 Y7.472 Z-3.500 I-2.281 J3.451 F2500
G1 X30.622 Y-2.069 Z-3.500 F2500
G2 X28.086 Y-0.998 Z-3.500 I-0.623 J2.064 F2500
G1 X28.086 Y7.939 Z-3.500 F2500
G2 X26.694 Y9.334 Z-3.500 I1.937 J3.324 F2500
G1 X25.550 Y11.316 Z-3.500 F2500
G1 X25.550 Y2.272 Z-3.500 F2500
G3 X23.014 Y2.372 Z-3.500 I-1.407 J-3.503 F2500
G1 X23.014 Y13.261 Z-3.500 F2500
G1 X20.478 Y11.796 Z-3.500 F2500
G1 X20.478 Y1.023 Z-3.500 F2500
G1 X19.147 Y0.255 Z-3.500 F2500
G2 X18.799 Y0.348 Z-3.500 I-0.147 J0.149 F2500
G1 X17.942 Y1.833 Z-3.500 F2500
G1 X17.942 Y10.332 Z-3.500 F2500
G1 X15.406 Y8.868 Z-3.500 F2500
G1 X14.482 Y8.335 Z-3.500 F2500
G3 X14.389 Y7.987 Z-3.500 I0.056 J-0.202 F2500
G1 X15.406 Y6.226 Z-3.500 F2500
G1 X15.406 Y8.868 Z-3.500 F2500
G1 X15.406 Y8.868 Z-5.000 F1000
G1 X15.406 Y6.226 Z-5.000 F2500
G1 X14.389 Y7.987 Z-5.000 F2500
G2 X14.482 Y8.335 Z-5.000 I0.149 J0.147 F2500
G1 X15.406 Y8.868 Z-5.000 F2500
G1 X17.942 Y10.332 Z-5.000 F2500
G1 X17.942 Y1.833 Z-5.000 F2500
G1 X18.799 Y0.348 Z-5.000 F2500
G3 X19.147 Y0.255 Z-5.000 I0.202 J0.056 F2500
G1 X20.478 Y1.023 Z-5.000 F2500
G1 X20.478 Y11.796 Z-5.000 F2500
G1 X23.014 Y13.261 Z-5.000 F2500
G1 X23.014 Y2.372 Z-5.000 F2500
G2 X25.550 Y2.272 Z-5.000 I1.129 J-3.602 F2500
G1 X25.550 Y11.316 Z-5.000 F2500
G1 X26.694 Y9.334 Z-5.000 F2500
G3 X28.086 Y7.939 Z-5.000 I3.329 J1.929 F2500
G1 X28.086 Y-0.998 Z-5.000 F2500
G3 X30.622 Y-2.069 Z-5.000 I1.913 J0.994 F2500
G1 X30.622 Y7.472 Z-5.000 F2500
G3 X32.239 Y8.104 Z-5.000 I-0.663 J4.083 F2500
G2 X33.158 Y7.517 Z-5.000 I0.261 J-0.604 F2500
G0 Z3.000
G0 X33.154 Y7.517 Z3.000
G0 X33.154 Y7.517 Z1.000
G1 X33.154 Y7.517 Z-5.000 F1000
G3 X33.111 Y7.745 Z-5.000 I-0.707 J-0.019 F2500
G3 X32.239 Y8.104 Z-5.000 I-0.611 J-0.245 F2500
G2 X27.149 Y8.704 Z-5.000 I-2.203 J3.199 F2500
G2 X26.694 Y9.334 Z-5.000 I4.073 J3.427 F2500
G1 X24.201 Y13.652 Z-5.000 F2500
G3 X23.853 Y13.745 Z-5.000 I-0.202 J-0.056 F2500
G1 X14.482 Y8.335 Z-5.000 F2500
G3 X14.389 Y7.987 Z-5.000 I0.056 J-0.202 F2500
G1 X18.799 Y0.348 Z-5.000 F2500
G3 X19.147 Y0.255 Z-5.000 I0.202 J0.056 F2500
G2 X22.260 Y2.052 Z-5.000 I78.110 J-131.739 F2500
G2 X27.854 Y-0.344 Z-5.000 I1.879 J-3.341 F2500
G3 X30.044 Y-2.160 Z-5.000 I2.154 J0.368 F2500
G3 X31.629 Y1.449 Z-5.000 I-0.059 J2.179 F2500
G2 X32.701 Y6.838 Z-5.000 I3.142 J2.176 F2500
G3 X33.154 Y7.517 Z-5.000 I-0.254 J0.660 F2500
G0 Z3.000
G0 Z3.000
G0 X33.154 Y7.517
G0 X9.856 Y24.371
G0 X9.856 Y24.371 Z1.000
G1 X9.856 Y24.371 Z-3.500 F1000
G3 X0.000 Y43.664 Z-3.500 I-9.856 J7.129 F2500
G3 X-12.164 Y31.500 Z-3.500 I-0.000 J-12.164 F2500
G3 X-0.000 Y19.336 Z-3.500 I12.164 J-0.000 F2500
G3 X9.856 Y24.371 Z-3.500 I0.000 J12.164 F2500
G0 Z3.000
G0 X12.164 Y31.500 Z3.000
G0 X12.164 Y31.500 Z1.000
G1 X12.164 Y31.500 Z-3.500 F1000
G3 X9.628 Y38.924 Z-3.500 I-12.101 J0.012 F2500
G1 X9.628 Y24.076 Z-3.500 F2500
G2 X7.092 Y21.627 Z-3.500 I-9.193 J6.983 F2500
G1 X7.092 Y41.373 Z-3.500 F2500
G3 X4.556 Y42.774 Z-3.500 I-6.712 J-9.155 F2500
G1 X4.556 Y20.226 Z-3.500 F2500
G2 X2.020 Y19.511 Z-3.500 I-4.331 J10.511 F2500
G1 X2.020 Y43.489 Z-3.500 F2500
G3 X-0.516 Y43.644 Z-3.500 I-1.936 J-10.810 F2500
G1 X-0.516 Y19.356 Z-3.500 F2500
G2 X-3.052 Y19.734 Z-3.500 I0.321 J10.842 F2500
G1 X-3.052 Y43.266 Z-3.500 F2500
G3 X-5.588 Y42.295 Z-3.500 I2.632 J-10.669 F2500
G1 X-5.588 Y20.705 Z-3.500 F2500
G2 X-8.124 Y22.455 Z-3.500 I5.121 J10.134 F2500
G1 X-8.124 Y40.545 Z-3.500 F2500
G3 X-10.660 Y37.343 Z-3.500 I7.785 J-8.771 F2500
G3 X-10.660 Y25.657 Z-3.500 I10.603 J-5.843 F2500
G1 X-10.660 Y37.343 Z-3.500 F2500
G1 X-10.660 Y37.343 Z-5.000 F1000
G1 X-10.660 Y25.657 Z-5.000 F2500
G2 X-10.660 Y37.343 Z-5.000 I10.603 J5.843 F2500
G2 X-8.124 Y40.545 Z-5.000 I10.321 J-5.569 F2500
G1 X-8.124 Y22.455 Z-5.000 F2500
G3 X-5.588 Y20.705 Z-5.000 I7.657 J8.384 F2500
G1 X-5.588 Y42.295 Z-5.000 F2500
G2 X-3.052 Y43.266 Z-5.000 I5.168 J-9.698 F2500
G1 X-3.052 Y19.734 Z-5.000 F2500
G3 X-0.516 Y19.356 Z-5.000 I2.857 J10.464 F2500
G1 X-0.516 Y43.644 Z-5.000 F2500
G2 X2.020 Y43.489 Z-5.000 I0.600 J-10.966 F2500
G1 X2.020 Y19.511 Z-5.000 F2500
G3 X4.556 Y20.226 Z-5.000 I-1.795 J11.226 F2500
G1 X4.556 Y42.774 Z-5.000 F2500
G2 X7.092 Y41.373 Z-5.000 I-4.176 J-10.556 F2500
G1 X7.092 Y21.627 Z-5.000 F2500
G3 X9.628 Y24.076 Z-5.000 I-6.657 J9.431 F2500
G1 X9.628 Y38.924 Z-5.000 F2500
G2 X12.164 Y31.500 Z-5.000 I-9.565 J-7.413 F2500
G1 X12.164 Y31.500 Z-5.000 F1000
G3 X0.000 Y43.664 Z-5.000 I-12.164 J-0.000 F2500
G3 X-12.164 Y31.500 Z-5.000 I-0.000 J-12.164 F2500
G3 X-0.000 Y19.336 Z-5.000 I12.164 J-0.000 F2500
G3 X12.164 Y31.500 Z-5.000 I0.000 J12.164 F2500
G0 Z3.000
G0 Z3.000
G0 X12.164 Y31.500
G0 X31.983 Y47.093
G0 X31.983 Y47.093 Z1.000
G1 X31.983 Y47.093 Z-3.500 F1000
G3 X32.480 Y46.842 Z-3.500 I0.517 J0.407 F2500
G3 X32.928 Y48.000 Z-3.500 I0.020 J0.658 F2500
G2 X32.128 Y48.617 Z-3.500 I2.746 J4.386 F2500
G2 X31.843 Y47.528 Z-3.500 I-391.645 J101.871 F2500
G3 X31.983 Y47.093 Z-3.500 I0.657 J-0.028 F2500
G1 X31.983 Y47.093 Z-3.500 F1000
G3 X33.146 Y47.374 Z-3.500 I0.517 J0.407 F2500
G3 X32.694 Y48.167 Z-3.500 I-0.787 J0.077 F2500
G2 X32.128 Y48.617 Z-3.500 I1.473 J2.433 F2500
G2 X31.843 Y47.528 Z-3.500 I-391.645 J101.871 F2500
G3 X31.983 Y47.093 Z-3.500 I0.657 J-0.028 F2500
G0 Z3.000
G0 X31.005 Y51.986 Z3.000
G0 X31.005 Y51.986 Z1.000
G1 X31.005 Y51.986 Z-3.500 F1000
G2 X31.889 Y53.951 Z-3.500 I4.233 J-0.722 F2500
G3 X28.151 Y56.117 Z-3.500 I-1.889 J1.049 F2500
G3 X29.566 Y52.864 Z-3.500 I1.887 J-1.113 F2500
G2 X31.005 Y51.986 Z-3.500 I-1.172 J-3.537 F2500
G0 Z3.000
G0 X30.622 Y52.318 Z3.000
G0 X30.622 Y52.318 Z1.000
G1 X30.622 Y52.318 Z-3.500 F1000
G2 X31.005 Y51.986 Z-3.500 I-1.741 J-2.391 F2500
G2 X31.889 Y53.951 Z-3.500 I4.233 J-0.722 F2500
G3 X30.622 Y57.064 Z-3.500 I-1.881 J1.049 F2500
G1 X30.622 Y52.318 Z-3.500 F2500
G3 X29.118 Y53.028 Z-3.500 I-2.893 J-4.184 F2500
G2 X28.086 Y54.007 Z-3.500 I0.854 J1.934 F2500
G2 X28.086 Y55.990 Z-3.500 I1.874 J0.992 F2500
G1 X28.086 Y54.007 Z-3.500 F2500
G1 X28.086 Y54.007 Z-5.000 F1000
G1 X28.086 Y55.990 Z-5.000 F2500
G3 X28.086 Y54.007 Z-5.000 I1.874 J-0.992 F2500
G3 X29.118 Y53.028 Z-5.000 I1.886 J0.955 F2500
G2 X30.622 Y52.318 Z-5.000 I-1.390 J-4.893 F2500
G1 X30.622 Y57.064 Z-5.000 F2500
G2 X31.889 Y53.951 Z-5.000 I-0.614 J-2.064 F2500
G3 X31.005 Y51.986 Z-5.000 I3.349 J-2.688 F2500
G3 X30.622 Y52.318 Z-5.000 I-2.124 J-2.059 F2500
G0 Z3.000
G0 X30.620 Y52.315 Z3.000
G0 X30.620 Y52.315 Z1.000
G1 X30.620 Y52.315 Z-5.000 F1000
G2 X31.005 Y51.986 Z-5.000 I-2.225 J-2.988 F2500
G2 X31.889 Y53.951 Z-5.000 I4.233 J-0.722 F2500
G3 X28.151 Y56.117 Z-5.000 I-1.889 J1.049 F2500
G3 X29.566 Y52.864 Z-5.000 I1.887 J-1.113 F2500
G2 X30.620 Y52.315 Z-5.000 I-1.172 J-3.537 F2500
G0 Z3.000
G0 X32.128 Y48.617 Z3.000
G0 X32.128 Y48.617 Z1.000
G1 X32.128 Y48.617 Z-5.000 F1000
G2 X31.843 Y47.528 Z-5.000 I-391.645 J101.871 F2500
G3 X33.146 Y47.374 Z-5.000 I0.657 J-0.028 F2500
G3 X32.694 Y48.167 Z-5.000 I-0.787 J0.077 F2500
G2 X32.128 Y48.617 Z-5.000 I1.473 J2.433 F2500
G1 X32.128 Y48.617 Z-5.000 F1000
G2 X31.843 Y47.528 Z-5.000 I-391.645 J101.871 F2500
G3 X32.480 Y46.842 Z-5.000 I0.657 J-0.028 F2500
G3 X32.928 Y48.000 Z-5.000 I0.020 J0.658 F2500
G2 X32.128 Y48.617 Z-5.000 I2.746 J4.386 F2500
G0 Z3.000
G0 Z3.000
G0 X32.128 Y48.617
G0 X39.335
G0 X39.335 Z1.000
G1 X39.335 Y48.617 Z-3.500 F1000
G1 X39.335 Y-54.257 Z-3.500 F2500
G2 X37.040 Y-59.798 Z-3.500 I-7.862 J0.011 F2500
G2 X30.779 Y-66.058 Z-3.500 I-449.559 J443.317 F2500
G2 X25.257 Y-68.335 Z-3.500 I-5.533 J5.585 F2500
G1 X-25.257 Y-68.335 Z-3.500 F2500
G2 X-30.798 Y-66.040 Z-3.500 I0.011 J7.862 F2500
G2 X-37.058 Y-59.779 Z-3.500 I443.317 J449.559 F2500
G2 X-39.335 Y-54.257 Z-3.500 I5.585 J5.533 F2500
G1 X-39.335 Y54.257 Z-3.500 F2500
G2 X-37.040 Y59.798 Z-3.500 I7.862 J-0.011 F2500
G2 X-30.779 Y66.058 Z-3.500 I449.559 J-443.317 F2500
G2 X-25.257 Y68.335 Z-3.500 I5.533 J-5.585 F2500
G1 X25.257 Y68.335 Z-3.500 F2500
G2 X30.798 Y66.040 Z-3.500 I-0.011 J-7.862 F2500
G2 X37.058 Y59.779 Z-3.500 I-443.141 J-449.384 F2500
G2 X39.335 Y54.257 Z-3.500 I-5.585 J-5.533 F2500
G1 X39.335 Y48.617 Z-3.500 F2500
G0 Z3.000
G0 X48.165 Z3.000
G0 X48.165 Z1.000
G1 X48.165 Y48.617 Z-3.500 F1000
G1 X48.165 Y78.165 Z-3.500 F2500
G1 X-48.165 Y78.165 Z-3.500 F2500
G1 X-48.165 Y-78.165 Z-3.500 F2500
G1 X48.165 Y-78.165 Z-3.500 F2500
G1 X48.165 Y48.617 Z-3.500 F2500
G0 Z3.000
G0 Y78.165 Z3.000
G0 Y78.165 Z1.000
G1 X48.165 Y78.165 Z-3.500 F1000
G1 X-48.165 Y78.165 Z-3.500 F2500
G1 X-48.165 Y75.629 Z-3.500 F2500
G1 X48.165 Y75.629 Z-3.500 F2500
G1 X48.165 Y73.093 Z-3.500 F2500
G1 X-48.165 Y73.093 Z-3.500 F2500
G1 X-48.165 Y70.557 Z-3.500 F2500
G1 X48.165 Y70.557 Z-3.500 F2500
G1 X48.165 Y68.021 Z-3.500 F2500
G1 X27.419 Y68.021 Z-3.500 F2500
G2 X30.798 Y66.040 Z-3.500 I-2.079 J-7.417 F2500
G1 X31.353 Y65.485 Z-3.500 F2500
G1 X48.165 Y65.485 Z-3.500 F2500
G1 X48.165 Y62.949 Z-3.500 F2500
G1 X33.889 Y62.949 Z-3.500 F2500
G1 X36.425 Y60.413 Z-3.500 F2500
G1 X48.165 Y60.413 Z-3.500 F2500
G1 X48.165 Y57.877 Z-3.500 F2500
G1 X38.441 Y57.877 Z-3.500 F2500
G2 X39.254 Y55.341 Z-3.500 I-6.517 J-3.487 F2500
G1 X48.165 Y55.341 Z-3.500 F2500
G1 X48.165 Y52.805 Z-3.500 F2500
G1 X39.335 Y52.805 Z-3.500 F2500
G1 X39.335 Y50.269 Z-3.500 F2500
G1 X48.165 Y50.269 Z-3.500 F2500
G1 X48.165 Y47.733 Z-3.500 F2500
G1 X39.335 Y47.733 Z-3.500 F2500
G1 X39.335 Y45.197 Z-3.500 F2500
G1 X48.165 Y45.197 Z-3.500 F2500
G1 X48.165 Y42.661 Z-3.500 F2500
G1 X39.335 Y42.661 Z-3.500 F2500
G1 X39.335 Y40.125 Z-3.500 F2500
G1 X48.165 Y40.125 Z-3.500 F2500
G1 X48.165 Y37.589 Z-3.500 F2500
G1 X39.335 Y37.589 Z-3.500 F2500
G1 X39.335 Y35.053 Z-3.500 F2500
G1 X48.165 Y35.053 Z-3.500 F2500
G1 X48.165 Y32.517 Z-3.500 F2500
G1 X39.335 Y32.517 Z-3.500 F2500
G1 X39.335 Y29.981 Z-3.500 F2500
G1 X48.165 Y29.981 Z-3.500 F2500
G1 X48.165 Y27.445 Z-3.500 F2500
G1 X39.335 Y27.445 Z-3.500 F2500
G1 X39.335 Y24.909 Z-3.500 F2500
G1 X48.165 Y24.909 Z-3.500 F2500
G1 X48.165 Y22.373 Z-3.500 F2500
G1 X39.335 Y22.373 Z-3.500 F2500
G1 X39.335 Y19.837 Z-3.500 F2500
G1 X48.165 Y19.837 Z-3.500 F2500
G1 X48.165 Y17.301 Z-3.500 F2500
G1 X39.335 Y17.301 Z-3.500 F2500
G1 X39.335 Y14.765 Z-3.500 F2500
G1 X48.165 Y14.765 Z-3.500 F2500
G1 X48.165 Y12.229 Z-3.500 F2500
G1 X39.335 Y12.229 Z-3.500 F2500
G1 X39.335 Y9.693 Z-3.500 F2500
G1 X48.165 Y9.693 Z-3.500 F2500
G1 X48.165 Y7.157 Z-3.500 F2500
G1 X39.335 Y7.157 Z-3.500 F2500
G1 X39.335 Y4.621 Z-3.500 F2500
G1 X48.165 Y4.621 Z-3.500 F2500
G1 X48.165 Y2.085 Z-3.500 F2500
G1 X39.335 Y2.085 Z-3.500 F2500
G1 X39.335 Y-0.451 Z-3.500 F2500
G1 X48.165 Y-0.451 Z-3.500 F2500
G1 X48.165 Y-2.987 Z-3.500 F2500
G1 X39.335 Y-2.987 Z-3.500 F2500
G1 X39.335 Y-5.523 Z-3.500 F2500
G1 X48.165 Y-5.523 Z-3.500 F2500
G1 X48.165 Y-8.059 Z-3.500 F2500
G1 X39.335 Y-8.059 Z-3.500 F2500
G1 X39.335 Y-10.595 Z-3.500 F2500
G1 X48.165 Y-10.595 Z-3.500 F2500
G1 X48.165 Y-13.131 Z-3.500 F2500
G1 X39.335 Y-13.131 Z-3.500 F2500
G1 X39.335 Y-15.667 Z-3.500 F2500
G1 X48.165 Y-15.667 Z-3.500 F2500
G1 X48.165 Y-18.203 Z-3.500 F2500
G1 X39.335 Y-18.203 Z-3.500 F2500
G1 X39.335 Y-20.739 Z-3.500 F2500
G1 X48.165 Y-20.739 Z-3.500 F2500
G1 X48.165 Y-23.275 Z-3.500 F2500
G1 X39.335 Y-23.275 Z-3.500 F2500
G1 X39.335 Y-25.811 Z-3.500 F2500
G1 X48.165 Y-25.811 Z-3.500 F2500
G1 X48.165 Y-28.347 Z-3.500 F2500
G1 X39.335 Y-28.347 Z-3.500 F2500
G1 X39.335 Y-30.883 Z-3.500 F2500
G1 X48.165 Y-30.883 Z-3.500 F2500
G1 X48.165 Y-33.419 Z-3.500 F2500
G1 X39.335 Y-33.419 Z-3.500 F2500
G1 X39.335 Y-35.955 Z-3.500 F2500
G1 X48.165 Y-35.955 Z-3.500 F2500
G1 X48.165 Y-38.491 Z-3.500 F2500
G1 X39.335 Y-38.491 Z-3.500 F2500
G1 X39.335 Y-41.027 Z-3.500 F2500
G1 X48.165 Y-41.027 Z-3.500 F2500
G1 X48.165 Y-43.563 Z-3.500 F2500
G1 X39.335 Y-43.563 Z-3.500 F2500
G1 X39.335 Y-46.099 Z-3.500 F2500
G1 X48.165 Y-46.099 Z-3.500 F2500
G1 X48.165 Y-48.635 Z-3.500 F2500
G1 X39.335 Y-48.635 Z-3.500 F2500
G1 X39.335 Y-51.171 Z-3.500 F2500
G1 X48.165 Y-51.171 Z-3.500 F2500
G1 X48.165 Y-53.707 Z-3.500 F2500
G1 X39.335 Y-53.707 Z-3.500 F2500
G2 X39.072 Y-56.243 Z-3.500 I-8.184 J-0.432 F2500
G1 X48.165 Y-56.243 Z-3.500 F2500
G1 X48.165 Y-58.779 Z-3.500 F2500
G1 X37.887 Y-58.779 Z-3.500 F2500
G2 X37.040 Y-59.798 Z-3.500 I-5.771 J3.937 F2500
G1 X35.523 Y-61.315 Z-3.500 F2500
G1 X48.165 Y-61.315 Z-3.500 F2500
G1 X48.165 Y-63.851 Z-3.500 F2500
G1 X32.987 Y-63.851 Z-3.500 F2500
G2 X30.742 Y-66.094 Z-3.500 I-41.169 J38.967 F2500
G2 X30.414 Y-66.387 Z-3.500 I-21.078 J23.237 F2500
G1 X48.165 Y-66.387 Z-3.500 F2500
G0 Z3.000
G0 X-48.165 Y-76.531 Z3.000
G0 X-48.165 Y-76.531 Z1.000
G1 X-48.165 Y-76.531 Z-3.500 F1000
G1 X48.165 Y-76.531 Z-3.500 F2500
G1 X48.165 Y-78.165 Z-3.500 F2500
G1 X-48.165 Y-78.165 Z-3.500 F2500
G1 X-48.165 Y-76.531 Z-3.500 F2500
G1 X-48.165 Y-73.995 Z-3.500 F2500
G1 X48.165 Y-73.995 Z-3.500 F2500
G1 X48.165 Y-71.459 Z-3.500 F2500
G1 X-48.165 Y-71.459 Z-3.500 F2500
G1 X-48.165 Y-68.923 Z-3.500 F2500
G1 X48.165 Y-68.923 Z-3.500 F2500
G1 X48.165 Y-66.387 Z-3.500 F2500
G1 X30.414 Y-66.387 Z-3.500 F2500
G2 X25.257 Y-68.335 Z-3.500 I-5.148 J5.828 F2500
G1 X-25.257 Y-68.335 Z-3.500 F2500
G2 X-30.414 Y-66.387 Z-3.500 I-0.011 J7.769 F2500
G1 X-48.165 Y-66.387 Z-3.500 F2500
G1 X-48.165 Y-63.851 Z-3.500 F2500
G1 X-32.987 Y-63.851 Z-3.500 F2500
G1 X-35.523 Y-61.315 Z-3.500 F2500
G1 X-48.165 Y-61.315 Z-3.500 F2500
G1 X-48.165 Y-58.779 Z-3.500 F2500
G1 X-37.887 Y-58.779 Z-3.500 F2500
G2 X-39.072 Y-56.243 Z-3.500 I5.940 J4.320 F2500
G1 X-48.165 Y-56.243 Z-3.500 F2500
G1 X-48.165 Y-53.707 Z-3.500 F2500
G1 X-39.335 Y-53.707 Z-3.500 F2500
G1 X-39.335 Y-51.171 Z-3.500 F2500
G1 X-48.165 Y-51.171 Z-3.500 F2500
G1 X-48.165 Y-48.635 Z-3.500 F2500
G1 X-39.335 Y-48.635 Z-3.500 F2500
G1 X-39.335 Y-46.099 Z-3.500 F2500
G1 X-48.165 Y-46.099 Z-3.500 F2500
G1 X-48.165 Y-43.563 Z-3.500 F2500
G1 X-39.335 Y-43.563 Z-3.500 F2500
G1 X-39.335 Y-41.027 Z-3.500 F2500
G1 X-48.165 Y-41.027 Z-3.500 F2500
G1 X-48.165 Y-38.491 Z-3.500 F2500
G1 X-39.335 Y-38.491 Z-3.500 F2500
G1 X-39.335 Y-35.955 Z-3.500 F2500
G1 X-48.165 Y-35.955 Z-3.500 F2500
G1 X-48.165 Y-33.419 Z-3.500 F2500
G1 X-39.335 Y-33.419 Z-3.500 F2500
G1 X-39.335 Y-30.883 Z-3.500 F2500
G1 X-48.165 Y-30.883 Z-3.500 F2500
G1 X-48.165 Y-28.347 Z-3.500 F2500
G1 X-39.335 Y-28.347 Z-3.500 F2500
G1 X-39.335 Y-25.811 Z-3.500 F2500
G1 X-48.165 Y-25.811 Z-3.500 F2500
G1 X-48.165 Y-23.275 Z-3.500 F2500
G1 X-39.335 Y-23.275 Z-3.500 F2500
G1 X-39.335 Y-20.739 Z-3.500 F2500
G1 X-48.165 Y-20.739 Z-3.500 F2500
G1 X-48.165 Y-18.203 Z-3.500 F2500
G1 X-39.335 Y-18.203 Z-3.500 F2500
G1 X-39.335 Y-15.667 Z-3.500 F2500
G1 X-48.165 Y-15.667 Z-3.500 F2500
G1 X-48.165 Y-13.131 Z-3.500 F2500
G1 X-39.335 Y-13.131 Z-3.500 F2500
G1 X-39.335 Y-10.595 Z-3.500 F2500
G1 X-48.165 Y-10.595 Z-3.500 F2500
G1 X-48.165 Y-8.059 Z-3.500 F2500
G1 X-39.335 Y-8.059 Z-3.500 F2500
G1 X-39.335 Y-5.523 Z-3.500 F2500
G1 X-48.165 Y-5.523 Z-3.500 F2500
G1 X-48.165 Y-2.987 Z-3.500 F2500
G1 X-39.335 Y-2.987 Z-3.500 F2500
G1 X-39.335 Y-0.451 Z-3.500 F2500
G1 X-48.165 Y-0.451 Z-3.500 F2500
G1 X-48.165 Y2.085 Z-3.500 F2500
G1 X-39.335 Y2.085 Z-3.500 F2500
G1 X-39.335 Y4.621 Z-3.500 F2500
G1 X-48.165 Y4.621 Z-3.500 F2500
G1 X-48.165 Y7.157 Z-3.500 F2500
G1 X-39.335 Y7.157 Z-3.500 F2500
G1 X-39.335 Y9.693 Z-3.500 F2500
G1 X-48.165 Y9.693 Z-3.500 F2500
G1 X-48.165 Y12.229 Z-3.500 F2500
G1 X-39.335 Y12.229 Z-3.500 F2500
G1 X-39.335 Y14.765 Z-3.500 F2500
G1 X-48.165 Y14.765 Z-3.500 F2500
G1 X-48.165 Y17.301 Z-3.500 F2500
G1 X-39.335 Y17.301 Z-3.500 F2500
G1 X-39.335 Y19.837 Z-3.500 F2500
G1 X-48.165 Y19.837 Z-3.500 F2500
G1 X-48.165 Y22.373 Z-3.500 F2500
G1 X-39.335 Y22.373 Z-3.500 F2500
G1 X-39.335 Y24.909 Z-3.500 F2500
G1 X-48.165 Y24.909 Z-3.500 F2500
G1 X-48.165 Y27.445 Z-3.500 F2500
G1 X-39.335 Y27.445 Z-3.500 F2500
G1 X-39.335 Y29.981 Z-3.500 F2500
G1 X-48.165 Y29.981 Z-3.500 F2500
G1 X-48.165 Y32.517 Z-3.500 F2500
G1 X-39.335 Y32.517 Z-3.500 F2500
G1 X-39.335 Y35.053 Z-3.500 F2500
G1 X-48.165 Y35.053 Z-3.500 F2500
G1 X-48.165 Y37.589 Z-3.500 F2500
G1 X-39.335 Y37.589 Z-3.500 F2500
G1 X-39.335 Y40.125 Z-3.500 F2500
G1 X-48.165 Y40.125 Z-3.500 F2500
G1 X-48.165 Y42.661 Z-3.500 F2500
G1 X-39.335 Y42.661 Z-3.500 F2500
G1 X-39.335 Y45.197 Z-3.500 F2500
G1 X-48.165 Y45.197 Z-3.500 F2500
G1 X-48.165 Y47.733 Z-3.500 F2500
G1 X-39.335 Y47.733 Z-3.500 F2500
G1 X-39.335 Y50.269 Z-3.500 F2500
G1 X-48.165 Y50.269 Z-3.500 F2500
G1 X-48.165 Y52.805 Z-3.500 F2500
G1 X-39.335 Y52.805 Z-3.500 F2500
G2 X-39.254 Y55.341 Z-3.500 I16.257 J0.747 F2500
G1 X-48.165 Y55.341 Z-3.500 F2500
G1 X-48.165 Y57.877 Z-3.500 F2500
G1 X-38.441 Y57.877 Z-3.500 F2500
G2 X-36.425 Y60.413 Z-3.500 I7.784 J-4.119 F2500
G1 X-48.165 Y60.413 Z-3.500 F2500
G1 X-48.165 Y62.949 Z-3.500 F2500
G1 X-33.889 Y62.949 Z-3.500 F2500
G1 X-31.353 Y65.485 Z-3.500 F2500
G1 X-48.165 Y65.485 Z-3.500 F2500
G1 X-48.165 Y68.021 Z-3.500 F2500
G1 X-27.419 Y68.021 Z-3.500 F2500
G1 X-27.419 Y68.021 Z-5.000 F1000
G1 X-48.165 Y68.021 Z-5.000 F2500
G1 X-48.165 Y65.485 Z-5.000 F2500
G1 X-31.353 Y65.485 Z-5.000 F2500
G1 X-33.889 Y62.949 Z-5.000 F2500
G1 X-48.165 Y62.949 Z-5.000 F2500
G1 X-48.165 Y60.413 Z-5.000 F2500
G1 X-36.425 Y60.413 Z-5.000 F2500
G3 X-38.441 Y57.877 Z-5.000 I5.768 J-6.655 F2500
G1 X-48.165 Y57.877 Z-5.000 F2500
G1 X-48.165 Y55.341 Z-5.000 F2500
G1 X-39.254 Y55.341 Z-5.000 F2500
G3 X-39.335 Y52.805 Z-5.000 I16.176 J-1.789 F2500
G1 X-48.165 Y52.805 Z-5.000 F2500
G1 X-48.165 Y50.269 Z-5.000 F2500
G1 X-39.335 Y50.269 Z-5.000 F2500
G1 X-39.335 Y47.733 Z-5.000 F2500
G1 X-48.165 Y47.733 Z-5.000 F2500
G1 X-48.165 Y45.197 Z-5.000 F2500
G1 X-39.335 Y45.197 Z-5.000 F2500
G1 X-39.335 Y42.661 Z-5.000 F2500
G1 X-48.165 Y42.661 Z-5.000 F2500
G1 X-48.165 Y40.125 Z-5.000 F2500
G1 X-39.335 Y40.125 Z-5.000 F2500
G1 X-39.335 Y37.589 Z-5.000 F2500
G1 X-48.165 Y37.589 Z-5.000 F2500
G1 X-48.165 Y35.053 Z-5.000 F2500
G1 X-39.335 Y35.053 Z-5.000 F2500
G1 X-39.335 Y32.517 Z-5.000 F2500
G1 X-48.165 Y32.517 Z-5.000 F2500
G1 X-48.165 Y29.981 Z-5.000 F2500
G1 X-39.335 Y29.981 Z-5.000 F2500
G1 X-39.335 Y27.445 Z-5.000 F2500
G1 X-48.165 Y27.445 Z-5.000 F2500
G1 X-48.165 Y24.909 Z-5.000 F2500
G1 X-39.335 Y24.909 Z-5.000 F2500
G1 X-39.335 Y22.373 Z-5.000 F2500
G1 X-48.165 Y22.373 Z-5.000 F2500
G1 X-48.165 Y19.837 Z-5.000 F2500
G1 X-39.335 Y19.837 Z-5.000 F2500
G1 X-39.335 Y17.301 Z-5.000 F2500
G1 X-48.165 Y17.301 Z-5.000 F2500
G1 X-48.165 Y14.765 Z-5.000 F2500
G1 X-39.335 Y14.765 Z-5.000 F2500
G1 X-39.335 Y12.229 Z-5.000 F2500
G1 X-48.165 Y12.229 Z-5.000 F2500
G1 X-48.165 Y9.693 Z-5.000 F2500
G1 X-39.335 Y9.693 Z-5.000 F2500
G1 X-39.335 Y7.157 Z-5.000 F2500
G1 X-48.165 Y7.157 Z-5.000 F2500
G1 X-48.165 Y4.621 Z-5.000 F2500
G1 X-39.335 Y4.621 Z-5.000 F2500
G1 X-39.335 Y2.085 Z-5.000 F2500
G1 X-48.165 Y2.085 Z-5.000 F2500
G1 X-48.165 Y-0.451 Z-5.000 F2500
G1 X-39.335 Y-0.451 Z-5.000 F2500
G1 X-39.335 Y-2.987 Z-5.000 F2500
G1 X-48.165 Y-2.987 Z-5.000 F2500
G1 X-48.165 Y-5.523 Z-5.000 F2500
G1 X-39.335 Y-5.523 Z-5.000 F2500
G1 X-39.335 Y-8.059 Z-5.000 F2500
G1 X-48.165 Y-8.059 Z-5.000 F2500
G1 X-48.165 Y-10.595 Z-5.000 F2500
G1 X-39.335 Y-10.595 Z-5.000 F2500
G1 X-39.335 Y-13.131 Z-5.000 F2500
G1 X-48.165 Y-13.131 Z-5.000 F2500
G1 X-48.165 Y-15.667 Z-5.000 F2500
G1 X-39.335 Y-15.667 Z-5.000 F2500
G1 X-39.335 Y-18.203 Z-5.000 F2500
G1 X-48.165 Y-18.203 Z-5.000 F2500
G1 X-48.165 Y-20.739 Z-5.000 F2500
G1 X-39.335 Y-20.739 Z-5.000 F2500
G1 X-39.335 Y-23.275 Z-5.000 F2500
G1 X-48.165 Y-23.275 Z-5.000 F2500
G1 X-48.165 Y-25.811 Z-5.000 F2500
G1 X-39.335 Y-25.811 Z-5.000 F2500
G1 X-39.335 Y-28.347 Z-5.000 F2500
G1 X-48.165 Y-28.347 Z-5.000 F2500
G1 X-48.165 Y-30.883 Z-5.000 F2500
G1 X-39.335 Y-30.883 Z-5.000 F2500
G1 X-39.335 Y-33.419 Z-5.000 F2500
G1 X-48.165 Y-33.419 Z-5.000 F2500
G1 X-48.165 Y-35.955 Z-5.000 F2500
G1 X-39.335 Y-35.955 Z-5.000 F2500
G1 X-39.335 Y-38.491 Z-5.000 F2500
G1 X-48.165 Y-38.491 Z-5.000 F2500
G1 X-48.165 Y-41.027 Z-5.000 F2500
G1 X-39.335 Y-41.027 Z-5.000 F2500
G1 X-39.335 Y-43.563 Z-5.000 F2500
G1 X-48.165 Y-43.563 Z-5.000 F2500
G1 X-48.165 Y-46.099 Z-5.000 F2500
G1 X-39.335 Y-46.099 Z-5.000 F2500
G1 X-39.335 Y-48.635 Z-5.000 F2500
G1 X-48.165 Y-48.635 Z-5.000 F2500
G1 X-48.165 Y-51.171 Z-5.000 F2500
G1 X-39.335 Y-51.171 Z-5.000 F2500
G1 X-39.335 Y-53.707 Z-5.000 F2500
G1 X-48.165 Y-53.707 Z-5.000 F2500
G1 X-48.165 Y-56.243 Z-5.000 F2500
G1 X-39.072 Y-56.243 Z-5.000 F2500
G3 X-37.887 Y-58.779 Z-5.000 I7.125 J1.784 F2500
G1 X-48.165 Y-58.779 Z-5.000 F2500
G1 X-48.165 Y-61.315 Z-5.000 F2500
G1 X-35.523 Y-61.315 Z-5.000 F2500
G1 X-32.987 Y-63.851 Z-5.000 F2500
G1 X-48.165 Y-63.851 Z-5.000 F2500
G1 X-48.165 Y-66.387 Z-5.000 F2500
G1 X-30.414 Y-66.387 Z-5.000 F2500
G3 X-25.257 Y-68.335 Z-5.000 I5.145 J5.821 F2500
G1 X25.257 Y-68.335 Z-5.000 F2500
G3 X30.414 Y-66.387 Z-5.000 I0.009 J7.776 F2500
G1 X48.165 Y-66.387 Z-5.000 F2500
G1 X48.165 Y-68.923 Z-5.000 F2500
G1 X-48.165 Y-68.923 Z-5.000 F2500
G1 X-48.165 Y-71.459 Z-5.000 F2500
G1 X48.165 Y-71.459 Z-5.000 F2500
G1 X48.165 Y-73.995 Z-5.000 F2500
G1 X-48.165 Y-73.995 Z-5.000 F2500
G1 X-48.165 Y-76.531 Z-5.000 F2500
G1 X-48.165 Y-78.165 Z-5.000 F2500
G1 X48.165 Y-78.165 Z-5.000 F2500
G1 X48.165 Y-76.531 Z-5.000 F2500
G1 X-48.165 Y-76.531 Z-5.000 F2500
G1 X-48.165 Y-76.531 Z-5.000 F1000
G1 X-48.165 Y-78.165 Z-5.000 F2500
G1 X48.165 Y-78.165 Z-5.000 F2500
G1 X48.165 Y78.165 Z-5.000 F2500
G1 X-48.165 Y78.165 Z-5.000 F2500
G1 X-48.165 Y-76.531 Z-5.000 F2500
G0 Z3.000
G0 X-34.237 Y-62.622 Z3.000
G0 X-34.237 Y-62.622 Z1.000
G1 X-34.237 Y-62.622 Z-5.000 F1000
G2 X-37.058 Y-59.779 Z-5.000 I446.756 J446.141 F2500
G2 X-39.335 Y-54.257 Z-5.000 I5.585 J5.533 F2500
G1 X-39.335 Y54.257 Z-5.000 F2500
G2 X-37.040 Y59.798 Z-5.000 I7.862 J-0.011 F2500
G2 X-30.779 Y66.058 Z-5.000 I449.559 J-443.317 F2500
G2 X-25.257 Y68.335 Z-5.000 I5.533 J-5.585 F2500
G1 X25.257 Y68.335 Z-5.000 F2500
G2 X30.798 Y66.040 Z-5.000 I-0.011 J-7.862 F2500
G2 X37.058 Y59.779 Z-5.000 I-443.141 J-449.384 F2500
G2 X39.335 Y54.257 Z-5.000 I-5.585 J-5.533 F2500
G1 X39.335 Y-54.257 Z-5.000 F2500
G2 X37.040 Y-59.798 Z-5.000 I-7.862 J0.011 F2500
G2 X30.779 Y-66.058 Z-5.000 I-449.559 J443.317 F2500
G2 X25.257 Y-68.335 Z-5.000 I-5.533 J5.585 F2500
G1 X-25.257 Y-68.335 Z-5.000 F2500
G2 X-30.798 Y-66.040 Z-5.000 I0.011 J7.862 F2500
G2 X-34.237 Y-62.622 Z-5.000 I443.317 J449.559 F2500
G0 Z3.000
G0 X48.165 Y-66.387 Z3.000
G0 X48.165 Y-66.387 Z1.000
G1 X48.165 Y-66.387 Z-5.000 F1000
G1 X30.414 Y-66.387 Z-5.000 F2500
G3 X30.742 Y-66.094 Z-5.000 I-20.750 J23.531 F2500
G3 X32.987 Y-63.851 Z-5.000 I-38.924 J41.209 F2500
G1 X48.165 Y-63.851 Z-5.000 F2500
G1 X48.165 Y-61.315 Z-5.000 F2500
G1 X35.523 Y-61.315 Z-5.000 F2500
G1 X37.040 Y-59.798 Z-5.000 F2500
G3 X37.887 Y-58.779 Z-5.000 I-4.924 J4.955 F2500
G1 X48.165 Y-58.779 Z-5.000 F2500
G1 X48.165 Y-56.243 Z-5.000 F2500
G1 X39.072 Y-56.243 Z-5.000 F2500
G3 X39.335 Y-53.707 Z-5.000 I-7.921 J2.104 F2500
G1 X48.165 Y-53.707 Z-5.000 F2500
G1 X48.165 Y-51.171 Z-5.000 F2500
G1 X39.335 Y-51.171 Z-5.000 F2500
G1 X39.335 Y-48.635 Z-5.000 F2500
G1 X48.165 Y-48.635 Z-5.000 F2500
G1 X48.165 Y-46.099 Z-5.000 F2500
G1 X39.335 Y-46.099 Z-5.000 F2500
G1 X39.335 Y-43.563 Z-5.000 F2500
G1 X48.165 Y-43.563 Z-5.000 F2500
G1 X48.165 Y-41.027 Z-5.000 F2500
G1 X39.335 Y-41.027 Z-5.000 F2500
G1 X39.335 Y-38.491 Z-5.000 F2500
G1 X48.165 Y-38.491 Z-5.000 F2500
G1 X48.165 Y-35.955 Z-5.000 F2500
G1 X39.335 Y-35.955 Z-5.000 F2500
G1 X39.335 Y-33.419 Z-5.000 F2500
G1 X48.165 Y-33.419 Z-5.000 F2500
G1 X48.165 Y-30.883 Z-5.000 F2500
G1 X39.335 Y-30.883 Z-5.000 F2500
G1 X39.335 Y-28.347 Z-5.000 F2500
G1 X48.165 Y-28.347 Z-5.000 F2500
G1 X48.165 Y-25.811 Z-5.000 F2500
G1 X39.335 Y-25.811 Z-5.000 F2500
G1 X39.335 Y-23.275 Z-5.000 F2500
G1 X48.165 Y-23.275 Z-5.000 F2500
G1 X48.165 Y-20.739 Z-5.000 F2500
G1 X39.335 Y-20.739 Z-5.000 F2500
G1 X39.335 Y-18.203 Z-5.000 F2500
G1 X48.165 Y-18.203 Z-5.000 F2500
G1 X48.165 Y-15.667 Z-5.000 F2500
G1 X39.335 Y-15.667 Z-5.000 F2500
G1 X39.335 Y-13.131 Z-5.000 F2500
G1 X48.165 Y-13.131 Z-5.000 F2500
G1 X48.165 Y-10.595 Z-5.000 F2500
G1 X39.335 Y-10.595 Z-5.000 F2500
G1 X39.335 Y-8.059 Z-5.000 F2500
G1 X48.165 Y-8.059 Z-5.000 F2500
G1 X48.165 Y-5.523 Z-5.000 F2500
G1 X39.335 Y-5.523 Z-5.000 F2500
G1 X39.335 Y-2.987 Z-5.000 F2500
G1 X48.165 Y-2.987 Z-5.000 F2500
G1 X48.165 Y-0.451 Z-5.000 F2500
G1 X39.335 Y-0.451 Z-5.000 F2500
G1 X39.335 Y2.085 Z-5.000 F2500
G1 X48.165 Y2.085 Z-5.000 F2500
G1 X48.165 Y4.621 Z-5.000 F2500
G1 X39.335 Y4.621 Z-5.000 F2500
G1 X39.335 Y7.157 Z-5.000 F2500
G1 X48.165 Y7.157 Z-5.000 F2500
G1 X48.165 Y9.693 Z-5.000 F2500
G1 X39.335 Y9.693 Z-5.000 F2500
G1 X39.335 Y12.229 Z-5.000 F2500
G1 X48.165 Y12.229 Z-5.000 F2500
G1 X48.165 Y14.765 Z-5.000 F2500
G1 X39.335 Y14.765 Z-5.000 F2500
G1 X39.335 Y17.301 Z-5.000 F2500
G1 X48.165 Y17.301 Z-5.000 F2500
G1 X48.165 Y19.837 Z-5.000 F2500
G1 X39.335 Y19.837 Z-5.000 F2500
G1 X39.335 Y22.373 Z-5.000 F2500
G1 X48.165 Y22.373 Z-5.000 F2500
G1 X48.165 Y24.909 Z-5.000 F2500
G1 X39.335 Y24.909 Z-5.000 F2500
G1 X39.335 Y27.445 Z-5.000 F2500
G1 X48.165 Y27.445 Z-5.000 F2500
G1 X48.165 Y29.981 Z-5.000 F2500
G1 X39.335 Y29.981 Z-5.000 F2500
G1 X39.335 Y32.517 Z-5.000 F2500
G1 X48.165 Y32.517 Z-5.000 F2500
G1 X48.165 Y35.053 Z-5.000 F2500
G1 X39.335 Y35.053 Z-5.000 F2500
G1 X39.335 Y37.589 Z-5.000 F2500
G1 X48.165 Y37.589 Z-5.000 F2500
G1 X48.165 Y40.125 Z-5.000 F2500
G1 X39.335 Y40.125 Z-5.000 F2500
G1 X39.335 Y42.661 Z-5.000 F2500
G1 X48.165 Y42.661 Z-5.000 F2500
G1 X48.165 Y45.197 Z-5.000 F2500
G1 X39.335 Y45.197 Z-5.000 F2500
G1 X39.335 Y47.733 Z-5.000 F2500
G1 X48.165 Y47.733 Z-5.000 F2500
G1 X48.165 Y50.269 Z-5.000 F2500
G1 X39.335 Y50.269 Z-5.000 F2500
G1 X39.335 Y52.805 Z-5.000 F2500
G1 X48.165 Y52.805 Z-5.000 F2500
G1 X48.165 Y55.341 Z-5.000 F2500
G1 X39.254 Y55.341 Z-5.000 F2500
G3 X38.441 Y57.877 Z-5.000 I-7.330 J-0.951 F2500
G1 X48.165 Y57.877 Z-5.000 F2500
G1 X48.165 Y60.413 Z-5.000 F2500
G1 X36.425 Y60.413 Z-5.000 F2500
G1 X33.889 Y62.949 Z-5.000 F2500
G1 X48.165 Y62.949 Z-5.000 F2500
G1 X48.165 Y65.485 Z-5.000 F2500
G1 X31.353 Y65.485 Z-5.000 F2500
G1 X30.798 Y66.040 Z-5.000 F2500
G3 X27.419 Y68.021 Z-5.000 I-5.458 J-5.437 F2500
G1 X48.165 Y68.021 Z-5.000 F2500
G1 X48.165 Y70.557 Z-5.000 F2500
G1 X-48.165 Y70.557 Z-5.000 F2500
G1 X-48.165 Y73.093 Z-5.000 F2500
G1 X48.165 Y73.093 Z-5.000 F2500
G1 X48.165 Y75.629 Z-5.000 F2500
G1 X-48.165 Y75.629 Z-5.000 F2500
G1 X-48.165 Y78.165 Z-5.000 F2500
G1 X48.165 Y78.165 Z-5.000 F2500
G0 Z3.000
G0 Z3.000
G0 X48.165 Y78.165
G0 X-27.929 Y55.614
G0 X-27.929 Y55.614 Z1.000
G1 X-27.929 Y55.614 Z-3.500 F1000
G3 X-30.809 Y57.003 Z-3.500 I-2.071 J-0.614 F2500
G3 X-31.629 Y53.551 Z-3.500 I0.842 J-2.023 F2500
G2 X-31.005 Y51.986 Z-3.500 I-3.060 J-2.126 F2500
G2 X-29.118 Y53.028 Z-3.500 I2.953 J-3.117 F2500
G3 X-27.929 Y55.614 Z-3.500 I-0.882 J1.972 F2500
G0 Z3.000
G0 X-27.840 Y54.954 Z3.000
G0 X-27.840 Y54.954 Z1.000
G1 X-27.840 Y54.954 Z-3.500 F1000
G3 X-30.376 Y57.122 Z-3.500 I-2.152 J0.050 F2500
G1 X-30.376 Y52.476 Z-3.500 F2500
G3 X-31.005 Y51.986 Z-3.500 I1.344 J-2.371 F2500
G3 X-31.889 Y53.951 Z-3.500 I-4.233 J-0.722 F2500
G2 X-30.376 Y57.122 Z-3.500 I1.881 J1.049 F2500
G0 Z3.000
G0 X-32.128 Y48.617 Z3.000
G0 X-32.128 Y48.617 Z1.000
G1 X-32.128 Y48.617 Z-3.500 F1000
G2 X-33.009 Y47.917 Z-3.500 I-252.272 J316.583 F2500
G3 X-32.480 Y46.842 Z-3.500 I0.509 J-0.417 F2500
G3 X-31.858 Y47.643 Z-3.500 I-0.020 J0.658 F2500
G2 X-32.128 Y48.617 Z-3.500 I4.828 J1.861 F2500
G0 Z3.000
G0 X-32.912 Y48.011 Z3.000
G0 X-32.912 Y48.011 Z1.000
G1 X-32.912 Y48.011 Z-3.500 F1000
G3 X-32.128 Y48.617 Z-3.500 I-2.699 J4.304 F2500
G3 X-31.843 Y47.528 Z-3.500 I391.645 J101.871 F2500
G2 X-32.910 Y46.986 Z-3.500 I-0.657 J-0.028 F2500
G1 X-32.912 Y48.011 Z-3.500 F2500
G3 X-32.912 Y46.987 Z-3.500 I0.410 J-0.512 F2500
G1 X-32.912 Y46.987 Z-5.000 F1000
G2 X-32.912 Y48.011 Z-5.000 I0.410 J0.512 F2500
G1 X-32.910 Y46.986 Z-5.000 F2500
G3 X-31.843 Y47.528 Z-5.000 I0.410 J0.514 F2500
G2 X-32.128 Y48.617 Z-5.000 I391.360 J102.960 F2500
G2 X-32.912 Y48.011 Z-5.000 I-3.484 J3.697 F2500
G0 Z3.000
G0 X-32.904 Y48.000 Z3.000
G0 X-32.904 Y48.000 Z1.000
G1 X-32.904 Y48.000 Z-5.000 F1000
G2 X-33.009 Y47.917 Z-5.000 I-251.496 J317.200 F2500
G3 X-32.480 Y46.842 Z-5.000 I0.509 J-0.417 F2500
G3 X-31.858 Y47.643 Z-5.000 I-0.020 J0.658 F2500
G2 X-32.128 Y48.617 Z-5.000 I4.828 J1.861 F2500
G2 X-32.904 Y48.000 Z-5.000 I-252.272 J316.583 F2500
G0 Z3.000
G0 X-31.005 Y51.986 Z3.000
G0 X-31.005 Y51.986 Z1.000
G1 X-31.005 Y51.986 Z-5.000 F1000
G2 X-29.118 Y53.028 Z-5.000 I2.953 J-3.117 F2500
G3 X-30.809 Y57.003 Z-5.000 I-0.882 J1.972 F2500
G3 X-31.629 Y53.551 Z-5.000 I0.842 J-2.023 F2500
G2 X-31.005 Y51.986 Z-5.000 I-3.060 J-2.126 F2500
G0 Z3.000
G0 X-27.840 Y54.954 Z3.000
G0 X-27.840 Y54.954 Z1.000
G1 X-27.840 Y54.954 Z-5.000 F1000
G3 X-30.376 Y57.122 Z-5.000 I-2.152 J0.050 F2500
G1 X-30.376 Y52.476 Z-5.000 F2500
G3 X-31.005 Y51.986 Z-5.000 I1.344 J-2.371 F2500
G3 X-31.889 Y53.951 Z-5.000 I-4.233 J-0.722 F2500
G2 X-30.376 Y57.122 Z-5.000 I1.881 J1.049 F2500
G0 Z3.000
G0 Z3.000
G0 X-30.376 Y57.122
G0 X-32.487 Y-46.842
G0 X-32.487 Y-46.842 Z1.000
G1 X-32.487 Y-46.842 Z-3.500 F1000
G3 X-32.596 Y-46.849 Z-3.500 I-0.013 J-0.658 F2500
G3 X-32.928 Y-48.000 Z-3.500 I0.096 J-0.651 F2500
G2 X-32.128 Y-48.617 Z-3.500 I-2.746 J-4.386 F2500
G2 X-31.843 Y-47.528 Z-3.500 I391.645 J-101.871 F2500
G3 X-32.487 Y-46.842 Z-3.500 I-0.657 J0.028 F2500
G1 X-32.487 Y-46.842 Z-3.500 F1000
G3 X-33.146 Y-47.374 Z-3.500 I-0.013 J-0.658 F2500
G3 X-32.694 Y-48.167 Z-3.500 I0.787 J-0.077 F2500
G2 X-32.128 Y-48.617 Z-3.500 I-1.473 J-2.433 F2500
G2 X-31.843 Y-47.528 Z-3.500 I391.645 J-101.871 F2500
G3 X-32.487 Y-46.842 Z-3.500 I-0.657 J0.028 F2500
G0 Z3.000
G0 X-31.005 Y-51.986 Z3.000
G0 X-31.005 Y-51.986 Z1.000
G1 X-31.005 Y-51.986 Z-3.500 F1000
G2 X-31.889 Y-53.951 Z-3.500 I-4.233 J0.722 F2500
G3 X-28.151 Y-56.117 Z-3.500 I1.889 J-1.049 F2500
G3 X-27.840 Y-54.954 Z-3.500 I-1.849 J1.117 F2500
G3 X-29.566 Y-52.864 Z-3.500 I-2.238 J-0.090 F2500
G2 X-31.005 Y-51.986 Z-3.500 I1.172 J3.537 F2500
G0 Z3.000
G0 X-27.916 Y-54.450 Z3.000
G0 X-27.916 Y-54.450 Z1.000
G1 X-27.916 Y-54.450 Z-3.500 F1000
G3 X-29.566 Y-52.864 Z-3.500 I-2.165 J-0.600 F2500
G2 X-31.005 Y-51.986 Z-3.500 I1.172 J3.537 F2500
G2 X-31.889 Y-53.951 Z-3.500 I-4.233 J0.722 F2500
G3 X-32.085 Y-54.450 Z-3.500 I1.659 J-0.942 F2500
G1 X-27.916 Y-54.450 Z-3.500 F2500
G2 X-29.164 Y-56.986 Z-3.500 I-2.066 J-0.558 F2500
G2 X-30.843 Y-56.986 Z-3.500 I-0.840 J1.936 F2500
G1 X-29.164 Y-56.986 Z-3.500 F2500
G1 X-29.164 Y-56.986 Z-5.000 F1000
G1 X-30.843 Y-56.986 Z-5.000 F2500
G3 X-29.164 Y-56.986 Z-5.000 I0.840 J1.936 F2500
G3 X-27.916 Y-54.450 Z-5.000 I-0.817 J1.978 F2500
G1 X-32.085 Y-54.450 Z-5.000 F2500
G2 X-31.889 Y-53.951 Z-5.000 I1.856 J-0.442 F2500
G3 X-31.005 Y-51.986 Z-5.000 I-3.349 J2.688 F2500
G3 X-29.566 Y-52.864 Z-5.000 I2.610 J2.659 F2500
G2 X-27.916 Y-54.450 Z-5.000 I-0.514 J-2.187 F2500
G0 Z3.000
G0 X-27.918 Y-54.451 Z3.000
G0 X-27.918 Y-54.451 Z1.000
G1 X-27.918 Y-54.451 Z-5.000 F1000
G3 X-29.566 Y-52.864 Z-5.000 I-2.159 J-0.593 F2500
G2 X-31.005 Y-51.986 Z-5.000 I1.172 J3.537 F2500
G2 X-31.889 Y-53.951 Z-5.000 I-4.233 J0.722 F2500
G3 X-28.151 Y-56.117 Z-5.000 I1.889 J-1.049 F2500
G3 X-27.840 Y-54.954 Z-5.000 I-1.849 J1.117 F2500
G3 X-27.918 Y-54.451 Z-5.000 I-2.238 J-0.090 F2500
G0 Z3.000
G0 X-32.128 Y-48.617 Z3.000
G0 X-32.128 Y-48.617 Z1.000
G1 X-32.128 Y-48.617 Z-5.000 F1000
G2 X-31.843 Y-47.528 Z-5.000 I391.645 J-101.871 F2500
G3 X-33.146 Y-47.374 Z-5.000 I-0.657 J0.028 F2500
G3 X-32.694 Y-48.167 Z-5.000 I0.787 J-0.077 F2500
G2 X-32.128 Y-48.617 Z-5.000 I-1.473 J-2.433 F2500
G1 X-32.128 Y-48.617 Z-5.000 F1000
G2 X-31.843 Y-47.528 Z-5.000 I391.645 J-101.871 F2500
G3 X-32.596 Y-46.849 Z-5.000 I-0.657 J0.028 F2500
G3 X-32.928 Y-48.000 Z-5.000 I0.096 J-0.651 F2500
G2 X-32.128 Y-48.617 Z-5.000 I-2.746 J-4.386 F2500
G0 Z3.000
G0 Z3.000
(Finish operation: Pocket_Shape)
(Begin operation: DressupTag001)
(Path: DressupTag001)
G0 Z3.000
G0 X51.121 Y81.121 Z3.000
G0 X51.121 Y81.121 Z1.000
G1 X51.121 Y81.121 Z-2.000 F1000
G3 X50.000 Y81.585 Z-2.000 I-1.121 J-1.121 F2500
G1 X-50.000 Y81.585 Z-2.000 F2500
G3 X-51.585 Y80.000 Z-2.000 I0.000 J-1.585 F2500
G1 X-51.585 Y-80.000 Z-2.000 F2500
G3 X-50.000 Y-81.585 Z-2.000 I1.585 J0.000 F2500
G1 X50.000 Y-81.585 Z-2.000 F2500
G3 X51.585 Y-80.000 Z-2.000 I-0.000 J1.585 F2500
G1 X51.585 Y80.000 Z-2.000 F2500
G3 X51.121 Y81.121 Z-2.000 I-1.585 J-0.000 F2500
G1 X51.121 Y81.121 Z-4.000 F1000
G3 X50.000 Y81.585 Z-4.000 I-1.121 J-1.121 F2500
G1 X-50.000 Y81.585 Z-4.000 F2500
G3 X-51.585 Y80.000 Z-4.000 I0.000 J-1.585 F2500
G1 X-51.585 Y-80.000 Z-4.000 F2500
G3 X-50.000 Y-81.585 Z-4.000 I1.585 J0.000 F2500
G1 X50.000 Y-81.585 Z-4.000 F2500
G3 X51.585 Y-80.000 Z-4.000 I-0.000 J1.585 F2500
G1 X51.585 Y80.000 Z-4.000 F2500
G3 X51.121 Y81.121 Z-4.000 I-1.585 J-0.000 F2500
G1 X51.121 Y81.121 Z-6.000 F1000
G3 X50.000 Y81.585 Z-6.000 I-1.121 J-1.121 F2500
G1 X-50.000 Y81.585 Z-6.000 F2500
G3 X-51.585 Y80.000 Z-6.000 I0.000 J-1.585 F2500
G1 X-51.585 Y-80.000 Z-6.000 F2500
G3 X-50.000 Y-81.585 Z-6.000 I1.585 J0.000 F2500
G1 X50.000 Y-81.585 Z-6.000 F2500
G3 X51.585 Y-80.000 Z-6.000 I-0.000 J1.585 F2500
G1 X51.585 Y80.000 Z-6.000 F2500
G3 X51.121 Y81.121 Z-6.000 I-1.585 J-0.000 F2500
G1 X51.121 Y81.121 Z-8.000 F1000
G3 X50.000 Y81.585 Z-8.000 I-1.121 J-1.121 F2500
G1 X-50.000 Y81.585 Z-8.000 F2500
G3 X-51.585 Y80.000 Z-8.000 I0.000 J-1.585 F2500
G1 X-51.585 Y-80.000 Z-8.000 F2500
G3 X-50.000 Y-81.585 Z-8.000 I1.585 J0.000 F2500
G1 X50.000 Y-81.585 Z-8.000 F2500
G3 X51.585 Y-80.000 Z-8.000 I-0.000 J1.585 F2500
G1 X51.585 Y80.000 Z-8.000 F2500
G3 X51.121 Y81.121 Z-8.000 I-1.585 J-0.000 F2500
G1 X51.121 Y81.121 Z-10.000 F1000
G3 X50.000 Y81.585 Z-10.000 I-1.121 J-1.121 F2500
G1 X-50.000 Y81.585 Z-10.000 F2500
G3 X-51.585 Y80.000 Z-10.000 I0.000 J-1.585 F2500
G1 X-51.585 Y-80.000 Z-10.000 F2500
G3 X-50.000 Y-81.585 Z-10.000 I1.585 J0.000 F2500
G1 X50.000 Y-81.585 Z-10.000 F2500
G3 X51.585 Y-80.000 Z-10.000 I-0.000 J1.585 F2500
G1 X51.585 Y80.000 Z-10.000 F2500
G3 X51.121 Y81.121 Z-10.000 I-1.585 J-0.000 F2500
G1 X51.121 Y81.121 Z-12.000 F1000
G3 X50.000 Y81.585 Z-12.000 I-1.121 J-1.121 F2500
G1 X-50.000 Y81.585 Z-12.000 F2500
G3 X-51.585 Y80.000 Z-12.000 I0.000 J-1.585 F2500
G1 X-51.585 Y-80.000 Z-12.000 F2500
G3 X-50.000 Y-81.585 Z-12.000 I1.585 J0.000 F2500
G1 X50.000 Y-81.585 Z-12.000 F2500
G3 X51.585 Y-80.000 Z-12.000 I-0.000 J1.585 F2500
G1 X51.585 Y80.000 Z-12.000 F2500
G3 X51.121 Y81.121 Z-12.000 I-1.585 J-0.000 F2500
G1 X51.121 Y81.121 Z-14.000 F1000
G3 X50.000 Y81.585 Z-14.000 I-1.121 J-1.121 F2500
G1 X-50.000 Y81.585 Z-14.000 F2500
G3 X-51.585 Y80.000 Z-14.000 I0.000 J-1.585 F2500
G1 X-51.585 Y-80.000 Z-14.000 F2500
G3 X-50.000 Y-81.585 Z-14.000 I1.585 J0.000 F2500
G1 X50.000 Y-81.585 Z-14.000 F2500
G3 X51.585 Y-80.000 Z-14.000 I-0.000 J1.585 F2500
G1 X51.585 Y80.000 Z-14.000 F2500
G3 X51.121 Y81.121 Z-14.000 I-1.585 J-0.000 F2500
G1 X51.121 Y81.121 Z-16.000 F1000
G3 X50.000 Y81.585 Z-16.000 I-1.121 J-1.121 F2500
G1 X-50.000 Y81.585 Z-16.000 F2500
G3 X-51.585 Y80.000 Z-16.000 I0.000 J-1.585 F2500
G1 X-51.585 Y-80.000 Z-16.000 F2500
G3 X-50.000 Y-81.585 Z-16.000 I1.585 J0.000 F2500
G1 X50.000 Y-81.585 Z-16.000 F2500
G3 X51.585 Y-80.000 Z-16.000 I-0.000 J1.585 F2500
G1 X51.585 Y80.000 Z-16.000 F2500
G3 X51.121 Y81.121 Z-16.000 I-1.585 J-0.000 F2500
G1 X51.121 Y81.121 Z-18.000 F1000
G3 X50.000 Y81.585 Z-18.000 I-1.121 J-1.121 F2500
G1 X-50.000 Y81.585 Z-18.000 F2500
G3 X-51.585 Y80.000 Z-18.000 I0.000 J-1.585 F2500
G1 X-51.585 Y47.555 Z-18.000 F2500
G1 X-51.585 Y46.555 Z-17.000 F1750.002
G1 X-51.585 Y33.445 Z-17.000 F2500
G1 X-51.585 Y32.445 Z-18.000 F1750.002
G1 X-51.585 Y-32.445 Z-18.000 F2500
G1 X-51.585 Y-33.445 Z-17.000 F1750.002
G1 X-51.585 Y-46.555 Z-17.000 F2500
G1 X-51.585 Y-47.555 Z-18.000 F1750.002
G1 X-51.585 Y-80.000 Z-18.000 F2500
G3 X-50.000 Y-81.585 Z-18.000 I1.585 J0.000 F2500
G1 X50.000 Y-81.585 Z-18.000 F2500
G3 X51.585 Y-80.000 Z-18.000 I-0.000 J1.585 F2500
G1 X51.585 Y-47.555 Z-18.000 F2500
G1 X51.585 Y-46.555 Z-17.000 F1750.002
G1 X51.585 Y-33.445 Z-17.000 F2500
G1 X51.585 Y-32.445 Z-18.000 F1750.002
G1 X51.585 Y32.445 Z-18.000 F2500
G1 X51.585 Y33.445 Z-17.000 F1750.002
G1 X51.585 Y46.555 Z-17.000 F2500
G1 X51.585 Y47.555 Z-18.000 F1750.002
G1 X51.585 Y80.000 Z-18.000 F2500
G3 X51.121 Y81.121 Z-18.000 I-1.585 J-0.000 F2500
G1 X51.121 Y81.121 Z-20.000 F1000
G3 X50.000 Y81.585 Z-20.000 I-1.121 J-1.121 F2500
G1 X-50.000 Y81.585 Z-20.000 F2500
G3 X-51.585 Y80.000 Z-20.000 I0.000 J-1.585 F2500
G1 X-51.585 Y49.555 Z-20.000 F2500
G1 X-51.585 Y46.555 Z-17.000 F1750.002
G1 X-51.585 Y33.445 Z-17.000 F2500
G1 X-51.585 Y30.445 Z-20.000 F1750.002
G1 X-51.585 Y-30.445 Z-20.000 F2500
G1 X-51.585 Y-33.445 Z-17.000 F1750.002
G1 X-51.585 Y-46.555 Z-17.000 F2500
G1 X-51.585 Y-49.555 Z-20.000 F1750.002
G1 X-51.585 Y-80.000 Z-20.000 F2500
G3 X-50.000 Y-81.585 Z-20.000 I1.585 J0.000 F2500
G1 X50.000 Y-81.585 Z-20.000 F2500
G3 X51.585 Y-80.000 Z-20.000 I-0.000 J1.585 F2500
G1 X51.585 Y-49.555 Z-20.000 F2500
G1 X51.585 Y-46.555 Z-17.000 F1750.002
G1 X51.585 Y-33.445 Z-17.000 F2500
G1 X51.585 Y-30.445 Z-20.000 F1750.002
G1 X51.585 Y30.445 Z-20.000 F2500
G1 X51.585 Y33.445 Z-17.000 F1750.002
G1 X51.585 Y46.555 Z-17.000 F2500
G1 X51.585 Y49.555 Z-20.000 F1750.002
G1 X51.585 Y80.000 Z-20.000 F2500
G3 X51.121 Y81.121 Z-20.000 I-1.585 J-0.000 F2500
G0 X51.121 Y81.121 Z3.000
(Finish operation: DressupTag001)
(Begin postamble)
M5
G17 G90
M2
