(Exported by FreeCAD)
(Post Processor: grbl_post)
(Output Time:2021-01-24 21:09:03.702481)
(Begin preamble)
G17 G90
G21
(Begin operation: Fixture)
(Path: Fixture)
G54
(Finish operation: Fixture)
(Begin operation: 3.175*12mm_Single_Flute001)
(Path: 3.175*12mm_Single_Flute001)
(3.175*12mm_Single_Flute001)
(Begin toolchange)
( M6 T1.0 )
M3 S18000.0
(Finish operation: 3.175*12mm_Single_Flute001)
(Begin operation: MillFace)
(Path: MillFace)
(MillFace)
G0 Z3.000
G0 X53.415 Y83.415
G0 Z1.000
G1 X53.415 Y83.415 Z-0.500 F90000.000
G1 X53.415 Y-83.415 Z-0.500 F150000.000
G1 X-53.415 Y-83.415 Z-0.500 F150000.000
G1 X-53.415 Y83.415 Z-0.500 F150000.000
G1 X53.415 Y83.415 Z-0.500 F150000.000
G1 X53.415 Y83.415 Z-0.500 F90000.000
G1 X-53.415 Y83.415 Z-0.500 F150000.000
G1 X-53.415 Y80.562 Z-0.500 F150000.000
G1 X53.415 Y80.562 Z-0.500 F150000.000
G1 X53.415 Y77.709 Z-0.500 F150000.000
G1 X-53.415 Y77.709 Z-0.500 F150000.000
G1 X-53.415 Y74.856 Z-0.500 F150000.000
G1 X53.415 Y74.856 Z-0.500 F150000.000
G1 X53.415 Y72.003 Z-0.500 F150000.000
G1 X-53.415 Y72.003 Z-0.500 F150000.000
G1 X-53.415 Y69.150 Z-0.500 F150000.000
G1 X53.415 Y69.150 Z-0.500 F150000.000
G1 X53.415 Y66.297 Z-0.500 F150000.000
G1 X-53.415 Y66.297 Z-0.500 F150000.000
G1 X-53.415 Y63.444 Z-0.500 F150000.000
G1 X53.415 Y63.444 Z-0.500 F150000.000
G1 X53.415 Y60.591 Z-0.500 F150000.000
G1 X-53.415 Y60.591 Z-0.500 F150000.000
G1 X-53.415 Y57.738 Z-0.500 F150000.000
G1 X53.415 Y57.738 Z-0.500 F150000.000
G1 X53.415 Y54.885 Z-0.500 F150000.000
G1 X-53.415 Y54.885 Z-0.500 F150000.000
G1 X-53.415 Y52.032 Z-0.500 F150000.000
G1 X53.415 Y52.032 Z-0.500 F150000.000
G1 X53.415 Y49.179 Z-0.500 F150000.000
G1 X-53.415 Y49.179 Z-0.500 F150000.000
G1 X-53.415 Y46.326 Z-0.500 F150000.000
G1 X53.415 Y46.326 Z-0.500 F150000.000
G1 X53.415 Y43.473 Z-0.500 F150000.000
G1 X-53.415 Y43.473 Z-0.500 F150000.000
G1 X-53.415 Y40.620 Z-0.500 F150000.000
G1 X53.415 Y40.620 Z-0.500 F150000.000
G1 X53.415 Y37.767 Z-0.500 F150000.000
G1 X-53.415 Y37.767 Z-0.500 F150000.000
G1 X-53.415 Y34.914 Z-0.500 F150000.000
G1 X53.415 Y34.914 Z-0.500 F150000.000
G1 X53.415 Y32.061 Z-0.500 F150000.000
G1 X-53.415 Y32.061 Z-0.500 F150000.000
G1 X-53.415 Y29.208 Z-0.500 F150000.000
G1 X53.415 Y29.208 Z-0.500 F150000.000
G1 X53.415 Y26.355 Z-0.500 F150000.000
G1 X-53.415 Y26.355 Z-0.500 F150000.000
G1 X-53.415 Y23.502 Z-0.500 F150000.000
G1 X53.415 Y23.502 Z-0.500 F150000.000
G1 X53.415 Y20.649 Z-0.500 F150000.000
G1 X-53.415 Y20.649 Z-0.500 F150000.000
G1 X-53.415 Y17.796 Z-0.500 F150000.000
G1 X53.415 Y17.796 Z-0.500 F150000.000
G1 X53.415 Y14.943 Z-0.500 F150000.000
G1 X-53.415 Y14.943 Z-0.500 F150000.000
G1 X-53.415 Y12.090 Z-0.500 F150000.000
G1 X53.415 Y12.090 Z-0.500 F150000.000
G1 X53.415 Y9.237 Z-0.500 F150000.000
G1 X-53.415 Y9.237 Z-0.500 F150000.000
G1 X-53.415 Y6.384 Z-0.500 F150000.000
G1 X53.415 Y6.384 Z-0.500 F150000.000
G1 X53.415 Y3.531 Z-0.500 F150000.000
G1 X-53.415 Y3.531 Z-0.500 F150000.000
G1 X-53.415 Y0.678 Z-0.500 F150000.000
G1 X53.415 Y0.678 Z-0.500 F150000.000
G1 X53.415 Y-2.175 Z-0.500 F150000.000
G1 X-53.415 Y-2.175 Z-0.500 F150000.000
G1 X-53.415 Y-5.028 Z-0.500 F150000.000
G1 X53.415 Y-5.028 Z-0.500 F150000.000
G1 X53.415 Y-7.881 Z-0.500 F150000.000
G1 X-53.415 Y-7.881 Z-0.500 F150000.000
G1 X-53.415 Y-10.734 Z-0.500 F150000.000
G1 X53.415 Y-10.734 Z-0.500 F150000.000
G1 X53.415 Y-13.587 Z-0.500 F150000.000
G1 X-53.415 Y-13.587 Z-0.500 F150000.000
G1 X-53.415 Y-16.440 Z-0.500 F150000.000
G1 X53.415 Y-16.440 Z-0.500 F150000.000
G1 X53.415 Y-19.293 Z-0.500 F150000.000
G1 X-53.415 Y-19.293 Z-0.500 F150000.000
G1 X-53.415 Y-22.146 Z-0.500 F150000.000
G1 X53.415 Y-22.146 Z-0.500 F150000.000
G1 X53.415 Y-24.999 Z-0.500 F150000.000
G1 X-53.415 Y-24.999 Z-0.500 F150000.000
G1 X-53.415 Y-27.852 Z-0.500 F150000.000
G1 X53.415 Y-27.852 Z-0.500 F150000.000
G1 X53.415 Y-30.705 Z-0.500 F150000.000
G1 X-53.415 Y-30.705 Z-0.500 F150000.000
G1 X-53.415 Y-33.558 Z-0.500 F150000.000
G1 X53.415 Y-33.558 Z-0.500 F150000.000
G1 X53.415 Y-36.411 Z-0.500 F150000.000
G1 X-53.415 Y-36.411 Z-0.500 F150000.000
G1 X-53.415 Y-39.264 Z-0.500 F150000.000
G1 X53.415 Y-39.264 Z-0.500 F150000.000
G1 X53.415 Y-42.117 Z-0.500 F150000.000
G1 X-53.415 Y-42.117 Z-0.500 F150000.000
G1 X-53.415 Y-44.970 Z-0.500 F150000.000
G1 X53.415 Y-44.970 Z-0.500 F150000.000
G1 X53.415 Y-47.823 Z-0.500 F150000.000
G1 X-53.415 Y-47.823 Z-0.500 F150000.000
G1 X-53.415 Y-50.676 Z-0.500 F150000.000
G1 X53.415 Y-50.676 Z-0.500 F150000.000
G1 X53.415 Y-53.529 Z-0.500 F150000.000
G1 X-53.415 Y-53.529 Z-0.500 F150000.000
G1 X-53.415 Y-56.382 Z-0.500 F150000.000
G1 X53.415 Y-56.382 Z-0.500 F150000.000
G1 X53.415 Y-59.235 Z-0.500 F150000.000
G1 X-53.415 Y-59.235 Z-0.500 F150000.000
G1 X-53.415 Y-62.088 Z-0.500 F150000.000
G1 X53.415 Y-62.088 Z-0.500 F150000.000
G1 X53.415 Y-64.941 Z-0.500 F150000.000
G1 X-53.415 Y-64.941 Z-0.500 F150000.000
G1 X-53.415 Y-67.794 Z-0.500 F150000.000
G1 X53.415 Y-67.794 Z-0.500 F150000.000
G1 X53.415 Y-70.647 Z-0.500 F150000.000
G1 X-53.415 Y-70.647 Z-0.500 F150000.000
G1 X-53.415 Y-73.500 Z-0.500 F150000.000
G1 X53.415 Y-73.500 Z-0.500 F150000.000
G1 X53.415 Y-76.353 Z-0.500 F150000.000
G1 X-53.415 Y-76.353 Z-0.500 F150000.000
G1 X-53.415 Y-79.206 Z-0.500 F150000.000
G1 X53.415 Y-79.206 Z-0.500 F150000.000
G1 X53.415 Y-82.059 Z-0.500 F150000.000
G1 X53.415 Y-83.415 Z-0.500 F150000.000
G1 X-53.415 Y-83.415 Z-0.500 F150000.000
G1 X-53.415 Y-82.059 Z-0.500 F150000.000
G1 X53.415 Y-82.059 Z-0.500 F150000.000
G0 Z3.000
G0 Z3.000
(Finish operation: MillFace)
(Begin operation: Fixture)
(Path: Fixture)
G54
G0 Z3.000
(Finish operation: Fixture)
(Begin operation: Pocket_3D)
(Path: Pocket_3D)
(Pocket_3D)
G0 Z3.000
G0 X48.415 Y78.415
G0 Z1.000
G1 X48.415 Y78.415 Z-2.000 F90000.000
G1 X-48.415 Y78.415 Z-2.000 F150000.000
G1 X-48.415 Y-78.415 Z-2.000 F150000.000
G1 X48.415 Y-78.415 Z-2.000 F150000.000
G1 X48.415 Y78.415 Z-2.000 F150000.000
G0 Z3.000
G0 X20.406 Y55.931 Z3.000
G0 X20.406 Y55.931 Z1.000
G1 X20.406 Y55.931 Z-2.000 F90000.000
G2 X18.000 Y50.915 Z-2.000 I-2.406 J-1.931 K0.000 F150000.000
G2 X18.000 Y57.085 Z-2.000 I0.000 J3.085 K0.000 F150000.000
G2 X20.406 Y55.931 Z-2.000 I0.000 J-3.085 K0.000 F150000.000
G0 Z3.000
G0 X20.846 Y52.823 Z3.000
G0 X20.846 Y52.823 Z1.000
G1 X20.846 Y52.823 Z-2.000 F90000.000
G1 X48.415 Y52.823 Z-2.000 F150000.000
G1 X48.415 Y55.676 Z-2.000 F150000.000
G1 X20.579 Y55.676 Z-2.000 F150000.000
G3 X15.421 Y55.676 Z-2.000 I-2.579 J-1.656 K0.000 F150000.000
G1 X2.579 Y55.676 Z-2.000 F150000.000
G3 X-2.579 Y55.676 Z-2.000 I-2.579 J-1.656 K0.000 F150000.000
G1 X-15.421 Y55.676 Z-2.000 F150000.000
G3 X-20.579 Y55.676 Z-2.000 I-2.579 J-1.656 K0.000 F150000.000
G1 X-48.415 Y55.676 Z-2.000 F150000.000
G1 X-48.415 Y58.529 Z-2.000 F150000.000
G1 X48.415 Y58.529 Z-2.000 F150000.000
G1 X48.415 Y61.382 Z-2.000 F150000.000
G1 X-48.415 Y61.382 Z-2.000 F150000.000
G1 X-48.415 Y64.235 Z-2.000 F150000.000
G1 X48.415 Y64.235 Z-2.000 F150000.000
G1 X48.415 Y67.088 Z-2.000 F150000.000
G1 X-48.415 Y67.088 Z-2.000 F150000.000
G1 X-48.415 Y69.941 Z-2.000 F150000.000
G1 X48.415 Y69.941 Z-2.000 F150000.000
G1 X48.415 Y72.794 Z-2.000 F150000.000
G1 X-48.415 Y72.794 Z-2.000 F150000.000
G1 X-48.415 Y75.647 Z-2.000 F150000.000
G1 X-48.415 Y78.415 Z-2.000 F150000.000
G1 X48.415 Y78.415 Z-2.000 F150000.000
G1 X48.415 Y75.647 Z-2.000 F150000.000
G1 X-48.415 Y75.647 Z-2.000 F150000.000
G0 Z3.000
G0 Y55.676 Z3.000
G0 Y55.676 Z1.000
G1 X-48.415 Y55.676 Z-2.000 F90000.000
G1 X-20.579 Y55.676 Z-2.000 F150000.000
G3 X-20.846 Y52.823 Z-2.000 I2.562 J-1.679 K0.000 F150000.000
G1 X-48.415 Y52.823 Z-2.000 F150000.000
G1 X-48.415 Y49.970 Z-2.000 F150000.000
G1 X48.415 Y49.970 Z-2.000 F150000.000
G1 X48.415 Y47.117 Z-2.000 F150000.000
G1 X-48.415 Y47.117 Z-2.000 F150000.000
G1 X-48.415 Y44.264 Z-2.000 F150000.000
G1 X48.415 Y44.264 Z-2.000 F150000.000
G1 X48.415 Y41.411 Z-2.000 F150000.000
G1 X24.110 Y41.411 Z-2.000 F150000.000
G3 X22.125 Y41.411 Z-2.000 I-0.993 J-2.746 K0.000 F150000.000
G1 X-22.125 Y41.411 Z-2.000 F150000.000
G3 X-24.110 Y41.411 Z-2.000 I-0.993 J-2.746 K0.000 F150000.000
G1 X-48.415 Y41.411 Z-2.000 F150000.000
G1 X-48.415 Y38.558 Z-2.000 F150000.000
G1 X-26.201 Y38.558 Z-2.000 F150000.000
G3 X-24.421 Y35.705 Z-2.000 I3.104 J-0.045 K0.000 F150000.000
G1 X-48.415 Y35.705 Z-2.000 F150000.000
G1 X-48.415 Y32.852 Z-2.000 F150000.000
G1 X48.415 Y32.852 Z-2.000 F150000.000
G1 X48.415 Y29.999 Z-2.000 F150000.000
G1 X-48.415 Y29.999 Z-2.000 F150000.000
G1 X-48.415 Y27.146 Z-2.000 F150000.000
G1 X-24.687 Y27.146 Z-2.000 F150000.000
G2 X-21.548 Y27.146 Z-2.000 I1.570 J-2.587 K0.000 F150000.000
G1 X21.548 Y27.146 Z-2.000 F150000.000
G2 X24.687 Y27.146 Z-2.000 I1.570 J-2.587 K0.000 F150000.000
G1 X48.415 Y27.146 Z-2.000 F150000.000
G1 X48.415 Y24.293 Z-2.000 F150000.000
G1 X26.189 Y24.293 Z-2.000 F150000.000
G2 X23.428 Y21.440 Z-2.000 I-3.061 J0.200 K0.000 F150000.000
G1 X48.415 Y21.440 Z-2.000 F150000.000
G1 X48.415 Y18.587 Z-2.000 F150000.000
G1 X-48.415 Y18.587 Z-2.000 F150000.000
G1 X-48.415 Y15.734 Z-2.000 F150000.000
G1 X48.415 Y15.734 Z-2.000 F150000.000
G1 X48.415 Y12.881 Z-2.000 F150000.000
G1 X-48.415 Y12.881 Z-2.000 F150000.000
G1 X-48.415 Y10.028 Z-2.000 F150000.000
G1 X48.415 Y10.028 Z-2.000 F150000.000
G1 X48.415 Y7.175 Z-2.000 F150000.000
G1 X-48.415 Y7.175 Z-2.000 F150000.000
G1 X-48.415 Y4.322 Z-2.000 F150000.000
G1 X48.415 Y4.322 Z-2.000 F150000.000
G1 X48.415 Y1.469 Z-2.000 F150000.000
G1 X-48.415 Y1.469 Z-2.000 F150000.000
G1 X-48.415 Y-1.384 Z-2.000 F150000.000
G1 X48.415 Y-1.384 Z-2.000 F150000.000
G1 X48.415 Y-4.237 Z-2.000 F150000.000
G1 X-48.415 Y-4.237 Z-2.000 F150000.000
G1 X-48.415 Y-7.090 Z-2.000 F150000.000
G1 X-24.243 Y-7.090 Z-2.000 F150000.000
G2 X-18.757 Y-7.090 Z-2.000 I2.743 J-1.408 K0.000 F150000.000
G1 X-2.743 Y-7.090 Z-2.000 F150000.000
G2 X2.743 Y-7.090 Z-2.000 I2.743 J-1.408 K0.000 F150000.000
G1 X18.757 Y-7.090 Z-2.000 F150000.000
G2 X24.243 Y-7.090 Z-2.000 I2.743 J-1.408 K0.000 F150000.000
G1 X48.415 Y-7.090 Z-2.000 F150000.000
G1 X48.415 Y-9.943 Z-2.000 F150000.000
G1 X24.224 Y-9.943 Z-2.000 F150000.000
G0 Z3.000
G0 X24.226 Y-9.944 Z3.000
G0 X24.226 Y-9.944 Z1.000
G1 X24.226 Y-9.944 Z-2.000 F90000.000
G2 X21.500 Y-11.585 Z-2.000 I-2.726 J1.444 K0.000 F150000.000
G2 X21.500 Y-5.415 Z-2.000 I-0.000 J3.085 K0.000 F150000.000
G2 X24.226 Y-9.944 Z-2.000 I0.000 J-3.085 K0.000 F150000.000
G0 Z3.000
G0 X26.379 Y-20.426 Z3.000
G0 X26.379 Y-20.426 Z1.000
G1 X26.379 Y-20.426 Z-2.000 F90000.000
G2 X27.000 Y-20.362 Z-2.000 I0.621 J-3.022 K0.000 F150000.000
G2 X30.085 Y-23.447 Z-2.000 I-0.000 J-3.085 K0.000 F150000.000
G2 X27.000 Y-26.532 Z-2.000 I-3.085 J0.000 K0.000 F150000.000
G2 X26.379 Y-20.426 Z-2.000 I0.000 J3.085 K0.000 F150000.000
G0 Z3.000
G0 X24.743 Y-21.355 Z3.000
G0 X24.743 Y-21.355 Z1.000
G1 X24.743 Y-21.355 Z-2.000 F90000.000
G1 X-24.743 Y-21.355 Z-2.000 F150000.000
G2 X-24.011 Y-24.208 Z-2.000 I-2.232 J-2.092 K0.000 F150000.000
G1 X24.011 Y-24.208 Z-2.000 F150000.000
G0 Z3.000
G0 X20.480 Y-36.720 Z3.000
G0 X20.480 Y-36.720 Z1.000
G1 X20.480 Y-36.720 Z-2.000 F90000.000
G2 X19.642 Y-42.774 Z-2.000 I-0.838 J-2.969 K0.000 F150000.000
G2 X16.557 Y-39.689 Z-2.000 I-0.000 J3.085 K0.000 F150000.000
G2 X19.642 Y-36.604 Z-2.000 I3.085 J0.000 K0.000 F150000.000
G2 X20.480 Y-36.720 Z-2.000 I-0.000 J-3.085 K0.000 F150000.000
G0 Z3.000
G0 X16.810 Y-38.473 Z3.000
G0 X16.810 Y-38.473 Z1.000
G1 X16.810 Y-38.473 Z-2.000 F90000.000
G1 X2.480 Y-38.473 Z-2.000 F150000.000
G2 X-2.480 Y-38.473 Z-2.000 I-2.480 J1.825 K0.000 F150000.000
G1 X-16.845 Y-38.473 Z-2.000 F150000.000
G2 X-16.986 Y-41.326 Z-2.000 I-2.770 J-1.293 K0.000 F150000.000
G1 X17.039 Y-41.326 Z-2.000 F150000.000
G0 Z3.000
G0 X12.553 Y-44.862 Z3.000
G0 X12.553 Y-44.862 Z1.000
G1 X12.553 Y-44.862 Z-2.000 F90000.000
G2 X10.130 Y-49.857 Z-2.000 I-2.423 J-1.910 K0.000 F150000.000
G2 X7.045 Y-46.772 Z-2.000 I-0.000 J3.085 K0.000 F150000.000
G2 X10.130 Y-43.687 Z-2.000 I3.085 J0.000 K0.000 F150000.000
G2 X12.553 Y-44.862 Z-2.000 I0.000 J-3.085 K0.000 F150000.000
G0 Z3.000
G0 X8.476 Y-44.179 Z3.000
G0 X8.476 Y-44.179 Z1.000
G1 X8.476 Y-44.179 Z-2.000 F90000.000
G1 X1.654 Y-44.179 Z-2.000 F150000.000
G2 X3.066 Y-47.032 Z-2.000 I-1.600 J-2.567 K0.000 F150000.000
G1 X7.064 Y-47.032 Z-2.000 F150000.000
G0 Z3.000
G0 X3.083 Y-46.886 Z3.000
G0 X3.083 Y-46.886 Z1.000
G1 X3.083 Y-46.886 Z-2.000 F90000.000
G2 X-0.000 Y-49.857 Z-2.000 I-3.083 J0.113 K0.000 F150000.000
G2 X-0.000 Y-43.687 Z-2.000 I0.000 J3.085 K0.000 F150000.000
G2 X3.083 Y-46.886 Z-2.000 I-0.000 J-3.085 K0.000 F150000.000
G0 Z3.000
G0 X-1.654 Y-44.179 Z3.000
G0 X-1.654 Y-44.179 Z1.000
G1 X-1.654 Y-44.179 Z-2.000 F90000.000
G1 X-8.476 Y-44.179 Z-2.000 F150000.000
G2 X-7.064 Y-47.032 Z-2.000 I-1.600 J-2.567 K0.000 F150000.000
G1 X-3.066 Y-47.032 Z-2.000 F150000.000
G0 Z3.000
G0 X-7.047 Y-46.886 Z3.000
G0 X-7.047 Y-46.886 Z1.000
G1 X-7.047 Y-46.886 Z-2.000 F90000.000
G2 X-10.130 Y-49.857 Z-2.000 I-3.083 J0.113 K0.000 F150000.000
G2 X-13.215 Y-46.772 Z-2.000 I-0.000 J3.085 K0.000 F150000.000
G2 X-10.130 Y-43.687 Z-2.000 I3.085 J0.000 K0.000 F150000.000
G2 X-7.047 Y-46.886 Z-2.000 I0.000 J-3.085 K0.000 F150000.000
G0 Z3.000
G0 X-13.196 Y-47.032 Z3.000
G0 X-13.196 Y-47.032 Z1.000
G1 X-13.196 Y-47.032 Z-2.000 F90000.000
G1 X-48.415 Y-47.032 Z-2.000 F150000.000
G1 X-48.415 Y-44.179 Z-2.000 F150000.000
G1 X-11.784 Y-44.179 Z-2.000 F150000.000
G2 X-8.476 Y-44.179 Z-2.000 I1.654 J-2.534 K0.000 F150000.000
G1 X-1.654 Y-44.179 Z-2.000 F150000.000
G2 X1.654 Y-44.179 Z-2.000 I1.654 J-2.534 K0.000 F150000.000
G1 X8.476 Y-44.179 Z-2.000 F150000.000
G2 X11.784 Y-44.179 Z-2.000 I1.654 J-2.534 K0.000 F150000.000
G1 X48.415 Y-44.179 Z-2.000 F150000.000
G1 X48.415 Y-41.326 Z-2.000 F150000.000
G1 X22.246 Y-41.326 Z-2.000 F150000.000
G3 X22.474 Y-38.473 Z-2.000 I-2.591 J1.643 K0.000 F150000.000
G1 X48.415 Y-38.473 Z-2.000 F150000.000
G0 Z3.000
G0 Y-44.179 Z3.000
G0 Y-44.179 Z1.000
G1 X48.415 Y-44.179 Z-2.000 F90000.000
G1 X11.784 Y-44.179 Z-2.000 F150000.000
G2 X13.196 Y-47.032 Z-2.000 I-1.600 J-2.567 K0.000 F150000.000
G1 X48.415 Y-47.032 Z-2.000 F150000.000
G1 X48.415 Y-49.885 Z-2.000 F150000.000
G1 X-48.415 Y-49.885 Z-2.000 F150000.000
G1 X-48.415 Y-52.738 Z-2.000 F150000.000
G1 X-22.539 Y-52.738 Z-2.000 F150000.000
G2 X-16.746 Y-52.738 Z-2.000 I2.897 J-1.020 K0.000 F150000.000
G1 X16.748 Y-52.738 Z-2.000 F150000.000
G2 X22.541 Y-52.738 Z-2.000 I2.897 J-1.020 K0.000 F150000.000
G1 X48.415 Y-52.738 Z-2.000 F150000.000
G1 X48.415 Y-55.591 Z-2.000 F150000.000
G1 X22.132 Y-55.591 Z-2.000 F150000.000
G0 Z3.000
G0 X22.135 Y-55.593 Z3.000
G0 X22.135 Y-55.593 Z1.000
G1 X22.135 Y-55.593 Z-2.000 F90000.000
G2 X19.645 Y-56.857 Z-2.000 I-2.490 J1.821 K0.000 F150000.000
G2 X19.645 Y-50.687 Z-2.000 I0.000 J3.085 K0.000 F150000.000
G2 X22.135 Y-55.593 Z-2.000 I0.000 J-3.085 K0.000 F150000.000
G0 Z3.000
G0 X3.080 Y-56.720 Z3.000
G0 X3.080 Y-56.720 Z1.000
G1 X3.080 Y-56.720 Z-2.000 F90000.000
G2 X-0.000 Y-59.987 Z-2.000 I-3.080 J-0.182 K0.000 F150000.000
G2 X-0.000 Y-53.817 Z-2.000 I0.000 J3.085 K0.000 F150000.000
G2 X3.080 Y-56.720 Z-2.000 I-0.000 J-3.085 K0.000 F150000.000
G0 Z3.000
G0 X-2.663 Y-58.444 Z3.000
G0 X-2.663 Y-58.444 Z1.000
G1 X-2.663 Y-58.444 Z-2.000 F90000.000
G1 X-48.415 Y-58.444 Z-2.000 F150000.000
G1 X-48.415 Y-55.591 Z-2.000 F150000.000
G1 X-22.130 Y-55.591 Z-2.000 F150000.000
G2 X-22.539 Y-52.738 Z-2.000 I2.478 J1.811 K0.000 F150000.000
G1 X-48.415 Y-52.738 Z-2.000 F150000.000
G0 Z3.000
G0 Y-35.620 Z3.000
G0 Y-35.620 Z1.000
G1 X-48.415 Y-35.620 Z-2.000 F90000.000
G1 X-2.901 Y-35.620 Z-2.000 F150000.000
G3 X-2.480 Y-38.473 Z-2.000 I2.893 J-1.031 K0.000 F150000.000
G1 X-16.845 Y-38.473 Z-2.000 F150000.000
G3 X-22.439 Y-38.473 Z-2.000 I-2.797 J-1.298 K0.000 F150000.000
G1 X-48.415 Y-38.473 Z-2.000 F150000.000
G1 X-48.415 Y-41.326 Z-2.000 F150000.000
G1 X-22.298 Y-41.326 Z-2.000 F150000.000
G0 Z3.000
G0 X-22.305 Y-41.330 Z3.000
G0 X-22.305 Y-41.330 Z1.000
G1 X-22.305 Y-41.330 Z-2.000 F90000.000
G2 X-19.642 Y-36.687 Z-2.000 I2.663 J1.558 K0.000 F150000.000
G2 X-19.642 Y-42.857 Z-2.000 I-0.000 J-3.085 K0.000 F150000.000
G2 X-22.305 Y-41.330 Z-2.000 I0.000 J3.085 K0.000 F150000.000
G0 Z3.000
G0 X-20.288 Y-50.755 Z3.000
G0 X-20.288 Y-50.755 Z1.000
G1 X-20.288 Y-50.755 Z-2.000 F90000.000
G2 X-19.642 Y-50.687 Z-2.000 I0.646 J-3.017 K0.000 F150000.000
G2 X-19.642 Y-56.857 Z-2.000 I-0.000 J-3.085 K0.000 F150000.000
G2 X-20.288 Y-50.755 Z-2.000 I0.000 J3.085 K0.000 F150000.000
G0 Z3.000
G0 X-16.746 Y-52.738 Z3.000
G0 X-16.746 Y-52.738 Z1.000
G1 X-16.746 Y-52.738 Z-2.000 F90000.000
G1 X16.748 Y-52.738 Z-2.000 F150000.000
G3 X17.157 Y-55.591 Z-2.000 I2.887 J-1.042 K0.000 F150000.000
G1 X2.792 Y-55.591 Z-2.000 F150000.000
G3 X-2.792 Y-55.591 Z-2.000 I-2.792 J-1.310 K0.000 F150000.000
G1 X-17.154 Y-55.591 Z-2.000 F150000.000
G0 Z3.000
G0 X-2.070 Y-38.929 Z3.000
G0 X-2.070 Y-38.929 Z1.000
G1 X-2.070 Y-38.929 Z-2.000 F90000.000
G2 X-0.000 Y-33.557 Z-2.000 I2.070 J2.287 K0.000 F150000.000
G2 X3.085 Y-36.642 Z-2.000 I0.000 J-3.085 K0.000 F150000.000
G2 X0.000 Y-39.727 Z-2.000 I-3.085 J0.000 K0.000 F150000.000
G2 X-2.070 Y-38.929 Z-2.000 I0.000 J3.085 K0.000 F150000.000
G0 Z3.000
G0 X2.480 Y-38.473 Z3.000
G0 X2.480 Y-38.473 Z1.000
G1 X2.480 Y-38.473 Z-2.000 F90000.000
G1 X16.810 Y-38.473 Z-2.000 F150000.000
G2 X22.474 Y-38.473 Z-2.000 I2.832 J-1.210 K0.000 F150000.000
G1 X48.415 Y-38.473 Z-2.000 F150000.000
G1 X48.415 Y-35.620 Z-2.000 F150000.000
G1 X2.901 Y-35.620 Z-2.000 F150000.000
G3 X-2.901 Y-35.620 Z-2.000 I-2.901 J-1.008 K0.000 F150000.000
G1 X-48.415 Y-35.620 Z-2.000 F150000.000
G1 X-48.415 Y-32.767 Z-2.000 F150000.000
G1 X48.415 Y-32.767 Z-2.000 F150000.000
G1 X48.415 Y-29.914 Z-2.000 F150000.000
G1 X-48.415 Y-29.914 Z-2.000 F150000.000
G1 X-48.415 Y-27.061 Z-2.000 F150000.000
G1 X48.415 Y-27.061 Z-2.000 F150000.000
G1 X48.415 Y-24.208 Z-2.000 F150000.000
G1 X29.989 Y-24.208 Z-2.000 F150000.000
G3 X29.257 Y-21.355 Z-2.000 I-2.963 J0.761 K0.000 F150000.000
G1 X48.415 Y-21.355 Z-2.000 F150000.000
G0 Z3.000
G0 Y-55.591 Z3.000
G0 Y-55.591 Z1.000
G1 X48.415 Y-55.591 Z-2.000 F90000.000
G1 X22.132 Y-55.591 Z-2.000 F150000.000
G2 X17.157 Y-55.591 Z-2.000 I-2.488 J1.811 K0.000 F150000.000
G1 X2.792 Y-55.591 Z-2.000 F150000.000
G2 X2.663 Y-58.444 Z-2.000 I-2.768 J-1.305 K0.000 F150000.000
G1 X48.415 Y-58.444 Z-2.000 F150000.000
G1 X48.415 Y-61.297 Z-2.000 F150000.000
G1 X-48.415 Y-61.297 Z-2.000 F150000.000
G1 X-48.415 Y-64.150 Z-2.000 F150000.000
G1 X48.415 Y-64.150 Z-2.000 F150000.000
G1 X48.415 Y-67.003 Z-2.000 F150000.000
G1 X-48.415 Y-67.003 Z-2.000 F150000.000
G1 X-48.415 Y-69.856 Z-2.000 F150000.000
G1 X48.415 Y-69.856 Z-2.000 F150000.000
G1 X48.415 Y-72.709 Z-2.000 F150000.000
G1 X-48.415 Y-72.709 Z-2.000 F150000.000
G1 X-48.415 Y-75.562 Z-2.000 F150000.000
G1 X48.415 Y-75.562 Z-2.000 F150000.000
G1 X48.415 Y-78.415 Z-2.000 F150000.000
G1 X-48.415 Y-78.415 Z-2.000 F150000.000
G0 Z3.000
G0 X-28.120 Y-26.322 Z3.000
G0 X-28.120 Y-26.322 Z1.000
G1 X-28.120 Y-26.322 Z-2.000 F90000.000
G2 X-27.000 Y-20.362 Z-2.000 I1.120 J2.875 K0.000 F150000.000
G2 X-27.000 Y-26.532 Z-2.000 I-0.000 J-3.085 K0.000 F150000.000
G2 X-28.120 Y-26.322 Z-2.000 I-0.000 J3.085 K0.000 F150000.000
G0 Z3.000
G0 X-29.989 Y-24.208 Z3.000
G0 X-29.989 Y-24.208 Z1.000
G1 X-29.989 Y-24.208 Z-2.000 F90000.000
G1 X-48.415 Y-24.208 Z-2.000 F150000.000
G1 X-48.415 Y-21.355 Z-2.000 F150000.000
G1 X-29.257 Y-21.355 Z-2.000 F150000.000
G2 X-24.743 Y-21.355 Z-2.000 I2.257 J-2.070 K0.000 F150000.000
G1 X24.743 Y-21.355 Z-2.000 F150000.000
G2 X29.257 Y-21.355 Z-2.000 I2.257 J-2.070 K0.000 F150000.000
G1 X48.415 Y-21.355 Z-2.000 F150000.000
G1 X48.415 Y-18.502 Z-2.000 F150000.000
G1 X-48.415 Y-18.502 Z-2.000 F150000.000
G1 X-48.415 Y-15.649 Z-2.000 F150000.000
G1 X48.415 Y-15.649 Z-2.000 F150000.000
G1 X48.415 Y-12.796 Z-2.000 F150000.000
G1 X-48.415 Y-12.796 Z-2.000 F150000.000
G1 X-48.415 Y-9.943 Z-2.000 F150000.000
G1 X-24.224 Y-9.943 Z-2.000 F150000.000
G2 X-24.243 Y-7.090 Z-2.000 I2.707 J1.445 K0.000 F150000.000
G1 X-48.415 Y-7.090 Z-2.000 F150000.000
G0 Z3.000
G0 X-24.581 Y-8.339 Z3.000
G0 X-24.581 Y-8.339 Z1.000
G1 X-24.581 Y-8.339 Z-2.000 F90000.000
G2 X-21.500 Y-5.415 Z-2.000 I3.081 J-0.161 K0.000 F150000.000
G2 X-18.415 Y-8.500 Z-2.000 I0.000 J-3.085 K0.000 F150000.000
G2 X-21.500 Y-11.585 Z-2.000 I-3.085 J0.000 K0.000 F150000.000
G2 X-24.581 Y-8.339 Z-2.000 I-0.000 J3.085 K0.000 F150000.000
G0 Z3.000
G0 X-18.757 Y-7.090 Z3.000
G0 X-18.757 Y-7.090 Z1.000
G1 X-18.757 Y-7.090 Z-2.000 F90000.000
G1 X-2.743 Y-7.090 Z-2.000 F150000.000
G3 X-2.724 Y-9.943 Z-2.000 I2.725 J-1.408 K0.000 F150000.000
G1 X-18.776 Y-9.943 Z-2.000 F150000.000
G0 Z3.000
G0 X-3.076 Y-8.736 Z3.000
G0 X-3.076 Y-8.736 Z1.000
G1 X-3.076 Y-8.736 Z-2.000 F90000.000
G2 X-0.000 Y-5.415 Z-2.000 I3.076 J0.236 K0.000 F150000.000
G2 X-0.000 Y-11.585 Z-2.000 I-0.000 J-3.085 K0.000 F150000.000
G2 X-3.076 Y-8.736 Z-2.000 I0.000 J3.085 K0.000 F150000.000
G0 Z3.000
G0 X2.724 Y-9.943 Z3.000
G0 X2.724 Y-9.943 Z1.000
G1 X2.724 Y-9.943 Z-2.000 F90000.000
G1 X18.776 Y-9.943 Z-2.000 F150000.000
G2 X18.757 Y-7.090 Z-2.000 I2.707 J1.445 K0.000 F150000.000
G1 X2.743 Y-7.090 Z-2.000 F150000.000
G0 Z3.000
G0 X21.445 Y21.907 Z3.000
G0 X21.445 Y21.907 Z1.000
G1 X21.445 Y21.907 Z-2.000 F90000.000
G2 X23.118 Y27.585 Z-2.000 I1.672 J2.593 K0.000 F150000.000
G2 X26.203 Y24.500 Z-2.000 I0.000 J-3.085 K0.000 F150000.000
G2 X23.118 Y21.415 Z-2.000 I-3.085 J0.000 K0.000 F150000.000
G2 X21.445 Y21.907 Z-2.000 I-0.000 J3.085 K0.000 F150000.000
G0 Z3.000
G0 X22.807 Y21.440 Z3.000
G0 X22.807 Y21.440 Z1.000
G1 X22.807 Y21.440 Z-2.000 F90000.000
G1 X-22.807 Y21.440 Z-2.000 F150000.000
G3 X-20.046 Y24.293 Z-2.000 I-0.301 J3.053 K0.000 F150000.000
G1 X20.046 Y24.293 Z-2.000 F150000.000
G2 X21.548 Y27.146 Z-2.000 I3.028 J0.228 K0.000 F150000.000
G1 X-21.548 Y27.146 Z-2.000 F150000.000
G0 Z3.000
G0 X-21.544 Y27.153 Z3.000
G0 X-21.544 Y27.153 Z1.000
G1 X-21.544 Y27.153 Z-2.000 F90000.000
G2 X-23.118 Y21.415 Z-2.000 I-1.574 J-2.653 K0.000 F150000.000
G2 X-23.118 Y27.585 Z-2.000 I0.000 J3.085 K0.000 F150000.000
G2 X-21.544 Y27.153 Z-2.000 I-0.000 J-3.085 K0.000 F150000.000
G0 Z3.000
G0 X-23.428 Y21.440 Z3.000
G0 X-23.428 Y21.440 Z1.000
G1 X-23.428 Y21.440 Z-2.000 F90000.000
G1 X-48.415 Y21.440 Z-2.000 F150000.000
G1 X-48.415 Y24.293 Z-2.000 F150000.000
G1 X-26.189 Y24.293 Z-2.000 F150000.000
G2 X-24.687 Y27.146 Z-2.000 I3.028 J0.228 K0.000 F150000.000
G1 X-48.415 Y27.146 Z-2.000 F150000.000
G0 Z3.000
G0 X-25.932 Y37.237 Z3.000
G0 X-25.932 Y37.237 Z1.000
G1 X-25.932 Y37.237 Z-2.000 F90000.000
G2 X-23.118 Y41.585 Z-2.000 I2.815 J1.263 K0.000 F150000.000
G2 X-20.033 Y38.500 Z-2.000 I0.000 J-3.085 K0.000 F150000.000
G2 X-23.118 Y35.415 Z-2.000 I-3.085 J0.000 K0.000 F150000.000
G2 X-25.932 Y37.237 Z-2.000 I-0.000 J3.085 K0.000 F150000.000
G0 Z3.000
G0 X-21.814 Y35.705 Z3.000
G0 X-21.814 Y35.705 Z1.000
G1 X-21.814 Y35.705 Z-2.000 F90000.000
G1 X21.814 Y35.705 Z-2.000 F150000.000
G2 X20.034 Y38.558 Z-2.000 I1.325 J2.808 K0.000 F150000.000
G1 X-20.034 Y38.558 Z-2.000 F150000.000
G3 X-22.125 Y41.411 Z-2.000 I-3.061 J-0.051 K0.000 F150000.000
G1 X22.125 Y41.411 Z-2.000 F150000.000
G0 Z3.000
G0 X22.122 Y41.420 Z3.000
G0 X22.122 Y41.420 Z1.000
G1 X22.122 Y41.420 Z-2.000 F90000.000
G2 X23.118 Y41.585 Z-2.000 I0.996 J-2.920 K0.000 F150000.000
G2 X23.118 Y35.415 Z-2.000 I-0.000 J-3.085 K0.000 F150000.000
G2 X22.122 Y41.420 Z-2.000 I0.000 J3.085 K0.000 F150000.000
G0 Z3.000
G0 X24.421 Y35.705 Z3.000
G0 X24.421 Y35.705 Z1.000
G1 X24.421 Y35.705 Z-2.000 F90000.000
G1 X48.415 Y35.705 Z-2.000 F150000.000
G1 X48.415 Y38.558 Z-2.000 F150000.000
G1 X26.201 Y38.558 Z-2.000 F150000.000
G3 X24.110 Y41.411 Z-2.000 I-3.061 J-0.051 K0.000 F150000.000
G1 X48.415 Y41.411 Z-2.000 F150000.000
G0 Z3.000
G0 X2.986 Y53.224 Z3.000
G0 X2.986 Y53.224 Z1.000
G1 X2.986 Y53.224 Z-2.000 F90000.000
G2 X0.000 Y50.915 Z-2.000 I-2.986 J0.776 K0.000 F150000.000
G2 X-0.000 Y57.085 Z-2.000 I0.000 J3.085 K0.000 F150000.000
G2 X2.986 Y53.224 Z-2.000 I0.000 J-3.085 K0.000 F150000.000
G0 Z3.000
G0 X2.846 Y52.823 Z3.000
G0 X2.846 Y52.823 Z1.000
G1 X2.846 Y52.823 Z-2.000 F90000.000
G1 X15.154 Y52.823 Z-2.000 F150000.000
G2 X15.421 Y55.676 Z-2.000 I2.829 J1.174 K0.000 F150000.000
G1 X2.579 Y55.676 Z-2.000 F150000.000
G0 Z3.000
G0 X-14.925 Y54.250 Z3.000
G0 X-14.925 Y54.250 Z1.000
G1 X-14.925 Y54.250 Z-2.000 F90000.000
G2 X-18.000 Y50.915 Z-2.000 I-3.075 J-0.250 K0.000 F150000.000
G2 X-21.085 Y54.000 Z-2.000 I-0.000 J3.085 K0.000 F150000.000
G2 X-18.000 Y57.085 Z-2.000 I3.085 J-0.000 K0.000 F150000.000
G2 X-14.925 Y54.250 Z-2.000 I-0.000 J-3.085 K0.000 F150000.000
G0 Z3.000
G0 X-15.154 Y52.823 Z3.000
G0 X-15.154 Y52.823 Z1.000
G1 X-15.154 Y52.823 Z-2.000 F90000.000
G1 X-2.846 Y52.823 Z-2.000 F150000.000
G2 X-2.579 Y55.676 Z-2.000 I2.829 J1.174 K0.000 F150000.000
G1 X-15.421 Y55.676 Z-2.000 F150000.000
G0 Z3.000
G0 Z3.000
(Finish operation: Pocket_3D)
(Begin operation: Fixture)
(Path: Fixture)
G54
G0 Z3.000
(Finish operation: Fixture)
(Begin operation: Pocket_Shape)
(Path: Pocket_Shape)
(Pocket_Shape)
G0 Z3.000
G0 X4.788 Y12.788
G0 Z1.000
G1 X4.788 Y12.788 Z-3.333 F90000.000
G3 X4.422 Y12.915 Z-3.333 I-0.314 J-0.314 K0.000 F150000.000
G1 X-4.422 Y12.915 Z-3.333 F150000.000
G3 X-4.915 Y12.422 Z-3.333 I-0.052 J-0.441 K0.000 F150000.000
G1 X-4.915 Y1.578 Z-3.333 F150000.000
G3 X-4.422 Y1.085 Z-3.333 I0.441 J-0.052 K0.000 F150000.000
G1 X4.422 Y1.085 Z-3.333 F150000.000
G3 X4.915 Y1.578 Z-3.333 I0.052 J0.441 K0.000 F150000.000
G1 X4.915 Y12.422 Z-3.333 F150000.000
G3 X4.788 Y12.788 Z-3.333 I-0.441 J0.052 K0.000 F150000.000
G0 Z3.000
G0 X4.422 Y12.915 Z3.000
G0 X4.422 Y12.915 Z1.000
G1 X4.422 Y12.915 Z-3.333 F90000.000
G1 X-4.422 Y12.915 Z-3.333 F150000.000
G3 X-4.915 Y12.422 Z-3.333 I-0.052 J-0.441 K0.000 F150000.000
G1 X-4.915 Y10.062 Z-3.333 F150000.000
G1 X4.915 Y10.062 Z-3.333 F150000.000
G1 X4.915 Y7.209 Z-3.333 F150000.000
G1 X-4.915 Y7.209 Z-3.333 F150000.000
G1 X-4.915 Y4.356 Z-3.333 F150000.000
G1 X4.915 Y4.356 Z-3.333 F150000.000
G1 X4.915 Y1.578 Z-3.333 F150000.000
G1 X4.908 Y1.503 Z-3.333 F150000.000
G2 X4.422 Y1.085 Z-3.333 I-0.428 J0.006 K0.000 F150000.000
G1 X-4.422 Y1.085 Z-3.333 F150000.000
G2 X-4.908 Y1.503 Z-3.333 I-0.058 J0.424 K0.000 F150000.000
G1 X4.908 Y1.503 Z-3.333 F150000.000
G1 X4.908 Y1.503 Z-4.667 F90000.000
G1 X-4.908 Y1.503 Z-4.667 F150000.000
G3 X-4.422 Y1.085 Z-4.667 I0.428 J0.006 K0.000 F150000.000
G1 X4.422 Y1.085 Z-4.667 F150000.000
G3 X4.908 Y1.503 Z-4.667 I0.058 J0.424 K0.000 F150000.000
G1 X4.915 Y1.578 Z-4.667 F150000.000
G1 X4.915 Y4.356 Z-4.667 F150000.000
G1 X-4.915 Y4.356 Z-4.667 F150000.000
G1 X-4.915 Y7.209 Z-4.667 F150000.000
G1 X4.915 Y7.209 Z-4.667 F150000.000
G1 X4.915 Y10.062 Z-4.667 F150000.000
G1 X-4.915 Y10.062 Z-4.667 F150000.000
G1 X-4.915 Y12.422 Z-4.667 F150000.000
G2 X-4.422 Y12.915 Z-4.667 I0.441 J0.052 K0.000 F150000.000
G1 X4.422 Y12.915 Z-4.667 F150000.000
G1 X4.422 Y12.915 Z-4.667 F90000.000
G1 X-4.422 Y12.915 Z-4.667 F150000.000
G3 X-4.915 Y12.422 Z-4.667 I-0.052 J-0.441 K0.000 F150000.000
G1 X-4.915 Y1.578 Z-4.667 F150000.000
G3 X-4.422 Y1.085 Z-4.667 I0.441 J-0.052 K0.000 F150000.000
G1 X4.422 Y1.085 Z-4.667 F150000.000
G3 X4.915 Y1.578 Z-4.667 I0.052 J0.441 K0.000 F150000.000
G1 X4.915 Y12.422 Z-4.667 F150000.000
G3 X4.422 Y12.915 Z-4.667 I-0.441 J0.052 K0.000 F150000.000
G1 X4.422 Y12.915 Z-6.000 F90000.000
G1 X-4.422 Y12.915 Z-6.000 F150000.000
G3 X-4.915 Y12.422 Z-6.000 I-0.052 J-0.441 K0.000 F150000.000
G1 X-4.915 Y1.578 Z-6.000 F150000.000
G3 X-4.422 Y1.085 Z-6.000 I0.441 J-0.052 K0.000 F150000.000
G1 X4.422 Y1.085 Z-6.000 F150000.000
G3 X4.915 Y1.578 Z-6.000 I0.052 J0.441 K0.000 F150000.000
G1 X4.915 Y12.422 Z-6.000 F150000.000
G3 X4.422 Y12.915 Z-6.000 I-0.441 J0.052 K0.000 F150000.000
G1 X4.422 Y12.915 Z-6.000 F90000.000
G1 X-4.422 Y12.915 Z-6.000 F150000.000
G3 X-4.915 Y12.422 Z-6.000 I-0.052 J-0.441 K0.000 F150000.000
G1 X-4.915 Y10.062 Z-6.000 F150000.000
G1 X4.915 Y10.062 Z-6.000 F150000.000
G1 X4.915 Y7.209 Z-6.000 F150000.000
G1 X-4.915 Y7.209 Z-6.000 F150000.000
G1 X-4.915 Y4.356 Z-6.000 F150000.000
G1 X4.915 Y4.356 Z-6.000 F150000.000
G1 X4.915 Y1.578 Z-6.000 F150000.000
G1 X4.908 Y1.503 Z-6.000 F150000.000
G2 X4.422 Y1.085 Z-6.000 I-0.428 J0.006 K0.000 F150000.000
G1 X-4.422 Y1.085 Z-6.000 F150000.000
G2 X-4.908 Y1.503 Z-6.000 I-0.058 J0.424 K0.000 F150000.000
G1 X4.908 Y1.503 Z-6.000 F150000.000
G0 Z3.000
G0 Z3.000
G0 X4.908 Y1.503
G0 X-14.102 Y7.994
G0 X-14.102 Y7.994 Z1.000
G1 X-14.102 Y7.994 Z-3.333 F90000.000
G3 X-14.347 Y8.545 Z-3.333 I-0.420 J0.143 K0.000 F150000.000
G1 X-23.738 Y13.968 Z-3.333 F150000.000
G3 X-24.411 Y13.787 Z-3.333 I-0.265 J-0.356 K0.000 F150000.000
G2 X-26.929 Y9.428 Z-3.333 I-193.520 J108.844 K0.000 F150000.000
G2 X-31.874 Y8.190 Z-3.333 I-3.086 J1.829 K0.000 F150000.000
G3 X-33.175 Y8.111 Z-3.333 I-0.611 J-0.688 K0.000 F150000.000
G3 X-33.092 Y6.811 Z-3.333 I0.690 J-0.609 K0.000 F150000.000
G2 X-31.311 Y4.500 Z-3.333 I-1.808 J-3.235 K0.000 F150000.000
G2 X-31.863 Y1.547 Z-3.333 I-3.441 J-0.885 K0.000 F150000.000
G3 X-30.049 Y-2.411 Z-3.333 I1.868 J-1.538 K0.000 F150000.000
G3 X-27.603 Y-0.376 Z-3.333 I0.026 J2.456 K0.000 F150000.000
G2 X-22.348 Y1.814 Z-3.333 I3.467 J-0.918 K0.000 F150000.000
G1 X-19.262 Y0.032 Z-3.333 F150000.000
G3 X-18.589 Y0.213 Z-3.333 I0.265 J0.356 K0.000 F150000.000
G1 X-14.166 Y7.872 Z-3.333 F150000.000
G3 X-14.102 Y7.994 Z-3.333 I-0.356 J0.265 K0.000 F150000.000
G0 Z3.000
G0 X-14.080 Y8.174 Z3.000
G0 X-14.080 Y8.174 Z1.000
G1 X-14.080 Y8.174 Z-3.333 F90000.000
G3 X-14.347 Y8.545 Z-3.333 I-0.455 J-0.045 K0.000 F150000.000
G1 X-16.933 Y10.039 Z-3.333 F150000.000
G1 X-16.933 Y3.080 Z-3.333 F150000.000
G1 X-18.589 Y0.213 Z-3.333 F150000.000
G2 X-19.262 Y0.032 Z-3.333 I-0.408 J0.175 K0.000 F150000.000
G1 X-19.786 Y0.335 Z-3.333 F150000.000
G1 X-19.786 Y11.686 Z-3.333 F150000.000
G1 X-22.639 Y13.333 Z-3.333 F150000.000
G1 X-22.639 Y1.955 Z-3.333 F150000.000
G3 X-25.492 Y2.027 Z-3.333 I-1.509 J-3.229 K0.000 F150000.000
G1 X-25.492 Y11.915 Z-3.333 F150000.000
G2 X-26.929 Y9.428 Z-3.333 I-110.401 J62.103 K0.000 F150000.000
G2 X-28.345 Y8.080 Z-3.333 I-3.143 J1.885 K0.000 F150000.000
G1 X-28.345 Y-1.747 Z-3.333 F150000.000
G2 X-31.198 Y-2.086 Z-3.333 I-1.651 J1.721 K0.000 F150000.000
G2 X-31.863 Y1.547 Z-3.333 I1.200 J2.097 K0.000 F150000.000
G3 X-32.840 Y6.630 Z-3.333 I-2.911 J2.076 K0.000 F150000.000
G2 X-32.140 Y8.334 Z-3.333 I0.352 J0.851 K0.000 F150000.000
G3 X-31.198 Y7.875 Z-3.333 I4.292 J7.606 K0.000 F150000.000
G1 X-31.198 Y-2.086 Z-3.333 F150000.000
G1 X-31.198 Y-2.086 Z-4.667 F90000.000
G1 X-31.198 Y7.875 Z-4.667 F150000.000
G2 X-32.140 Y8.334 Z-4.667 I3.351 J8.065 K0.000 F150000.000
G3 X-32.840 Y6.630 Z-4.667 I-0.348 J-0.853 K0.000 F150000.000
G2 X-31.863 Y1.547 Z-4.667 I-1.934 J-3.007 K0.000 F150000.000
G3 X-31.198 Y-2.086 Z-4.667 I1.864 J-1.537 K0.000 F150000.000
G3 X-28.345 Y-1.747 Z-4.667 I1.202 J2.061 K0.000 F150000.000
G1 X-28.345 Y8.080 Z-4.667 F150000.000
G3 X-26.929 Y9.428 Z-4.667 I-1.726 J3.233 K0.000 F150000.000
G3 X-25.492 Y11.915 Z-4.667 I-108.965 J64.590 K0.000 F150000.000
G1 X-25.492 Y2.027 Z-4.667 F150000.000
G2 X-22.639 Y1.955 Z-4.667 I1.344 J-3.301 K0.000 F150000.000
G1 X-22.639 Y13.333 Z-4.667 F150000.000
G1 X-19.786 Y11.686 Z-4.667 F150000.000
G1 X-19.786 Y0.335 Z-4.667 F150000.000
G1 X-19.262 Y0.032 Z-4.667 F150000.000
G3 X-18.589 Y0.213 Z-4.667 I0.265 J0.356 K0.000 F150000.000
G1 X-16.933 Y3.080 Z-4.667 F150000.000
G1 X-16.933 Y10.039 Z-4.667 F150000.000
G1 X-14.347 Y8.545 Z-4.667 F150000.000
G2 X-14.080 Y8.174 Z-4.667 I-0.189 J-0.417 K0.000 F150000.000
G0 Z3.000
G0 X-14.080 Y8.174 Z3.000
G0 X-14.080 Y8.174 Z1.000
G1 X-14.080 Y8.174 Z-4.667 F90000.000
G3 X-14.347 Y8.545 Z-4.667 I-0.442 J-0.036 K0.000 F150000.000
G1 X-23.738 Y13.968 Z-4.667 F150000.000
G3 X-24.411 Y13.787 Z-4.667 I-0.265 J-0.356 K0.000 F150000.000
G2 X-26.929 Y9.428 Z-4.667 I-193.520 J108.844 K0.000 F150000.000
G2 X-31.874 Y8.190 Z-4.667 I-3.086 J1.829 K0.000 F150000.000
G3 X-33.175 Y8.111 Z-4.667 I-0.611 J-0.688 K0.000 F150000.000
G3 X-33.092 Y6.811 Z-4.667 I0.690 J-0.609 K0.000 F150000.000
G2 X-31.311 Y4.500 Z-4.667 I-1.808 J-3.235 K0.000 F150000.000
G2 X-31.863 Y1.547 Z-4.667 I-3.441 J-0.885 K0.000 F150000.000
G3 X-30.049 Y-2.411 Z-4.667 I1.868 J-1.538 K0.000 F150000.000
G3 X-27.603 Y-0.376 Z-4.667 I0.026 J2.456 K0.000 F150000.000
G2 X-22.348 Y1.814 Z-4.667 I3.467 J-0.918 K0.000 F150000.000
G1 X-19.262 Y0.032 Z-4.667 F150000.000
G3 X-18.589 Y0.213 Z-4.667 I0.265 J0.356 K0.000 F150000.000
G1 X-14.166 Y7.872 Z-4.667 F150000.000
G3 X-14.080 Y8.174 Z-4.667 I-0.356 J0.265 K0.000 F150000.000
G1 X-14.080 Y8.174 Z-6.000 F90000.000
G3 X-14.347 Y8.545 Z-6.000 I-0.442 J-0.036 K0.000 F150000.000
G1 X-23.738 Y13.968 Z-6.000 F150000.000
G3 X-24.411 Y13.787 Z-6.000 I-0.265 J-0.356 K0.000 F150000.000
G2 X-26.929 Y9.428 Z-6.000 I-193.520 J108.844 K0.000 F150000.000
G2 X-31.874 Y8.190 Z-6.000 I-3.086 J1.829 K0.000 F150000.000
G3 X-33.175 Y8.111 Z-6.000 I-0.611 J-0.688 K0.000 F150000.000
G3 X-33.092 Y6.811 Z-6.000 I0.690 J-0.609 K0.000 F150000.000
G2 X-31.311 Y4.500 Z-6.000 I-1.808 J-3.235 K0.000 F150000.000
G2 X-31.863 Y1.547 Z-6.000 I-3.441 J-0.885 K0.000 F150000.000
G3 X-30.049 Y-2.411 Z-6.000 I1.868 J-1.538 K0.000 F150000.000
G3 X-27.603 Y-0.376 Z-6.000 I0.026 J2.456 K0.000 F150000.000
G2 X-22.348 Y1.814 Z-6.000 I3.467 J-0.918 K0.000 F150000.000
G1 X-19.262 Y0.032 Z-6.000 F150000.000
G3 X-18.589 Y0.213 Z-6.000 I0.265 J0.356 K0.000 F150000.000
G1 X-14.166 Y7.872 Z-6.000 F150000.000
G3 X-14.080 Y8.174 Z-6.000 I-0.356 J0.265 K0.000 F150000.000
G0 Z3.000
G0 X-14.080 Y8.174 Z3.000
G0 X-14.080 Y8.174 Z1.000
G1 X-14.080 Y8.174 Z-6.000 F90000.000
G3 X-14.347 Y8.545 Z-6.000 I-0.455 J-0.045 K0.000 F150000.000
G1 X-16.933 Y10.039 Z-6.000 F150000.000
G1 X-16.933 Y3.080 Z-6.000 F150000.000
G1 X-18.589 Y0.213 Z-6.000 F150000.000
G2 X-19.262 Y0.032 Z-6.000 I-0.408 J0.175 K0.000 F150000.000
G1 X-19.786 Y0.335 Z-6.000 F150000.000
G1 X-19.786 Y11.686 Z-6.000 F150000.000
G1 X-22.639 Y13.333 Z-6.000 F150000.000
G1 X-22.639 Y1.955 Z-6.000 F150000.000
G3 X-25.492 Y2.027 Z-6.000 I-1.509 J-3.229 K0.000 F150000.000
G1 X-25.492 Y11.915 Z-6.000 F150000.000
G2 X-26.929 Y9.428 Z-6.000 I-110.401 J62.103 K0.000 F150000.000
G2 X-28.345 Y8.080 Z-6.000 I-3.143 J1.885 K0.000 F150000.000
G1 X-28.345 Y-1.747 Z-6.000 F150000.000
G2 X-31.198 Y-2.086 Z-6.000 I-1.651 J1.721 K0.000 F150000.000
G2 X-31.863 Y1.547 Z-6.000 I1.200 J2.097 K0.000 F150000.000
G3 X-32.840 Y6.630 Z-6.000 I-2.911 J2.076 K0.000 F150000.000
G2 X-32.140 Y8.334 Z-6.000 I0.352 J0.851 K0.000 F150000.000
G3 X-31.198 Y7.875 Z-6.000 I4.292 J7.606 K0.000 F150000.000
G1 X-31.198 Y-2.086 Z-6.000 F150000.000
G0 Z3.000
G0 Z3.000
G0 X-31.198 Y-2.086
G0 X-17.260 Y-18.634
G0 X-17.260 Y-18.634 Z1.000
G1 X-17.260 Y-18.634 Z-3.333 F90000.000
G3 X-17.415 Y-19.025 Z-3.333 I0.286 J-0.340 K0.000 F150000.000
G1 X-17.415 Y-27.870 Z-3.333 F150000.000
G3 X-16.922 Y-28.362 Z-3.333 I0.441 J-0.052 K0.000 F150000.000
G1 X-6.078 Y-28.362 Z-3.333 F150000.000
G3 X-5.585 Y-27.870 Z-3.333 I0.052 J0.441 K0.000 F150000.000
G1 X-5.585 Y-19.025 Z-3.333 F150000.000
G3 X-6.078 Y-18.532 Z-3.333 I-0.441 J0.052 K0.000 F150000.000
G1 X-16.922 Y-18.532 Z-3.333 F150000.000
G3 X-17.260 Y-18.634 Z-3.333 I-0.052 J-0.441 K0.000 F150000.000
G0 Z3.000
G0 X-16.997 Y-28.355 Z3.000
G0 X-16.997 Y-28.355 Z1.000
G1 X-16.997 Y-28.355 Z-3.333 F90000.000
G1 X-16.997 Y-18.540 Z-3.333 F150000.000
G3 X-17.415 Y-19.025 Z-3.333 I0.006 J-0.428 K0.000 F150000.000
G1 X-17.415 Y-27.870 Z-3.333 F150000.000
G3 X-16.997 Y-28.355 Z-3.333 I0.424 J-0.058 K0.000 F150000.000
G1 X-16.922 Y-28.362 Z-3.333 F150000.000
G1 X-14.144 Y-28.362 Z-3.333 F150000.000
G1 X-14.144 Y-18.532 Z-3.333 F150000.000
G1 X-11.291 Y-18.532 Z-3.333 F150000.000
G1 X-11.291 Y-28.362 Z-3.333 F150000.000
G1 X-8.438 Y-28.362 Z-3.333 F150000.000
G1 X-8.438 Y-18.532 Z-3.333 F150000.000
G1 X-6.078 Y-18.532 Z-3.333 F150000.000
G2 X-5.585 Y-19.025 Z-3.333 I0.052 J-0.441 K0.000 F150000.000
G1 X-5.585 Y-27.870 Z-3.333 F150000.000
G1 X-5.585 Y-27.870 Z-4.667 F90000.000
G1 X-5.585 Y-19.025 Z-4.667 F150000.000
G3 X-6.078 Y-18.532 Z-4.667 I-0.441 J0.052 K0.000 F150000.000
G1 X-16.922 Y-18.532 Z-4.667 F150000.000
G3 X-17.415 Y-19.025 Z-4.667 I-0.052 J-0.441 K0.000 F150000.000
G1 X-17.415 Y-27.870 Z-4.667 F150000.000
G3 X-16.922 Y-28.362 Z-4.667 I0.441 J-0.052 K0.000 F150000.000
G1 X-6.078 Y-28.362 Z-4.667 F150000.000
G3 X-5.585 Y-27.870 Z-4.667 I0.052 J0.441 K0.000 F150000.000
G1 X-5.585 Y-27.870 Z-4.667 F90000.000
G1 X-5.585 Y-19.025 Z-4.667 F150000.000
G3 X-6.078 Y-18.532 Z-4.667 I-0.441 J0.052 K0.000 F150000.000
G1 X-8.438 Y-18.532 Z-4.667 F150000.000
G1 X-8.438 Y-28.362 Z-4.667 F150000.000
G1 X-11.291 Y-28.362 Z-4.667 F150000.000
G1 X-11.291 Y-18.532 Z-4.667 F150000.000
G1 X-14.144 Y-18.532 Z-4.667 F150000.000
G1 X-14.144 Y-28.362 Z-4.667 F150000.000
G1 X-16.922 Y-28.362 Z-4.667 F150000.000
G1 X-16.997 Y-28.355 Z-4.667 F150000.000
G2 X-17.415 Y-27.870 Z-4.667 I0.006 J0.428 K0.000 F150000.000
G1 X-17.415 Y-19.025 Z-4.667 F150000.000
G2 X-16.997 Y-18.540 Z-4.667 I0.424 J0.058 K0.000 F150000.000
G1 X-16.997 Y-28.355 Z-4.667 F150000.000
G1 X-16.997 Y-28.355 Z-6.000 F90000.000
G1 X-16.997 Y-18.540 Z-6.000 F150000.000
G3 X-17.415 Y-19.025 Z-6.000 I0.006 J-0.428 K0.000 F150000.000
G1 X-17.415 Y-27.870 Z-6.000 F150000.000
G3 X-16.997 Y-28.355 Z-6.000 I0.424 J-0.058 K0.000 F150000.000
G1 X-16.922 Y-28.362 Z-6.000 F150000.000
G1 X-14.144 Y-28.362 Z-6.000 F150000.000
G1 X-14.144 Y-18.532 Z-6.000 F150000.000
G1 X-11.291 Y-18.532 Z-6.000 F150000.000
G1 X-11.291 Y-28.362 Z-6.000 F150000.000
G1 X-8.438 Y-28.362 Z-6.000 F150000.000
G1 X-8.438 Y-18.532 Z-6.000 F150000.000
G1 X-6.078 Y-18.532 Z-6.000 F150000.000
G2 X-5.585 Y-19.025 Z-6.000 I0.052 J-0.441 K0.000 F150000.000
G1 X-5.585 Y-27.870 Z-6.000 F150000.000
G1 X-5.585 Y-27.870 Z-6.000 F90000.000
G1 X-5.585 Y-19.025 Z-6.000 F150000.000
G3 X-6.078 Y-18.532 Z-6.000 I-0.441 J0.052 K0.000 F150000.000
G1 X-16.922 Y-18.532 Z-6.000 F150000.000
G3 X-17.415 Y-19.025 Z-6.000 I-0.052 J-0.441 K0.000 F150000.000
G1 X-17.415 Y-27.870 Z-6.000 F150000.000
G3 X-16.922 Y-28.362 Z-6.000 I0.441 J-0.052 K0.000 F150000.000
G1 X-6.078 Y-28.362 Z-6.000 F150000.000
G3 X-5.585 Y-27.870 Z-6.000 I0.052 J0.441 K0.000 F150000.000
G0 Z3.000
G0 Z3.000
G0 X-5.585 Y-27.870
G0 X5.582 Y-27.920
G0 X5.582 Y-27.920 Z1.000
G1 X5.582 Y-27.920 Z-3.333 F90000.000
G3 X6.078 Y-28.362 Z-3.333 I0.444 J-0.002 K0.000 F150000.000
G1 X16.922 Y-28.362 Z-3.333 F150000.000
G3 X17.415 Y-27.870 Z-3.333 I0.052 J0.441 K0.000 F150000.000
G1 X17.415 Y-19.025 Z-3.333 F150000.000
G3 X16.922 Y-18.532 Z-3.333 I-0.441 J0.052 K0.000 F150000.000
G1 X6.078 Y-18.532 Z-3.333 F150000.000
G3 X5.585 Y-19.025 Z-3.333 I-0.052 J-0.441 K0.000 F150000.000
G1 X5.585 Y-27.870 Z-3.333 F150000.000
G3 X5.582 Y-27.920 Z-3.333 I0.441 J-0.052 K0.000 F150000.000
G0 Z3.000
G0 X6.003 Y-28.355 Z3.000
G0 X6.003 Y-28.355 Z1.000
G1 X6.003 Y-28.355 Z-3.333 F90000.000
G1 X6.003 Y-18.540 Z-3.333 F150000.000
G3 X5.585 Y-19.025 Z-3.333 I0.006 J-0.428 K0.000 F150000.000
G1 X5.585 Y-27.870 Z-3.333 F150000.000
G3 X6.003 Y-28.355 Z-3.333 I0.424 J-0.058 K0.000 F150000.000
G1 X6.078 Y-28.362 Z-3.333 F150000.000
G1 X8.856 Y-28.362 Z-3.333 F150000.000
G1 X8.856 Y-18.532 Z-3.333 F150000.000
G1 X11.709 Y-18.532 Z-3.333 F150000.000
G1 X11.709 Y-28.362 Z-3.333 F150000.000
G1 X14.562 Y-28.362 Z-3.333 F150000.000
G1 X14.562 Y-18.532 Z-3.333 F150000.000
G1 X16.922 Y-18.532 Z-3.333 F150000.000
G2 X17.415 Y-19.025 Z-3.333 I0.052 J-0.441 K0.000 F150000.000
G1 X17.415 Y-27.870 Z-3.333 F150000.000
G1 X17.415 Y-27.870 Z-4.667 F90000.000
G1 X17.415 Y-19.025 Z-4.667 F150000.000
G3 X16.922 Y-18.532 Z-4.667 I-0.441 J0.052 K0.000 F150000.000
G1 X14.562 Y-18.532 Z-4.667 F150000.000
G1 X14.562 Y-28.362 Z-4.667 F150000.000
G1 X11.709 Y-28.362 Z-4.667 F150000.000
G1 X11.709 Y-18.532 Z-4.667 F150000.000
G1 X8.856 Y-18.532 Z-4.667 F150000.000
G1 X8.856 Y-28.362 Z-4.667 F150000.000
G1 X6.078 Y-28.362 Z-4.667 F150000.000
G1 X6.003 Y-28.355 Z-4.667 F150000.000
G2 X5.585 Y-27.870 Z-4.667 I0.006 J0.428 K0.000 F150000.000
G1 X5.585 Y-19.025 Z-4.667 F150000.000
G2 X6.003 Y-18.540 Z-4.667 I0.424 J0.058 K0.000 F150000.000
G1 X6.003 Y-28.355 Z-4.667 F150000.000
G0 Z3.000
G0 X6.002 Y-28.365 Z3.000
G0 X6.002 Y-28.365 Z1.000
G1 X6.002 Y-28.365 Z-4.667 F90000.000
G3 X6.078 Y-28.362 Z-4.667 I0.023 J0.443 K0.000 F150000.000
G1 X16.922 Y-28.362 Z-4.667 F150000.000
G3 X17.415 Y-27.870 Z-4.667 I0.052 J0.441 K0.000 F150000.000
G1 X17.415 Y-19.025 Z-4.667 F150000.000
G3 X16.922 Y-18.532 Z-4.667 I-0.441 J0.052 K0.000 F150000.000
G1 X6.078 Y-18.532 Z-4.667 F150000.000
G3 X5.585 Y-19.025 Z-4.667 I-0.052 J-0.441 K0.000 F150000.000
G1 X5.585 Y-27.870 Z-4.667 F150000.000
G3 X6.002 Y-28.365 Z-4.667 I0.441 J-0.052 K0.000 F150000.000
G1 X6.002 Y-28.365 Z-6.000 F90000.000
G3 X6.078 Y-28.362 Z-6.000 I0.023 J0.443 K0.000 F150000.000
G1 X16.922 Y-28.362 Z-6.000 F150000.000
G3 X17.415 Y-27.870 Z-6.000 I0.052 J0.441 K0.000 F150000.000
G1 X17.415 Y-19.025 Z-6.000 F150000.000
G3 X16.922 Y-18.532 Z-6.000 I-0.441 J0.052 K0.000 F150000.000
G1 X6.078 Y-18.532 Z-6.000 F150000.000
G3 X5.585 Y-19.025 Z-6.000 I-0.052 J-0.441 K0.000 F150000.000
G1 X5.585 Y-27.870 Z-6.000 F150000.000
G3 X6.002 Y-28.365 Z-6.000 I0.441 J-0.052 K0.000 F150000.000
G0 Z3.000
G0 X6.003 Y-28.355 Z3.000
G0 X6.003 Y-28.355 Z1.000
G1 X6.003 Y-28.355 Z-6.000 F90000.000
G1 X6.003 Y-18.540 Z-6.000 F150000.000
G3 X5.585 Y-19.025 Z-6.000 I0.006 J-0.428 K0.000 F150000.000
G1 X5.585 Y-27.870 Z-6.000 F150000.000
G3 X6.003 Y-28.355 Z-6.000 I0.424 J-0.058 K0.000 F150000.000
G1 X6.078 Y-28.362 Z-6.000 F150000.000
G1 X8.856 Y-28.362 Z-6.000 F150000.000
G1 X8.856 Y-18.532 Z-6.000 F150000.000
G1 X11.709 Y-18.532 Z-6.000 F150000.000
G1 X11.709 Y-28.362 Z-6.000 F150000.000
G1 X14.562 Y-28.362 Z-6.000 F150000.000
G1 X14.562 Y-18.532 Z-6.000 F150000.000
G1 X16.922 Y-18.532 Z-6.000 F150000.000
G2 X17.415 Y-19.025 Z-6.000 I0.052 J-0.441 K0.000 F150000.000
G1 X17.415 Y-27.870 Z-6.000 F150000.000
G0 Z3.000
G0 Z3.000
G0 X17.415 Y-27.870
G0 X31.946 Y-46.779
G0 X31.946 Y-46.779 Z1.000
G1 X31.946 Y-46.779 Z-3.333 F90000.000
G3 X31.592 Y-47.539 Z-3.333 I0.554 J-0.721 K0.000 F150000.000
G3 X31.878 Y-48.639 Z-3.333 I42.930 J10.591 K0.000 F150000.000
G2 X31.931 Y-49.207 Z-3.333 I-3.315 J-0.592 K0.000 F150000.000
G2 X33.091 Y-48.190 Z-3.333 I3.320 J-2.617 K0.000 F150000.000
G3 X33.392 Y-47.326 Z-3.333 I-0.591 J0.690 K0.000 F150000.000
G3 X31.946 Y-46.779 Z-3.333 I-0.892 J-0.174 K0.000 F150000.000
G0 Z3.000
G0 X31.948 Y-46.782 Z3.000
G0 X31.948 Y-46.782 Z1.000
G1 X31.948 Y-46.782 Z-3.333 F90000.000
G3 X31.706 Y-47.992 Z-3.333 I0.617 J-0.753 K0.000 F150000.000
G2 X31.931 Y-49.207 Z-3.333 I-3.471 J-1.270 K0.000 F150000.000
G2 X33.091 Y-48.190 Z-3.333 I3.320 J-2.617 K0.000 F150000.000
G3 X32.019 Y-46.729 Z-3.333 I-0.591 J0.690 K0.000 F150000.000
G3 X31.948 Y-46.782 Z-3.333 I0.547 J-0.805 K0.000 F150000.000
G0 Z3.000
G0 X31.207 Y-51.379 Z3.000
G0 X31.207 Y-51.379 Z1.000
G1 X31.207 Y-51.379 Z-3.333 F90000.000
G2 X29.441 Y-52.644 Z-3.333 I-2.851 J2.116 K0.000 F150000.000
G3 X29.905 Y-57.409 Z-3.333 I0.564 J-2.350 K0.000 F150000.000
G3 X31.841 Y-53.420 Z-3.333 I0.083 J2.424 K0.000 F150000.000
G2 X31.207 Y-51.379 Z-3.333 I2.812 J1.993 K0.000 F150000.000
G0 Z3.000
G0 X27.703 Y-55.715 Z3.000
G0 X27.703 Y-55.715 Z1.000
G1 X27.703 Y-55.715 Z-3.333 F90000.000
G1 X27.703 Y-54.270 Z-3.333 F150000.000
G3 X27.703 Y-55.715 Z-3.333 I2.241 J-0.723 K0.000 F150000.000
G3 X30.556 Y-57.344 Z-3.333 I2.293 J0.703 K0.000 F150000.000
G1 X30.556 Y-52.055 Z-3.333 F150000.000
G3 X31.207 Y-51.379 Z-3.333 I-1.894 J2.477 K0.000 F150000.000
G3 X31.841 Y-53.420 Z-3.333 I3.446 J-0.047 K0.000 F150000.000
G2 X30.556 Y-57.344 Z-3.333 I-1.858 J-1.564 K0.000 F150000.000
G1 X30.556 Y-57.344 Z-4.667 F90000.000
G3 X31.841 Y-53.420 Z-4.667 I-0.573 J2.361 K0.000 F150000.000
G2 X31.207 Y-51.379 Z-4.667 I2.812 J1.993 K0.000 F150000.000
G2 X30.556 Y-52.055 Z-4.667 I-2.545 J1.801 K0.000 F150000.000
G1 X30.556 Y-57.344 Z-4.667 F150000.000
G2 X27.703 Y-55.715 Z-4.667 I-0.560 J2.332 K0.000 F150000.000
G2 X27.703 Y-54.270 Z-4.667 I2.241 J0.723 K0.000 F150000.000
G1 X27.703 Y-55.715 Z-4.667 F150000.000
G0 Z3.000
G0 X27.699 Y-55.717 Z3.000
G0 X27.699 Y-55.717 Z1.000
G1 X27.699 Y-55.717 Z-4.667 F90000.000
G3 X29.905 Y-57.409 Z-4.667 I2.307 J0.722 K0.000 F150000.000
G3 X31.841 Y-53.420 Z-4.667 I0.083 J2.424 K0.000 F150000.000
G2 X31.207 Y-51.379 Z-4.667 I2.812 J1.993 K0.000 F150000.000
G2 X29.441 Y-52.644 Z-4.667 I-2.851 J2.116 K0.000 F150000.000
G3 X27.699 Y-55.717 Z-4.667 I0.564 J-2.350 K0.000 F150000.000
G0 Z3.000
G0 X31.931 Y-49.207 Z3.000
G0 X31.931 Y-49.207 Z1.000
G1 X31.931 Y-49.207 Z-4.667 F90000.000
G2 X33.091 Y-48.190 Z-4.667 I3.320 J-2.617 K0.000 F150000.000
G3 X33.392 Y-47.326 Z-4.667 I-0.591 J0.690 K0.000 F150000.000
G3 X31.592 Y-47.539 Z-4.667 I-0.892 J-0.174 K0.000 F150000.000
G3 X31.878 Y-48.639 Z-4.667 I42.930 J10.591 K0.000 F150000.000
G2 X31.931 Y-49.207 Z-4.667 I-3.315 J-0.592 K0.000 F150000.000
G0 Z3.000
G0 X31.931 Z3.000
G0 X31.931 Z1.000
G1 X31.931 Y-49.207 Z-4.667 F90000.000
G2 X33.091 Y-48.190 Z-4.667 I3.320 J-2.617 K0.000 F150000.000
G3 X32.019 Y-46.729 Z-4.667 I-0.591 J0.690 K0.000 F150000.000
G3 X31.706 Y-47.992 Z-4.667 I0.547 J-0.805 K0.000 F150000.000
G2 X31.931 Y-49.207 Z-4.667 I-3.471 J-1.270 K0.000 F150000.000
G1 X31.931 Y-49.207 Z-6.000 F90000.000
G2 X33.091 Y-48.190 Z-6.000 I3.320 J-2.617 K0.000 F150000.000
G3 X32.019 Y-46.729 Z-6.000 I-0.591 J0.690 K0.000 F150000.000
G3 X31.706 Y-47.992 Z-6.000 I0.547 J-0.805 K0.000 F150000.000
G2 X31.931 Y-49.207 Z-6.000 I-3.471 J-1.270 K0.000 F150000.000
G0 Z3.000
G0 X31.931 Z3.000
G0 X31.931 Z1.000
G1 X31.931 Y-49.207 Z-6.000 F90000.000
G2 X33.091 Y-48.190 Z-6.000 I3.320 J-2.617 K0.000 F150000.000
G3 X33.392 Y-47.326 Z-6.000 I-0.591 J0.690 K0.000 F150000.000
G3 X31.592 Y-47.539 Z-6.000 I-0.892 J-0.174 K0.000 F150000.000
G3 X31.878 Y-48.639 Z-6.000 I42.930 J10.591 K0.000 F150000.000
G2 X31.931 Y-49.207 Z-6.000 I-3.315 J-0.592 K0.000 F150000.000
G0 Z3.000
G0 X31.207 Y-51.379 Z3.000
G0 X31.207 Y-51.379 Z1.000
G1 X31.207 Y-51.379 Z-6.000 F90000.000
G2 X29.441 Y-52.644 Z-6.000 I-2.851 J2.116 K0.000 F150000.000
G3 X29.905 Y-57.409 Z-6.000 I0.564 J-2.350 K0.000 F150000.000
G3 X31.841 Y-53.420 Z-6.000 I0.083 J2.424 K0.000 F150000.000
G2 X31.207 Y-51.379 Z-6.000 I2.812 J1.993 K0.000 F150000.000
G0 Z3.000
G0 X27.703 Y-55.715 Z3.000
G0 X27.703 Y-55.715 Z1.000
G1 X27.703 Y-55.715 Z-6.000 F90000.000
G1 X27.703 Y-54.270 Z-6.000 F150000.000
G3 X27.703 Y-55.715 Z-6.000 I2.241 J-0.723 K0.000 F150000.000
G3 X30.556 Y-57.344 Z-6.000 I2.293 J0.703 K0.000 F150000.000
G1 X30.556 Y-52.055 Z-6.000 F150000.000
G3 X31.207 Y-51.379 Z-6.000 I-1.894 J2.477 K0.000 F150000.000
G3 X31.841 Y-53.420 Z-6.000 I3.446 J-0.047 K0.000 F150000.000
G2 X30.556 Y-57.344 Z-6.000 I-1.858 J-1.564 K0.000 F150000.000
G0 Z3.000
G0 Z3.000
G0 X30.556 Y-57.344
G0 X30.030 Y-2.411
G0 X30.030 Y-2.411 Z1.000
G1 X30.030 Y-2.411 Z-3.333 F90000.000
G3 X30.049 Y-2.411 Z-3.333 I-0.023 J2.431 K0.000 F150000.000
G3 X31.841 Y1.580 Z-3.333 I-0.062 J2.426 K0.000 F150000.000
G2 X32.846 Y6.635 Z-3.333 I2.930 J2.044 K0.000 F150000.000
G3 X33.345 Y7.839 Z-3.333 I-0.351 J0.851 K0.000 F150000.000
G3 X32.140 Y8.334 Z-3.333 I-0.850 J-0.353 K0.000 F150000.000
G2 X28.747 Y7.902 Z-3.333 I-2.113 J3.053 K0.000 F150000.000
G2 X26.910 Y9.459 Z-3.333 I1.285 J3.379 K0.000 F150000.000
G1 X24.411 Y13.787 Z-3.333 F150000.000
G3 X23.738 Y13.968 Z-3.333 I-0.408 J-0.175 K0.000 F150000.000
G1 X14.347 Y8.545 Z-3.333 F150000.000
G3 X14.166 Y7.872 Z-3.333 I0.175 J-0.408 K0.000 F150000.000
G1 X18.589 Y0.213 Z-3.333 F150000.000
G3 X19.262 Y0.032 Z-3.333 I0.408 J0.175 K0.000 F150000.000
G2 X22.380 Y1.832 Z-3.333 I78.248 J-131.966 K0.000 F150000.000
G2 X27.614 Y-0.414 Z-3.333 I1.759 J-3.122 K0.000 F150000.000
G3 X30.030 Y-2.411 Z-3.333 I2.392 J0.434 K0.000 F150000.000
G0 Z3.000
G0 X33.408 Y7.524 Z3.000
G0 X33.408 Y7.524 Z1.000
G1 X33.408 Y7.524 Z-3.333 F90000.000
G3 X31.871 Y8.189 Z-3.333 I-0.932 J-0.045 K0.000 F150000.000
G2 X30.555 Y7.715 Z-3.333 I-1.790 J2.906 K0.000 F150000.000
G1 X30.555 Y-2.341 Z-3.333 F150000.000
G2 X27.702 Y-0.714 Z-3.333 I-0.566 J2.323 K0.000 F150000.000
G1 X27.702 Y8.513 Z-3.333 F150000.000
G2 X26.910 Y9.459 Z-3.333 I2.337 J2.762 K0.000 F150000.000
G1 X24.849 Y13.029 Z-3.333 F150000.000
G1 X24.849 Y2.221 Z-3.333 F150000.000
G3 X21.996 Y1.611 Z-3.333 I-0.705 J-3.678 K0.000 F150000.000
G1 X21.996 Y12.962 Z-3.333 F150000.000
G1 X19.143 Y11.315 Z-3.333 F150000.000
G1 X19.143 Y-0.021 Z-3.333 F150000.000
G2 X18.589 Y0.213 Z-3.333 I-0.161 J0.394 K0.000 F150000.000
G1 X16.290 Y4.193 Z-3.333 F150000.000
G1 X16.290 Y9.668 Z-3.333 F150000.000
G1 X14.347 Y8.545 Z-3.333 F150000.000
G3 X14.166 Y7.872 Z-3.333 I0.175 J-0.408 K0.000 F150000.000
G1 X16.290 Y4.193 Z-3.333 F150000.000
G1 X16.290 Y4.193 Z-4.667 F90000.000
G1 X14.166 Y7.872 Z-4.667 F150000.000
G2 X14.347 Y8.545 Z-4.667 I0.356 J0.265 K0.000 F150000.000
G1 X16.290 Y9.668 Z-4.667 F150000.000
G1 X16.290 Y4.193 Z-4.667 F150000.000
G1 X18.589 Y0.213 Z-4.667 F150000.000
G3 X19.143 Y-0.021 Z-4.667 I0.394 J0.160 K0.000 F150000.000
G1 X19.143 Y11.315 Z-4.667 F150000.000
G1 X21.996 Y12.962 Z-4.667 F150000.000
G1 X21.996 Y1.611 Z-4.667 F150000.000
G2 X24.849 Y2.221 Z-4.667 I2.148 J-3.067 K0.000 F150000.000
G1 X24.849 Y13.029 Z-4.667 F150000.000
G1 X26.910 Y9.459 Z-4.667 F150000.000
G3 X27.702 Y8.513 Z-4.667 I3.130 J1.817 K0.000 F150000.000
G1 X27.702 Y-0.714 Z-4.667 F150000.000
G3 X30.555 Y-2.341 Z-4.667 I2.287 J0.696 K0.000 F150000.000
G1 X30.555 Y7.715 Z-4.667 F150000.000
G3 X31.871 Y8.189 Z-4.667 I-0.474 J3.380 K0.000 F150000.000
G2 X33.408 Y7.524 Z-4.667 I0.605 J-0.710 K0.000 F150000.000
G0 Z3.000
G0 X33.415 Y7.524 Z3.000
G0 X33.415 Y7.524 Z1.000
G1 X33.415 Y7.524 Z-4.667 F90000.000
G3 X32.140 Y8.334 Z-4.667 I-0.919 J-0.038 K0.000 F150000.000
G2 X28.747 Y7.902 Z-4.667 I-2.113 J3.053 K0.000 F150000.000
G2 X26.910 Y9.459 Z-4.667 I1.285 J3.379 K0.000 F150000.000
G1 X24.411 Y13.787 Z-4.667 F150000.000
G3 X23.738 Y13.968 Z-4.667 I-0.408 J-0.175 K0.000 F150000.000
G1 X14.347 Y8.545 Z-4.667 F150000.000
G3 X14.166 Y7.872 Z-4.667 I0.175 J-0.408 K0.000 F150000.000
G1 X18.589 Y0.213 Z-4.667 F150000.000
G3 X19.262 Y0.032 Z-4.667 I0.408 J0.175 K0.000 F150000.000
G2 X22.380 Y1.832 Z-4.667 I78.248 J-131.966 K0.000 F150000.000
G2 X27.614 Y-0.414 Z-4.667 I1.759 J-3.122 K0.000 F150000.000
G3 X30.049 Y-2.411 Z-4.667 I2.392 J0.434 K0.000 F150000.000
G3 X31.841 Y1.580 Z-4.667 I-0.062 J2.426 K0.000 F150000.000
G2 X32.846 Y6.635 Z-4.667 I2.930 J2.044 K0.000 F150000.000
G3 X33.415 Y7.524 Z-4.667 I-0.351 J0.851 K0.000 F150000.000
G1 X33.415 Y7.524 Z-6.000 F90000.000
G3 X32.140 Y8.334 Z-6.000 I-0.919 J-0.038 K0.000 F150000.000
G2 X28.747 Y7.902 Z-6.000 I-2.113 J3.053 K0.000 F150000.000
G2 X26.910 Y9.459 Z-6.000 I1.285 J3.379 K0.000 F150000.000
G1 X24.411 Y13.787 Z-6.000 F150000.000
G3 X23.738 Y13.968 Z-6.000 I-0.408 J-0.175 K0.000 F150000.000
G1 X14.347 Y8.545 Z-6.000 F150000.000
G3 X14.166 Y7.872 Z-6.000 I0.175 J-0.408 K0.000 F150000.000
G1 X18.589 Y0.213 Z-6.000 F150000.000
G3 X19.262 Y0.032 Z-6.000 I0.408 J0.175 K0.000 F150000.000
G2 X22.380 Y1.832 Z-6.000 I78.248 J-131.966 K0.000 F150000.000
G2 X27.614 Y-0.414 Z-6.000 I1.759 J-3.122 K0.000 F150000.000
G3 X30.049 Y-2.411 Z-6.000 I2.392 J0.434 K0.000 F150000.000
G3 X31.841 Y1.580 Z-6.000 I-0.062 J2.426 K0.000 F150000.000
G2 X32.846 Y6.635 Z-6.000 I2.930 J2.044 K0.000 F150000.000
G3 X33.415 Y7.524 Z-6.000 I-0.351 J0.851 K0.000 F150000.000
G0 Z3.000
G0 X33.408 Y7.524 Z3.000
G0 X33.408 Y7.524 Z1.000
G1 X33.408 Y7.524 Z-6.000 F90000.000
G3 X31.871 Y8.189 Z-6.000 I-0.932 J-0.045 K0.000 F150000.000
G2 X30.555 Y7.715 Z-6.000 I-1.790 J2.906 K0.000 F150000.000
G1 X30.555 Y-2.341 Z-6.000 F150000.000
G2 X27.702 Y-0.714 Z-6.000 I-0.566 J2.323 K0.000 F150000.000
G1 X27.702 Y8.513 Z-6.000 F150000.000
G2 X26.910 Y9.459 Z-6.000 I2.337 J2.762 K0.000 F150000.000
G1 X24.849 Y13.029 Z-6.000 F150000.000
G1 X24.849 Y2.221 Z-6.000 F150000.000
G3 X21.996 Y1.611 Z-6.000 I-0.705 J-3.678 K0.000 F150000.000
G1 X21.996 Y12.962 Z-6.000 F150000.000
G1 X19.143 Y11.315 Z-6.000 F150000.000
G1 X19.143 Y-0.021 Z-6.000 F150000.000
G2 X18.589 Y0.213 Z-6.000 I-0.161 J0.394 K0.000 F150000.000
G1 X16.290 Y4.193 Z-6.000 F150000.000
G1 X16.290 Y9.668 Z-6.000 F150000.000
G1 X14.347 Y8.545 Z-6.000 F150000.000
G3 X14.166 Y7.872 Z-6.000 I0.175 J-0.408 K0.000 F150000.000
G1 X16.290 Y4.193 Z-6.000 F150000.000
G0 Z3.000
G0 Z3.000
G0 X16.290 Y4.193
G0 X6.360 Y20.839
G0 X6.360 Y20.839 Z1.000
G1 X6.360 Y20.839 Z-3.333 F90000.000
G3 X0.000 Y43.914 Z-3.333 I-6.360 J10.661 K0.000 F150000.000
G3 X-12.414 Y31.500 Z-3.333 I-0.000 J-12.414 K0.000 F150000.000
G3 X0.000 Y19.086 Z-3.333 I12.414 J0.000 K0.000 F150000.000
G3 X6.360 Y20.839 Z-3.333 I0.000 J12.414 K0.000 F150000.000
G0 Z3.000
G0 X12.414 Y31.500 Z3.000
G0 X12.414 Y31.500 Z1.000
G1 X12.414 Y31.500 Z-3.333 F90000.000
G3 X9.561 Y39.408 Z-3.333 I-12.356 J0.011 K0.000 F150000.000
G1 X9.561 Y23.592 Z-3.333 F150000.000
G2 X6.708 Y21.064 Z-3.333 I-9.111 J7.409 K0.000 F150000.000
G1 X6.708 Y41.936 Z-3.333 F150000.000
G3 X3.855 Y43.294 Z-3.333 I-6.366 J-9.699 K0.000 F150000.000
G1 X3.855 Y19.706 Z-3.333 F150000.000
G2 X1.002 Y19.129 Z-3.333 I-3.736 J11.130 K0.000 F150000.000
G1 X1.002 Y43.871 Z-3.333 F150000.000
G3 X-1.850 Y43.775 Z-3.333 I-1.022 J-12.101 K0.000 F150000.000
G1 X-1.851 Y19.225 Z-3.333 F150000.000
G2 X-4.704 Y20.018 Z-3.333 I1.740 J11.790 K0.000 F150000.000
G1 X-4.704 Y42.982 Z-3.333 F150000.000
G3 X-7.557 Y41.341 Z-3.333 I4.387 J-10.924 K0.000 F150000.000
G1 X-7.557 Y21.659 Z-3.333 F150000.000
G2 X-10.410 Y24.751 Z-3.333 I7.221 J9.526 K0.000 F150000.000
G2 X-10.410 Y38.249 Z-3.333 I10.364 J6.749 K0.000 F150000.000
G1 X-10.410 Y24.751 Z-3.333 F150000.000
G1 X-10.410 Y24.751 Z-4.667 F90000.000
G1 X-10.410 Y38.249 Z-4.667 F150000.000
G3 X-10.410 Y24.751 Z-4.667 I10.364 J-6.749 K0.000 F150000.000
G3 X-7.557 Y21.659 Z-4.667 I10.074 J6.435 K0.000 F150000.000
G1 X-7.557 Y41.341 Z-4.667 F150000.000
G2 X-4.704 Y42.982 Z-4.667 I7.240 J-9.283 K0.000 F150000.000
G1 X-4.704 Y20.018 Z-4.667 F150000.000
G3 X-1.851 Y19.225 Z-4.667 I4.593 J10.997 K0.000 F150000.000
G1 X-1.850 Y43.775 Z-4.667 F150000.000
G2 X1.002 Y43.871 Z-4.667 I1.830 J-12.005 K0.000 F150000.000
G1 X1.002 Y19.129 Z-4.667 F150000.000
G3 X3.855 Y19.706 Z-4.667 I-0.883 J11.707 K0.000 F150000.000
G1 X3.855 Y43.294 Z-4.667 F150000.000
G2 X6.708 Y41.936 Z-4.667 I-3.513 J-11.057 K0.000 F150000.000
G1 X6.708 Y21.064 Z-4.667 F150000.000
G3 X9.561 Y23.592 Z-4.667 I-6.258 J9.937 K0.000 F150000.000
G1 X9.561 Y39.408 Z-4.667 F150000.000
G2 X12.414 Y31.500 Z-4.667 I-9.503 J-7.897 K0.000 F150000.000
G1 X12.414 Y31.500 Z-4.667 F90000.000
G3 X0.000 Y43.914 Z-4.667 I-12.414 J-0.000 K0.000 F150000.000
G3 X-12.414 Y31.500 Z-4.667 I-0.000 J-12.414 K0.000 F150000.000
G3 X0.000 Y19.086 Z-4.667 I12.414 J0.000 K0.000 F150000.000
G3 X12.414 Y31.500 Z-4.667 I0.000 J12.414 K0.000 F150000.000
G1 X12.414 Y31.500 Z-6.000 F90000.000
G3 X9.561 Y39.408 Z-6.000 I-12.356 J0.011 K0.000 F150000.000
G1 X9.561 Y23.592 Z-6.000 F150000.000
G2 X6.708 Y21.064 Z-6.000 I-9.111 J7.409 K0.000 F150000.000
G1 X6.708 Y41.936 Z-6.000 F150000.000
G3 X3.855 Y43.294 Z-6.000 I-6.366 J-9.699 K0.000 F150000.000
G1 X3.855 Y19.706 Z-6.000 F150000.000
G2 X1.002 Y19.129 Z-6.000 I-3.736 J11.130 K0.000 F150000.000
G1 X1.002 Y43.871 Z-6.000 F150000.000
G3 X-1.850 Y43.775 Z-6.000 I-1.022 J-12.101 K0.000 F150000.000
G1 X-1.851 Y19.225 Z-6.000 F150000.000
G2 X-4.704 Y20.018 Z-6.000 I1.740 J11.790 K0.000 F150000.000
G1 X-4.704 Y42.982 Z-6.000 F150000.000
G3 X-7.557 Y41.341 Z-6.000 I4.387 J-10.924 K0.000 F150000.000
G1 X-7.557 Y21.659 Z-6.000 F150000.000
G2 X-10.410 Y24.751 Z-6.000 I7.221 J9.526 K0.000 F150000.000
G2 X-10.410 Y38.249 Z-6.000 I10.364 J6.749 K0.000 F150000.000
G1 X-10.410 Y24.751 Z-6.000 F150000.000
G0 Z3.000
G0 X-10.416 Y24.747 Z3.000
G0 X-10.416 Y24.747 Z1.000
G1 X-10.416 Y24.747 Z-6.000 F90000.000
G3 X0.000 Y19.086 Z-6.000 I10.416 J6.753 K0.000 F150000.000
G3 X12.414 Y31.500 Z-6.000 I0.000 J12.414 K0.000 F150000.000
G3 X0.000 Y43.914 Z-6.000 I-12.414 J0.000 K0.000 F150000.000
G3 X-10.416 Y24.747 Z-6.000 I-0.000 J-12.414 K0.000 F150000.000
G0 Z3.000
G0 Z3.000
G0 X-10.416 Y24.747
G0 X31.697 Y47.074
G0 X31.697 Y47.074 Z1.000
G1 X31.697 Y47.074 Z-3.333 F90000.000
G3 X33.348 Y47.172 Z-3.333 I0.803 J0.426 K0.000 F150000.000
G3 X33.397 Y47.644 Z-3.333 I-0.848 J0.328 K0.000 F150000.000
G3 X32.842 Y48.368 Z-3.333 I-1.048 J-0.228 K0.000 F150000.000
G2 X31.931 Y49.207 Z-3.333 I1.875 J2.950 K0.000 F150000.000
G2 X31.613 Y47.698 Z-3.333 I-4.226 J0.102 K0.000 F150000.000
G3 X31.697 Y47.074 Z-3.333 I0.887 J-0.198 K0.000 F150000.000
G1 X31.697 Y47.074 Z-3.333 F90000.000
G3 X32.473 Y46.592 Z-3.333 I0.803 J0.426 K0.000 F150000.000
G3 X32.840 Y48.370 Z-3.333 I0.008 J0.925 K0.000 F150000.000
G2 X31.931 Y49.207 Z-3.333 I2.015 J3.099 K0.000 F150000.000
G2 X31.613 Y47.698 Z-3.333 I-4.226 J0.102 K0.000 F150000.000
G3 X31.697 Y47.074 Z-3.333 I0.887 J-0.198 K0.000 F150000.000
G0 Z3.000
G0 X31.207 Y51.379 Z3.000
G0 X31.207 Y51.379 Z1.000
G1 X31.207 Y51.379 Z-3.333 F90000.000
G2 X31.861 Y53.451 Z-3.333 I3.550 J0.018 K0.000 F150000.000
G3 X31.538 Y56.857 Z-3.333 I-1.860 J1.542 K0.000 F150000.000
G3 X28.132 Y56.524 Z-3.333 I-1.537 J-1.864 K0.000 F150000.000
G3 X29.475 Y52.631 Z-3.333 I1.892 J-1.526 K0.000 F150000.000
G2 X31.207 Y51.379 Z-3.333 I-1.054 J-3.282 K0.000 F150000.000
G0 Z3.000
G0 X30.556 Y52.055 Z3.000
G0 X30.556 Y52.055 Z1.000
G1 X30.556 Y52.055 Z-3.333 F90000.000
G2 X31.207 Y51.379 Z-3.333 I-1.894 J-2.477 K0.000 F150000.000
G2 X31.861 Y53.451 Z-3.333 I3.550 J0.018 K0.000 F150000.000
G3 X30.556 Y57.344 Z-3.333 I-1.865 J1.540 K0.000 F150000.000
G1 X30.556 Y52.055 Z-3.333 F150000.000
G3 X29.016 Y52.799 Z-3.333 I-2.689 J-3.600 K0.000 F150000.000
G2 X27.703 Y54.270 Z-3.333 I0.982 J2.198 K0.000 F150000.000
G2 X27.703 Y55.715 Z-3.333 I2.241 J0.723 K0.000 F150000.000
G1 X27.703 Y54.270 Z-3.333 F150000.000
G1 X27.703 Y54.270 Z-4.667 F90000.000
G1 X27.703 Y55.715 Z-4.667 F150000.000
G3 X27.703 Y54.270 Z-4.667 I2.241 J-0.723 K0.000 F150000.000
G3 X29.016 Y52.799 Z-4.667 I2.295 J0.727 K0.000 F150000.000
G2 X30.556 Y52.055 Z-4.667 I-1.149 J-4.344 K0.000 F150000.000
G1 X30.556 Y57.344 Z-4.667 F150000.000
G2 X31.861 Y53.451 Z-4.667 I-0.560 J-2.354 K0.000 F150000.000
G3 X31.207 Y51.379 Z-4.667 I2.896 J-2.053 K0.000 F150000.000
G3 X30.556 Y52.055 Z-4.667 I-2.545 J-1.801 K0.000 F150000.000
G0 Z3.000
G0 X30.556 Y52.055 Z3.000
G0 X30.556 Y52.055 Z1.000
G1 X30.556 Y52.055 Z-4.667 F90000.000
G2 X31.207 Y51.379 Z-4.667 I-2.134 J-2.706 K0.000 F150000.000
G2 X31.861 Y53.451 Z-4.667 I3.550 J0.018 K0.000 F150000.000
G3 X31.538 Y56.857 Z-4.667 I-1.860 J1.542 K0.000 F150000.000
G3 X28.132 Y56.524 Z-4.667 I-1.537 J-1.864 K0.000 F150000.000
G3 X29.475 Y52.631 Z-4.667 I1.892 J-1.526 K0.000 F150000.000
G2 X30.556 Y52.055 Z-4.667 I-1.054 J-3.282 K0.000 F150000.000
G0 Z3.000
G0 X31.931 Y49.207 Z3.000
G0 X31.931 Y49.207 Z1.000
G1 X31.931 Y49.207 Z-4.667 F90000.000
G2 X31.613 Y47.698 Z-4.667 I-4.226 J0.102 K0.000 F150000.000
G3 X32.473 Y46.592 Z-4.667 I0.887 J-0.198 K0.000 F150000.000
G3 X32.840 Y48.370 Z-4.667 I0.008 J0.925 K0.000 F150000.000
G2 X31.931 Y49.207 Z-4.667 I2.015 J3.099 K0.000 F150000.000
G1 X31.931 Y49.207 Z-4.667 F90000.000
G2 X31.613 Y47.698 Z-4.667 I-4.226 J0.102 K0.000 F150000.000
G3 X33.348 Y47.172 Z-4.667 I0.887 J-0.198 K0.000 F150000.000
G3 X33.397 Y47.644 Z-4.667 I-0.848 J0.328 K0.000 F150000.000
G3 X32.842 Y48.368 Z-4.667 I-1.048 J-0.228 K0.000 F150000.000
G2 X31.931 Y49.207 Z-4.667 I1.875 J2.950 K0.000 F150000.000
G1 X31.931 Y49.207 Z-6.000 F90000.000
G2 X31.613 Y47.698 Z-6.000 I-4.226 J0.102 K0.000 F150000.000
G3 X32.473 Y46.592 Z-6.000 I0.887 J-0.198 K0.000 F150000.000
G3 X32.840 Y48.370 Z-6.000 I0.008 J0.925 K0.000 F150000.000
G2 X31.931 Y49.207 Z-6.000 I2.015 J3.099 K0.000 F150000.000
G1 X31.931 Y49.207 Z-6.000 F90000.000
G2 X31.613 Y47.698 Z-6.000 I-4.226 J0.102 K0.000 F150000.000
G3 X33.348 Y47.172 Z-6.000 I0.887 J-0.198 K0.000 F150000.000
G3 X33.397 Y47.644 Z-6.000 I-0.848 J0.328 K0.000 F150000.000
G3 X32.842 Y48.368 Z-6.000 I-1.048 J-0.228 K0.000 F150000.000
G2 X31.931 Y49.207 Z-6.000 I1.875 J2.950 K0.000 F150000.000
G0 Z3.000
G0 X31.207 Y51.379 Z3.000
G0 X31.207 Y51.379 Z1.000
G1 X31.207 Y51.379 Z-6.000 F90000.000
G2 X31.861 Y53.451 Z-6.000 I3.550 J0.018 K0.000 F150000.000
G3 X31.538 Y56.857 Z-6.000 I-1.860 J1.542 K0.000 F150000.000
G3 X28.132 Y56.524 Z-6.000 I-1.537 J-1.864 K0.000 F150000.000
G3 X29.475 Y52.631 Z-6.000 I1.892 J-1.526 K0.000 F150000.000
G2 X31.207 Y51.379 Z-6.000 I-1.054 J-3.282 K0.000 F150000.000
G0 Z3.000
G0 X30.556 Y52.055 Z3.000
G0 X30.556 Y52.055 Z1.000
G1 X30.556 Y52.055 Z-6.000 F90000.000
G2 X31.207 Y51.379 Z-6.000 I-1.894 J-2.477 K0.000 F150000.000
G2 X31.861 Y53.451 Z-6.000 I3.550 J0.018 K0.000 F150000.000
G3 X30.556 Y57.344 Z-6.000 I-1.865 J1.540 K0.000 F150000.000
G1 X30.556 Y52.055 Z-6.000 F150000.000
G3 X29.016 Y52.799 Z-6.000 I-2.689 J-3.600 K0.000 F150000.000
G2 X27.703 Y54.270 Z-6.000 I0.982 J2.198 K0.000 F150000.000
G2 X27.703 Y55.715 Z-6.000 I2.241 J0.723 K0.000 F150000.000
G1 X27.703 Y54.270 Z-6.000 F150000.000
G0 Z3.000
G0 Z3.000
G0 X27.703 Y54.270
G0 X34.988 Y61.515
G0 X34.988 Y61.515 Z1.000
G1 X34.988 Y61.515 Z-3.333 F90000.000
G2 X36.879 Y59.605 Z-3.333 I-447.368 J-444.895 K0.000 F150000.000
G2 X39.085 Y54.257 Z-3.333 I-5.403 J-5.358 K0.000 F150000.000
G1 X39.085 Y-54.257 Z-3.333 F150000.000
G2 X36.863 Y-59.621 Z-3.333 I-7.609 J0.010 K0.000 F150000.000
G2 X30.605 Y-65.879 Z-3.333 I-449.243 J443.000 K0.000 F150000.000
G2 X25.257 Y-68.085 Z-3.333 I-5.358 J5.403 K0.000 F150000.000
G1 X-25.257 Y-68.085 Z-3.333 F150000.000
G2 X-30.621 Y-65.863 Z-3.333 I0.010 J7.609 K0.000 F150000.000
G2 X-36.879 Y-59.605 Z-3.333 I443.000 J449.243 K0.000 F150000.000
G2 X-39.085 Y-54.257 Z-3.333 I5.403 J5.358 K0.000 F150000.000
G1 X-39.085 Y54.257 Z-3.333 F150000.000
G2 X-36.863 Y59.621 Z-3.333 I7.609 J-0.010 K0.000 F150000.000
G2 X-30.605 Y65.879 Z-3.333 I449.243 J-443.000 K0.000 F150000.000
G2 X-25.257 Y68.085 Z-3.333 I5.358 J-5.403 K0.000 F150000.000
G1 X25.257 Y68.085 Z-3.333 F150000.000
G2 X30.621 Y65.863 Z-3.333 I-0.010 J-7.609 K0.000 F150000.000
G2 X34.988 Y61.515 Z-3.333 I-443.001 J-449.244 K0.000 F150000.000
G0 Z3.000
G0 X48.415 Z3.000
G0 X48.415 Z1.000
G1 X48.415 Y61.515 Z-3.333 F90000.000
G1 X48.415 Y78.415 Z-3.333 F150000.000
G1 X-48.415 Y78.415 Z-3.333 F150000.000
G1 X-48.415 Y-78.415 Z-3.333 F150000.000
G1 X48.415 Y-78.415 Z-3.333 F150000.000
G1 X48.415 Y61.515 Z-3.333 F150000.000
G0 Z3.000
G0 Y78.415 Z3.000
G0 Y78.415 Z1.000
G1 X48.415 Y78.415 Z-3.333 F90000.000
G1 X-48.415 Y78.415 Z-3.333 F150000.000
G1 X-48.415 Y75.562 Z-3.333 F150000.000
G1 X48.415 Y75.562 Z-3.333 F150000.000
G1 X48.415 Y72.709 Z-3.333 F150000.000
G1 X-48.415 Y72.709 Z-3.333 F150000.000
G1 X-48.415 Y69.856 Z-3.333 F150000.000
G1 X48.415 Y69.856 Z-3.333 F150000.000
G1 X48.415 Y67.003 Z-3.333 F150000.000
G1 X29.152 Y67.003 Z-3.333 F150000.000
G2 X30.621 Y65.863 Z-3.333 I-3.704 J-6.289 K0.000 F150000.000
G1 X32.334 Y64.150 Z-3.333 F150000.000
G1 X48.415 Y64.150 Z-3.333 F150000.000
G1 X48.415 Y61.297 Z-3.333 F150000.000
G1 X35.187 Y61.297 Z-3.333 F150000.000
G2 X36.910 Y59.573 Z-3.333 I-29.941 J-31.629 K0.000 F150000.000
G2 X37.818 Y58.444 Z-3.333 I-4.876 J-4.856 K0.000 F150000.000
G1 X48.415 Y58.444 Z-3.333 F150000.000
G1 X48.415 Y55.591 Z-3.333 F150000.000
G1 X38.958 Y55.591 Z-3.333 F150000.000
G2 X39.085 Y52.738 Z-3.333 I-14.370 J-2.071 K0.000 F150000.000
G1 X48.415 Y52.738 Z-3.333 F150000.000
G1 X48.415 Y49.885 Z-3.333 F150000.000
G1 X39.085 Y49.885 Z-3.333 F150000.000
G1 X39.085 Y47.032 Z-3.333 F150000.000
G1 X48.415 Y47.032 Z-3.333 F150000.000
G1 X48.415 Y44.179 Z-3.333 F150000.000
G1 X39.085 Y44.179 Z-3.333 F150000.000
G1 X39.085 Y41.326 Z-3.333 F150000.000
G1 X48.415 Y41.326 Z-3.333 F150000.000
G1 X48.415 Y38.473 Z-3.333 F150000.000
G1 X39.085 Y38.473 Z-3.333 F150000.000
G1 X39.085 Y35.620 Z-3.333 F150000.000
G1 X48.415 Y35.620 Z-3.333 F150000.000
G1 X48.415 Y32.767 Z-3.333 F150000.000
G1 X39.085 Y32.767 Z-3.333 F150000.000
G1 X39.085 Y29.914 Z-3.333 F150000.000
G1 X48.415 Y29.914 Z-3.333 F150000.000
G1 X48.415 Y27.061 Z-3.333 F150000.000
G1 X39.085 Y27.061 Z-3.333 F150000.000
G1 X39.085 Y24.208 Z-3.333 F150000.000
G1 X48.415 Y24.208 Z-3.333 F150000.000
G1 X48.415 Y21.355 Z-3.333 F150000.000
G1 X39.085 Y21.355 Z-3.333 F150000.000
G1 X39.085 Y18.502 Z-3.333 F150000.000
G1 X48.415 Y18.502 Z-3.333 F150000.000
G1 X48.415 Y15.649 Z-3.333 F150000.000
G1 X39.085 Y15.649 Z-3.333 F150000.000
G1 X39.085 Y12.796 Z-3.333 F150000.000
G1 X48.415 Y12.796 Z-3.333 F150000.000
G1 X48.415 Y9.943 Z-3.333 F150000.000
G1 X39.085 Y9.943 Z-3.333 F150000.000
G1 X39.085 Y7.090 Z-3.333 F150000.000
G1 X48.415 Y7.090 Z-3.333 F150000.000
G1 X48.415 Y4.237 Z-3.333 F150000.000
G1 X39.085 Y4.237 Z-3.333 F150000.000
G1 X39.085 Y1.384 Z-3.333 F150000.000
G1 X48.415 Y1.384 Z-3.333 F150000.000
G1 X48.415 Y-1.469 Z-3.333 F150000.000
G1 X39.085 Y-1.469 Z-3.333 F150000.000
G1 X39.085 Y-4.322 Z-3.333 F150000.000
G1 X48.415 Y-4.322 Z-3.333 F150000.000
G1 X48.415 Y-7.175 Z-3.333 F150000.000
G1 X39.085 Y-7.175 Z-3.333 F150000.000
G1 X39.085 Y-10.028 Z-3.333 F150000.000
G1 X48.415 Y-10.028 Z-3.333 F150000.000
G1 X48.415 Y-12.881 Z-3.333 F150000.000
G1 X39.085 Y-12.881 Z-3.333 F150000.000
G1 X39.085 Y-15.734 Z-3.333 F150000.000
G1 X48.415 Y-15.734 Z-3.333 F150000.000
G1 X48.415 Y-18.587 Z-3.333 F150000.000
G1 X39.085 Y-18.587 Z-3.333 F150000.000
G1 X39.085 Y-21.440 Z-3.333 F150000.000
G1 X48.415 Y-21.440 Z-3.333 F150000.000
G1 X48.415 Y-24.293 Z-3.333 F150000.000
G1 X39.085 Y-24.293 Z-3.333 F150000.000
G1 X39.085 Y-27.146 Z-3.333 F150000.000
G1 X48.415 Y-27.146 Z-3.333 F150000.000
G1 X48.415 Y-29.999 Z-3.333 F150000.000
G1 X39.085 Y-29.999 Z-3.333 F150000.000
G1 X39.085 Y-32.852 Z-3.333 F150000.000
G1 X48.415 Y-32.852 Z-3.333 F150000.000
G1 X48.415 Y-35.705 Z-3.333 F150000.000
G1 X39.085 Y-35.705 Z-3.333 F150000.000
G1 X39.085 Y-38.558 Z-3.333 F150000.000
G1 X48.415 Y-38.558 Z-3.333 F150000.000
G1 X48.415 Y-41.411 Z-3.333 F150000.000
G1 X39.085 Y-41.411 Z-3.333 F150000.000
G1 X39.085 Y-44.264 Z-3.333 F150000.000
G1 X48.415 Y-44.264 Z-3.333 F150000.000
G1 X48.415 Y-47.117 Z-3.333 F150000.000
G1 X39.085 Y-47.117 Z-3.333 F150000.000
G1 X39.085 Y-49.970 Z-3.333 F150000.000
G1 X48.415 Y-49.970 Z-3.333 F150000.000
G1 X48.415 Y-52.823 Z-3.333 F150000.000
G1 X39.085 Y-52.823 Z-3.333 F150000.000
G2 X39.025 Y-55.195 Z-3.333 I-17.921 J-0.732 K0.000 F150000.000
G1 X38.943 Y-55.676 Z-3.333 F150000.000
G1 X48.415 Y-55.676 Z-3.333 F150000.000
G1 X48.415 Y-58.529 Z-3.333 F150000.000
G1 X37.758 Y-58.529 Z-3.333 F150000.000
G2 X36.863 Y-59.621 Z-3.333 I-5.878 J3.904 K0.000 F150000.000
G1 X35.102 Y-61.382 Z-3.333 F150000.000
G1 X48.415 Y-61.382 Z-3.333 F150000.000
G1 X48.415 Y-64.235 Z-3.333 F150000.000
G1 X32.249 Y-64.235 Z-3.333 F150000.000
G2 X30.573 Y-65.910 Z-3.333 I-30.752 J29.112 K0.000 F150000.000
G2 X28.998 Y-67.088 Z-3.333 I-5.112 J5.188 K0.000 F150000.000
G1 X48.415 Y-67.088 Z-3.333 F150000.000
G0 Z3.000
G0 Y-75.647 Z3.000
G0 Y-75.647 Z1.000
G1 X48.415 Y-75.647 Z-3.333 F90000.000
G1 X48.415 Y-78.415 Z-3.333 F150000.000
G1 X-48.415 Y-78.415 Z-3.333 F150000.000
G1 X-48.415 Y-75.647 Z-3.333 F150000.000
G1 X48.415 Y-75.647 Z-3.333 F150000.000
G1 X48.415 Y-72.794 Z-3.333 F150000.000
G1 X-48.415 Y-72.794 Z-3.333 F150000.000
G1 X-48.415 Y-69.941 Z-3.333 F150000.000
G1 X48.415 Y-69.941 Z-3.333 F150000.000
G1 X48.415 Y-67.088 Z-3.333 F150000.000
G1 X28.998 Y-67.088 Z-3.333 F150000.000
G2 X25.257 Y-68.085 Z-3.333 I-3.731 J6.482 K0.000 F150000.000
G1 X-25.257 Y-68.085 Z-3.333 F150000.000
G2 X-28.998 Y-67.088 Z-3.333 I-0.013 J7.467 K0.000 F150000.000
G1 X-48.415 Y-67.088 Z-3.333 F150000.000
G1 X-48.415 Y-64.235 Z-3.333 F150000.000
G1 X-32.249 Y-64.235 Z-3.333 F150000.000
G1 X-35.102 Y-61.382 Z-3.333 F150000.000
G1 X-48.415 Y-61.382 Z-3.333 F150000.000
G1 X-48.415 Y-58.529 Z-3.333 F150000.000
G1 X-37.758 Y-58.529 Z-3.333 F150000.000
G2 X-38.943 Y-55.676 Z-3.333 I5.987 J4.160 K0.000 F150000.000
G1 X-48.415 Y-55.676 Z-3.333 F150000.000
G1 X-48.415 Y-52.823 Z-3.333 F150000.000
G1 X-39.085 Y-52.823 Z-3.333 F150000.000
G1 X-39.085 Y-49.970 Z-3.333 F150000.000
G1 X-48.415 Y-49.970 Z-3.333 F150000.000
G1 X-48.415 Y-47.117 Z-3.333 F150000.000
G1 X-39.085 Y-47.117 Z-3.333 F150000.000
G1 X-39.085 Y-44.264 Z-3.333 F150000.000
G1 X-48.415 Y-44.264 Z-3.333 F150000.000
G1 X-48.415 Y-41.411 Z-3.333 F150000.000
G1 X-39.085 Y-41.411 Z-3.333 F150000.000
G1 X-39.085 Y-38.558 Z-3.333 F150000.000
G1 X-48.415 Y-38.558 Z-3.333 F150000.000
G1 X-48.415 Y-35.705 Z-3.333 F150000.000
G1 X-39.085 Y-35.705 Z-3.333 F150000.000
G1 X-39.085 Y-32.852 Z-3.333 F150000.000
G1 X-48.415 Y-32.852 Z-3.333 F150000.000
G1 X-48.415 Y-29.999 Z-3.333 F150000.000
G1 X-39.085 Y-29.999 Z-3.333 F150000.000
G1 X-39.085 Y-27.146 Z-3.333 F150000.000
G1 X-48.415 Y-27.146 Z-3.333 F150000.000
G1 X-48.415 Y-24.293 Z-3.333 F150000.000
G1 X-39.085 Y-24.293 Z-3.333 F150000.000
G1 X-39.085 Y-21.440 Z-3.333 F150000.000
G1 X-48.415 Y-21.440 Z-3.333 F150000.000
G1 X-48.415 Y-18.587 Z-3.333 F150000.000
G1 X-39.085 Y-18.587 Z-3.333 F150000.000
G1 X-39.085 Y-15.734 Z-3.333 F150000.000
G1 X-48.415 Y-15.734 Z-3.333 F150000.000
G1 X-48.415 Y-12.881 Z-3.333 F150000.000
G1 X-39.085 Y-12.881 Z-3.333 F150000.000
G1 X-39.085 Y-10.028 Z-3.333 F150000.000
G1 X-48.415 Y-10.028 Z-3.333 F150000.000
G1 X-48.415 Y-7.175 Z-3.333 F150000.000
G1 X-39.085 Y-7.175 Z-3.333 F150000.000
G1 X-39.085 Y-4.322 Z-3.333 F150000.000
G1 X-48.415 Y-4.322 Z-3.333 F150000.000
G1 X-48.415 Y-1.469 Z-3.333 F150000.000
G1 X-39.085 Y-1.469 Z-3.333 F150000.000
G1 X-39.085 Y1.384 Z-3.333 F150000.000
G1 X-48.415 Y1.384 Z-3.333 F150000.000
G1 X-48.415 Y4.237 Z-3.333 F150000.000
G1 X-39.085 Y4.237 Z-3.333 F150000.000
G1 X-39.085 Y7.090 Z-3.333 F150000.000
G1 X-48.415 Y7.090 Z-3.333 F150000.000
G1 X-48.415 Y9.943 Z-3.333 F150000.000
G1 X-39.085 Y9.943 Z-3.333 F150000.000
G1 X-39.085 Y12.796 Z-3.333 F150000.000
G1 X-48.415 Y12.796 Z-3.333 F150000.000
G1 X-48.415 Y15.649 Z-3.333 F150000.000
G1 X-39.085 Y15.649 Z-3.333 F150000.000
G1 X-39.085 Y18.502 Z-3.333 F150000.000
G1 X-48.415 Y18.502 Z-3.333 F150000.000
G1 X-48.415 Y21.355 Z-3.333 F150000.000
G1 X-39.085 Y21.355 Z-3.333 F150000.000
G1 X-39.085 Y24.208 Z-3.333 F150000.000
G1 X-48.415 Y24.208 Z-3.333 F150000.000
G1 X-48.415 Y27.061 Z-3.333 F150000.000
G1 X-39.085 Y27.061 Z-3.333 F150000.000
G1 X-39.085 Y29.914 Z-3.333 F150000.000
G1 X-48.415 Y29.914 Z-3.333 F150000.000
G1 X-48.415 Y32.767 Z-3.333 F150000.000
G1 X-39.085 Y32.767 Z-3.333 F150000.000
G1 X-39.085 Y35.620 Z-3.333 F150000.000
G1 X-48.415 Y35.620 Z-3.333 F150000.000
G1 X-48.415 Y38.473 Z-3.333 F150000.000
G1 X-39.085 Y38.473 Z-3.333 F150000.000
G1 X-39.085 Y41.326 Z-3.333 F150000.000
G1 X-48.415 Y41.326 Z-3.333 F150000.000
G1 X-48.415 Y44.179 Z-3.333 F150000.000
G1 X-39.085 Y44.179 Z-3.333 F150000.000
G1 X-39.085 Y47.032 Z-3.333 F150000.000
G1 X-48.415 Y47.032 Z-3.333 F150000.000
G1 X-48.415 Y49.885 Z-3.333 F150000.000
G1 X-39.085 Y49.885 Z-3.333 F150000.000
G1 X-39.085 Y52.738 Z-3.333 F150000.000
G1 X-48.415 Y52.738 Z-3.333 F150000.000
G1 X-48.415 Y55.591 Z-3.333 F150000.000
G1 X-38.958 Y55.591 Z-3.333 F150000.000
G2 X-37.818 Y58.444 Z-3.333 I7.209 J-1.225 K0.000 F150000.000
G1 X-48.415 Y58.444 Z-3.333 F150000.000
G1 X-48.415 Y61.297 Z-3.333 F150000.000
G1 X-35.187 Y61.297 Z-3.333 F150000.000
G1 X-32.334 Y64.150 Z-3.333 F150000.000
G1 X-48.415 Y64.150 Z-3.333 F150000.000
G1 X-48.415 Y67.003 Z-3.333 F150000.000
G1 X-29.152 Y67.003 Z-3.333 F150000.000
G1 X-29.152 Y67.003 Z-4.667 F90000.000
G1 X-48.415 Y67.003 Z-4.667 F150000.000
G1 X-48.415 Y64.150 Z-4.667 F150000.000
G1 X-32.334 Y64.150 Z-4.667 F150000.000
G1 X-35.187 Y61.297 Z-4.667 F150000.000
G1 X-48.415 Y61.297 Z-4.667 F150000.000
G1 X-48.415 Y58.444 Z-4.667 F150000.000
G1 X-37.818 Y58.444 Z-4.667 F150000.000
G3 X-38.958 Y55.591 Z-4.667 I6.070 J-4.078 K0.000 F150000.000
G1 X-48.415 Y55.591 Z-4.667 F150000.000
G1 X-48.415 Y52.738 Z-4.667 F150000.000
G1 X-39.085 Y52.738 Z-4.667 F150000.000
G1 X-39.085 Y49.885 Z-4.667 F150000.000
G1 X-48.415 Y49.885 Z-4.667 F150000.000
G1 X-48.415 Y47.032 Z-4.667 F150000.000
G1 X-39.085 Y47.032 Z-4.667 F150000.000
G1 X-39.085 Y44.179 Z-4.667 F150000.000
G1 X-48.415 Y44.179 Z-4.667 F150000.000
G1 X-48.415 Y41.326 Z-4.667 F150000.000
G1 X-39.085 Y41.326 Z-4.667 F150000.000
G1 X-39.085 Y38.473 Z-4.667 F150000.000
G1 X-48.415 Y38.473 Z-4.667 F150000.000
G1 X-48.415 Y35.620 Z-4.667 F150000.000
G1 X-39.085 Y35.620 Z-4.667 F150000.000
G1 X-39.085 Y32.767 Z-4.667 F150000.000
G1 X-48.415 Y32.767 Z-4.667 F150000.000
G1 X-48.415 Y29.914 Z-4.667 F150000.000
G1 X-39.085 Y29.914 Z-4.667 F150000.000
G1 X-39.085 Y27.061 Z-4.667 F150000.000
G1 X-48.415 Y27.061 Z-4.667 F150000.000
G1 X-48.415 Y24.208 Z-4.667 F150000.000
G1 X-39.085 Y24.208 Z-4.667 F150000.000
G1 X-39.085 Y21.355 Z-4.667 F150000.000
G1 X-48.415 Y21.355 Z-4.667 F150000.000
G1 X-48.415 Y18.502 Z-4.667 F150000.000
G1 X-39.085 Y18.502 Z-4.667 F150000.000
G1 X-39.085 Y15.649 Z-4.667 F150000.000
G1 X-48.415 Y15.649 Z-4.667 F150000.000
G1 X-48.415 Y12.796 Z-4.667 F150000.000
G1 X-39.085 Y12.796 Z-4.667 F150000.000
G1 X-39.085 Y9.943 Z-4.667 F150000.000
G1 X-48.415 Y9.943 Z-4.667 F150000.000
G1 X-48.415 Y7.090 Z-4.667 F150000.000
G1 X-39.085 Y7.090 Z-4.667 F150000.000
G1 X-39.085 Y4.237 Z-4.667 F150000.000
G1 X-48.415 Y4.237 Z-4.667 F150000.000
G1 X-48.415 Y1.384 Z-4.667 F150000.000
G1 X-39.085 Y1.384 Z-4.667 F150000.000
G1 X-39.085 Y-1.469 Z-4.667 F150000.000
G1 X-48.415 Y-1.469 Z-4.667 F150000.000
G1 X-48.415 Y-4.322 Z-4.667 F150000.000
G1 X-39.085 Y-4.322 Z-4.667 F150000.000
G1 X-39.085 Y-7.175 Z-4.667 F150000.000
G1 X-48.415 Y-7.175 Z-4.667 F150000.000
G1 X-48.415 Y-10.028 Z-4.667 F150000.000
G1 X-39.085 Y-10.028 Z-4.667 F150000.000
G1 X-39.085 Y-12.881 Z-4.667 F150000.000
G1 X-48.415 Y-12.881 Z-4.667 F150000.000
G1 X-48.415 Y-15.734 Z-4.667 F150000.000
G1 X-39.085 Y-15.734 Z-4.667 F150000.000
G1 X-39.085 Y-18.587 Z-4.667 F150000.000
G1 X-48.415 Y-18.587 Z-4.667 F150000.000
G1 X-48.415 Y-21.440 Z-4.667 F150000.000
G1 X-39.085 Y-21.440 Z-4.667 F150000.000
G1 X-39.085 Y-24.293 Z-4.667 F150000.000
G1 X-48.415 Y-24.293 Z-4.667 F150000.000
G1 X-48.415 Y-27.146 Z-4.667 F150000.000
G1 X-39.085 Y-27.146 Z-4.667 F150000.000
G1 X-39.085 Y-29.999 Z-4.667 F150000.000
G1 X-48.415 Y-29.999 Z-4.667 F150000.000
G1 X-48.415 Y-32.852 Z-4.667 F150000.000
G1 X-39.085 Y-32.852 Z-4.667 F150000.000
G1 X-39.085 Y-35.705 Z-4.667 F150000.000
G1 X-48.415 Y-35.705 Z-4.667 F150000.000
G1 X-48.415 Y-38.558 Z-4.667 F150000.000
G1 X-39.085 Y-38.558 Z-4.667 F150000.000
G1 X-39.085 Y-41.411 Z-4.667 F150000.000
G1 X-48.415 Y-41.411 Z-4.667 F150000.000
G1 X-48.415 Y-44.264 Z-4.667 F150000.000
G1 X-39.085 Y-44.264 Z-4.667 F150000.000
G1 X-39.085 Y-47.117 Z-4.667 F150000.000
G1 X-48.415 Y-47.117 Z-4.667 F150000.000
G1 X-48.415 Y-49.970 Z-4.667 F150000.000
G1 X-39.085 Y-49.970 Z-4.667 F150000.000
G1 X-39.085 Y-52.823 Z-4.667 F150000.000
G1 X-48.415 Y-52.823 Z-4.667 F150000.000
G1 X-48.415 Y-55.676 Z-4.667 F150000.000
G1 X-38.943 Y-55.676 Z-4.667 F150000.000
G3 X-37.758 Y-58.529 Z-4.667 I7.172 J1.307 K0.000 F150000.000
G1 X-48.415 Y-58.529 Z-4.667 F150000.000
G1 X-48.415 Y-61.382 Z-4.667 F150000.000
G1 X-35.102 Y-61.382 Z-4.667 F150000.000
G1 X-32.249 Y-64.235 Z-4.667 F150000.000
G1 X-48.415 Y-64.235 Z-4.667 F150000.000
G1 X-48.415 Y-67.088 Z-4.667 F150000.000
G1 X-28.998 Y-67.088 Z-4.667 F150000.000
G3 X-25.257 Y-68.085 Z-4.667 I3.728 J6.470 K0.000 F150000.000
G1 X25.257 Y-68.085 Z-4.667 F150000.000
G3 X28.998 Y-67.088 Z-4.667 I0.010 J7.479 K0.000 F150000.000
G1 X48.415 Y-67.088 Z-4.667 F150000.000
G1 X48.415 Y-69.941 Z-4.667 F150000.000
G1 X-48.415 Y-69.941 Z-4.667 F150000.000
G1 X-48.415 Y-72.794 Z-4.667 F150000.000
G1 X48.415 Y-72.794 Z-4.667 F150000.000
G1 X48.415 Y-75.647 Z-4.667 F150000.000
G1 X-48.415 Y-75.647 Z-4.667 F150000.000
G1 X-48.415 Y-78.415 Z-4.667 F150000.000
G1 X48.415 Y-78.415 Z-4.667 F150000.000
G1 X48.415 Y-75.647 Z-4.667 F150000.000
G1 X48.415 Y-75.647 Z-4.667 F90000.000
G1 X48.415 Y78.415 Z-4.667 F150000.000
G1 X-48.415 Y78.415 Z-4.667 F150000.000
G1 X-48.415 Y-78.415 Z-4.667 F150000.000
G1 X48.415 Y-78.415 Z-4.667 F150000.000
G1 X48.415 Y-75.647 Z-4.667 F150000.000
G0 Z3.000
G0 Y-67.088 Z3.000
G0 Y-67.088 Z1.000
G1 X48.415 Y-67.088 Z-4.667 F90000.000
G1 X28.998 Y-67.088 Z-4.667 F150000.000
G3 X30.573 Y-65.910 Z-4.667 I-3.537 J6.366 K0.000 F150000.000
G3 X32.249 Y-64.235 Z-4.667 I-29.076 J30.787 K0.000 F150000.000
G1 X48.415 Y-64.235 Z-4.667 F150000.000
G1 X48.415 Y-61.382 Z-4.667 F150000.000
G1 X35.102 Y-61.382 Z-4.667 F150000.000
G1 X36.863 Y-59.621 Z-4.667 F150000.000
G3 X37.758 Y-58.529 Z-4.667 I-4.984 J4.996 K0.000 F150000.000
G1 X48.415 Y-58.529 Z-4.667 F150000.000
G1 X48.415 Y-55.676 Z-4.667 F150000.000
G1 X38.943 Y-55.676 Z-4.667 F150000.000
G1 X39.025 Y-55.195 Z-4.667 F150000.000
G3 X39.085 Y-52.823 Z-4.667 I-17.861 J1.639 K0.000 F150000.000
G1 X48.415 Y-52.823 Z-4.667 F150000.000
G1 X48.415 Y-49.970 Z-4.667 F150000.000
G1 X39.085 Y-49.970 Z-4.667 F150000.000
G1 X39.085 Y-47.117 Z-4.667 F150000.000
G1 X48.415 Y-47.117 Z-4.667 F150000.000
G1 X48.415 Y-44.264 Z-4.667 F150000.000
G1 X39.085 Y-44.264 Z-4.667 F150000.000
G1 X39.085 Y-41.411 Z-4.667 F150000.000
G1 X48.415 Y-41.411 Z-4.667 F150000.000
G1 X48.415 Y-38.558 Z-4.667 F150000.000
G1 X39.085 Y-38.558 Z-4.667 F150000.000
G1 X39.085 Y-35.705 Z-4.667 F150000.000
G1 X48.415 Y-35.705 Z-4.667 F150000.000
G1 X48.415 Y-32.852 Z-4.667 F150000.000
G1 X39.085 Y-32.852 Z-4.667 F150000.000
G1 X39.085 Y-29.999 Z-4.667 F150000.000
G1 X48.415 Y-29.999 Z-4.667 F150000.000
G1 X48.415 Y-27.146 Z-4.667 F150000.000
G1 X39.085 Y-27.146 Z-4.667 F150000.000
G1 X39.085 Y-24.293 Z-4.667 F150000.000
G1 X48.415 Y-24.293 Z-4.667 F150000.000
G1 X48.415 Y-21.440 Z-4.667 F150000.000
G1 X39.085 Y-21.440 Z-4.667 F150000.000
G1 X39.085 Y-18.587 Z-4.667 F150000.000
G1 X48.415 Y-18.587 Z-4.667 F150000.000
G1 X48.415 Y-15.734 Z-4.667 F150000.000
G1 X39.085 Y-15.734 Z-4.667 F150000.000
G1 X39.085 Y-12.881 Z-4.667 F150000.000
G1 X48.415 Y-12.881 Z-4.667 F150000.000
G1 X48.415 Y-10.028 Z-4.667 F150000.000
G1 X39.085 Y-10.028 Z-4.667 F150000.000
G1 X39.085 Y-7.175 Z-4.667 F150000.000
G1 X48.415 Y-7.175 Z-4.667 F150000.000
G1 X48.415 Y-4.322 Z-4.667 F150000.000
G1 X39.085 Y-4.322 Z-4.667 F150000.000
G1 X39.085 Y-1.469 Z-4.667 F150000.000
G1 X48.415 Y-1.469 Z-4.667 F150000.000
G1 X48.415 Y1.384 Z-4.667 F150000.000
G1 X39.085 Y1.384 Z-4.667 F150000.000
G1 X39.085 Y4.237 Z-4.667 F150000.000
G1 X48.415 Y4.237 Z-4.667 F150000.000
G1 X48.415 Y7.090 Z-4.667 F150000.000
G1 X39.085 Y7.090 Z-4.667 F150000.000
G1 X39.085 Y9.943 Z-4.667 F150000.000
G1 X48.415 Y9.943 Z-4.667 F150000.000
G1 X48.415 Y12.796 Z-4.667 F150000.000
G1 X39.085 Y12.796 Z-4.667 F150000.000
G1 X39.085 Y15.649 Z-4.667 F150000.000
G1 X48.415 Y15.649 Z-4.667 F150000.000
G1 X48.415 Y18.502 Z-4.667 F150000.000
G1 X39.085 Y18.502 Z-4.667 F150000.000
G1 X39.085 Y21.355 Z-4.667 F150000.000
G1 X48.415 Y21.355 Z-4.667 F150000.000
G1 X48.415 Y24.208 Z-4.667 F150000.000
G1 X39.085 Y24.208 Z-4.667 F150000.000
G1 X39.085 Y27.061 Z-4.667 F150000.000
G1 X48.415 Y27.061 Z-4.667 F150000.000
G1 X48.415 Y29.914 Z-4.667 F150000.000
G1 X39.085 Y29.914 Z-4.667 F150000.000
G1 X39.085 Y32.767 Z-4.667 F150000.000
G1 X48.415 Y32.767 Z-4.667 F150000.000
G1 X48.415 Y35.620 Z-4.667 F150000.000
G1 X39.085 Y35.620 Z-4.667 F150000.000
G1 X39.085 Y38.473 Z-4.667 F150000.000
G1 X48.415 Y38.473 Z-4.667 F150000.000
G1 X48.415 Y41.326 Z-4.667 F150000.000
G1 X39.085 Y41.326 Z-4.667 F150000.000
G1 X39.085 Y44.179 Z-4.667 F150000.000
G1 X48.415 Y44.179 Z-4.667 F150000.000
G1 X48.415 Y47.032 Z-4.667 F150000.000
G1 X39.085 Y47.032 Z-4.667 F150000.000
G1 X39.085 Y49.885 Z-4.667 F150000.000
G1 X48.415 Y49.885 Z-4.667 F150000.000
G1 X48.415 Y52.738 Z-4.667 F150000.000
G1 X39.085 Y52.738 Z-4.667 F150000.000
G3 X38.958 Y55.591 Z-4.667 I-14.497 J0.782 K0.000 F150000.000
G1 X48.415 Y55.591 Z-4.667 F150000.000
G1 X48.415 Y58.444 Z-4.667 F150000.000
G1 X37.818 Y58.444 Z-4.667 F150000.000
G3 X36.910 Y59.573 Z-4.667 I-5.784 J-3.727 K0.000 F150000.000
G3 X35.187 Y61.297 Z-4.667 I-31.663 J-29.904 K0.000 F150000.000
G1 X48.415 Y61.297 Z-4.667 F150000.000
G1 X48.415 Y64.150 Z-4.667 F150000.000
G1 X32.334 Y64.150 Z-4.667 F150000.000
G1 X30.621 Y65.863 Z-4.667 F150000.000
G3 X29.152 Y67.003 Z-4.667 I-5.173 J-5.150 K0.000 F150000.000
G1 X48.415 Y67.003 Z-4.667 F150000.000
G1 X48.415 Y69.856 Z-4.667 F150000.000
G1 X-48.415 Y69.856 Z-4.667 F150000.000
G1 X-48.415 Y72.709 Z-4.667 F150000.000
G1 X48.415 Y72.709 Z-4.667 F150000.000
G1 X48.415 Y75.562 Z-4.667 F150000.000
G1 X-48.415 Y75.562 Z-4.667 F150000.000
G1 X-48.415 Y78.415 Z-4.667 F150000.000
G1 X48.415 Y78.415 Z-4.667 F150000.000
G0 Z3.000
G0 X33.269 Y63.236 Z3.000
G0 X33.269 Y63.236 Z1.000
G1 X33.269 Y63.236 Z-4.667 F90000.000
G2 X36.879 Y59.605 Z-4.667 I-445.649 J-446.616 K0.000 F150000.000
G2 X39.085 Y54.257 Z-4.667 I-5.403 J-5.358 K0.000 F150000.000
G1 X39.085 Y-54.257 Z-4.667 F150000.000
G2 X36.863 Y-59.621 Z-4.667 I-7.609 J0.010 K0.000 F150000.000
G2 X30.605 Y-65.879 Z-4.667 I-449.243 J443.000 K0.000 F150000.000
G2 X25.257 Y-68.085 Z-4.667 I-5.358 J5.403 K0.000 F150000.000
G1 X-25.257 Y-68.085 Z-4.667 F150000.000
G2 X-30.621 Y-65.863 Z-4.667 I0.010 J7.609 K0.000 F150000.000
G2 X-36.879 Y-59.605 Z-4.667 I443.000 J449.243 K0.000 F150000.000
G2 X-39.085 Y-54.257 Z-4.667 I5.403 J5.358 K0.000 F150000.000
G1 X-39.085 Y54.257 Z-4.667 F150000.000
G2 X-36.863 Y59.621 Z-4.667 I7.609 J-0.010 K0.000 F150000.000
G2 X-30.605 Y65.879 Z-4.667 I449.243 J-443.000 K0.000 F150000.000
G2 X-25.257 Y68.085 Z-4.667 I5.358 J-5.403 K0.000 F150000.000
G1 X25.257 Y68.085 Z-4.667 F150000.000
G2 X30.621 Y65.863 Z-4.667 I-0.010 J-7.609 K0.000 F150000.000
G2 X33.269 Y63.236 Z-4.667 I-443.001 J-449.244 K0.000 F150000.000
G1 X33.269 Y63.236 Z-6.000 F90000.000
G2 X36.879 Y59.605 Z-6.000 I-445.649 J-446.616 K0.000 F150000.000
G2 X39.085 Y54.257 Z-6.000 I-5.403 J-5.358 K0.000 F150000.000
G1 X39.085 Y-54.257 Z-6.000 F150000.000
G2 X36.863 Y-59.621 Z-6.000 I-7.609 J0.010 K0.000 F150000.000
G2 X30.605 Y-65.879 Z-6.000 I-449.243 J443.000 K0.000 F150000.000
G2 X25.257 Y-68.085 Z-6.000 I-5.358 J5.403 K0.000 F150000.000
G1 X-25.257 Y-68.085 Z-6.000 F150000.000
G2 X-30.621 Y-65.863 Z-6.000 I0.010 J7.609 K0.000 F150000.000
G2 X-36.879 Y-59.605 Z-6.000 I443.000 J449.243 K0.000 F150000.000
G2 X-39.085 Y-54.257 Z-6.000 I5.403 J5.358 K0.000 F150000.000
G1 X-39.085 Y54.257 Z-6.000 F150000.000
G2 X-36.863 Y59.621 Z-6.000 I7.609 J-0.010 K0.000 F150000.000
G2 X-30.605 Y65.879 Z-6.000 I449.243 J-443.000 K0.000 F150000.000
G2 X-25.257 Y68.085 Z-6.000 I5.358 J-5.403 K0.000 F150000.000
G1 X25.257 Y68.085 Z-6.000 F150000.000
G2 X30.621 Y65.863 Z-6.000 I-0.010 J-7.609 K0.000 F150000.000
G2 X33.269 Y63.236 Z-6.000 I-443.001 J-449.244 K0.000 F150000.000
G0 Z3.000
G0 X48.415 Z3.000
G0 X48.415 Z1.000
G1 X48.415 Y63.236 Z-6.000 F90000.000
G1 X48.415 Y78.415 Z-6.000 F150000.000
G1 X-48.415 Y78.415 Z-6.000 F150000.000
G1 X-48.415 Y-78.415 Z-6.000 F150000.000
G1 X48.415 Y-78.415 Z-6.000 F150000.000
G1 X48.415 Y63.236 Z-6.000 F150000.000
G0 Z3.000
G0 Y78.415 Z3.000
G0 Y78.415 Z1.000
G1 X48.415 Y78.415 Z-6.000 F90000.000
G1 X-48.415 Y78.415 Z-6.000 F150000.000
G1 X-48.415 Y75.562 Z-6.000 F150000.000
G1 X48.415 Y75.562 Z-6.000 F150000.000
G1 X48.415 Y72.709 Z-6.000 F150000.000
G1 X-48.415 Y72.709 Z-6.000 F150000.000
G1 X-48.415 Y69.856 Z-6.000 F150000.000
G1 X48.415 Y69.856 Z-6.000 F150000.000
G1 X48.415 Y67.003 Z-6.000 F150000.000
G1 X29.152 Y67.003 Z-6.000 F150000.000
G2 X30.621 Y65.863 Z-6.000 I-3.704 J-6.289 K0.000 F150000.000
G1 X32.334 Y64.150 Z-6.000 F150000.000
G1 X48.415 Y64.150 Z-6.000 F150000.000
G1 X48.415 Y61.297 Z-6.000 F150000.000
G1 X35.187 Y61.297 Z-6.000 F150000.000
G2 X36.910 Y59.573 Z-6.000 I-29.941 J-31.629 K0.000 F150000.000
G2 X37.818 Y58.444 Z-6.000 I-4.876 J-4.856 K0.000 F150000.000
G1 X48.415 Y58.444 Z-6.000 F150000.000
G1 X48.415 Y55.591 Z-6.000 F150000.000
G1 X38.958 Y55.591 Z-6.000 F150000.000
G2 X39.085 Y52.738 Z-6.000 I-14.370 J-2.071 K0.000 F150000.000
G1 X48.415 Y52.738 Z-6.000 F150000.000
G1 X48.415 Y49.885 Z-6.000 F150000.000
G1 X39.085 Y49.885 Z-6.000 F150000.000
G1 X39.085 Y47.032 Z-6.000 F150000.000
G1 X48.415 Y47.032 Z-6.000 F150000.000
G1 X48.415 Y44.179 Z-6.000 F150000.000
G1 X39.085 Y44.179 Z-6.000 F150000.000
G1 X39.085 Y41.326 Z-6.000 F150000.000
G1 X48.415 Y41.326 Z-6.000 F150000.000
G1 X48.415 Y38.473 Z-6.000 F150000.000
G1 X39.085 Y38.473 Z-6.000 F150000.000
G1 X39.085 Y35.620 Z-6.000 F150000.000
G1 X48.415 Y35.620 Z-6.000 F150000.000
G1 X48.415 Y32.767 Z-6.000 F150000.000
G1 X39.085 Y32.767 Z-6.000 F150000.000
G1 X39.085 Y29.914 Z-6.000 F150000.000
G1 X48.415 Y29.914 Z-6.000 F150000.000
G1 X48.415 Y27.061 Z-6.000 F150000.000
G1 X39.085 Y27.061 Z-6.000 F150000.000
G1 X39.085 Y24.208 Z-6.000 F150000.000
G1 X48.415 Y24.208 Z-6.000 F150000.000
G1 X48.415 Y21.355 Z-6.000 F150000.000
G1 X39.085 Y21.355 Z-6.000 F150000.000
G1 X39.085 Y18.502 Z-6.000 F150000.000
G1 X48.415 Y18.502 Z-6.000 F150000.000
G1 X48.415 Y15.649 Z-6.000 F150000.000
G1 X39.085 Y15.649 Z-6.000 F150000.000
G1 X39.085 Y12.796 Z-6.000 F150000.000
G1 X48.415 Y12.796 Z-6.000 F150000.000
G1 X48.415 Y9.943 Z-6.000 F150000.000
G1 X39.085 Y9.943 Z-6.000 F150000.000
G1 X39.085 Y7.090 Z-6.000 F150000.000
G1 X48.415 Y7.090 Z-6.000 F150000.000
G1 X48.415 Y4.237 Z-6.000 F150000.000
G1 X39.085 Y4.237 Z-6.000 F150000.000
G1 X39.085 Y1.384 Z-6.000 F150000.000
G1 X48.415 Y1.384 Z-6.000 F150000.000
G1 X48.415 Y-1.469 Z-6.000 F150000.000
G1 X39.085 Y-1.469 Z-6.000 F150000.000
G1 X39.085 Y-4.322 Z-6.000 F150000.000
G1 X48.415 Y-4.322 Z-6.000 F150000.000
G1 X48.415 Y-7.175 Z-6.000 F150000.000
G1 X39.085 Y-7.175 Z-6.000 F150000.000
G1 X39.085 Y-10.028 Z-6.000 F150000.000
G1 X48.415 Y-10.028 Z-6.000 F150000.000
G1 X48.415 Y-12.881 Z-6.000 F150000.000
G1 X39.085 Y-12.881 Z-6.000 F150000.000
G1 X39.085 Y-15.734 Z-6.000 F150000.000
G1 X48.415 Y-15.734 Z-6.000 F150000.000
G1 X48.415 Y-18.587 Z-6.000 F150000.000
G1 X39.085 Y-18.587 Z-6.000 F150000.000
G1 X39.085 Y-21.440 Z-6.000 F150000.000
G1 X48.415 Y-21.440 Z-6.000 F150000.000
G1 X48.415 Y-24.293 Z-6.000 F150000.000
G1 X39.085 Y-24.293 Z-6.000 F150000.000
G1 X39.085 Y-27.146 Z-6.000 F150000.000
G1 X48.415 Y-27.146 Z-6.000 F150000.000
G1 X48.415 Y-29.999 Z-6.000 F150000.000
G1 X39.085 Y-29.999 Z-6.000 F150000.000
G1 X39.085 Y-32.852 Z-6.000 F150000.000
G1 X48.415 Y-32.852 Z-6.000 F150000.000
G1 X48.415 Y-35.705 Z-6.000 F150000.000
G1 X39.085 Y-35.705 Z-6.000 F150000.000
G1 X39.085 Y-38.558 Z-6.000 F150000.000
G1 X48.415 Y-38.558 Z-6.000 F150000.000
G1 X48.415 Y-41.411 Z-6.000 F150000.000
G1 X39.085 Y-41.411 Z-6.000 F150000.000
G1 X39.085 Y-44.264 Z-6.000 F150000.000
G1 X48.415 Y-44.264 Z-6.000 F150000.000
G1 X48.415 Y-47.117 Z-6.000 F150000.000
G1 X39.085 Y-47.117 Z-6.000 F150000.000
G1 X39.085 Y-49.970 Z-6.000 F150000.000
G1 X48.415 Y-49.970 Z-6.000 F150000.000
G1 X48.415 Y-52.823 Z-6.000 F150000.000
G1 X39.085 Y-52.823 Z-6.000 F150000.000
G2 X39.025 Y-55.195 Z-6.000 I-17.921 J-0.732 K0.000 F150000.000
G1 X38.943 Y-55.676 Z-6.000 F150000.000
G1 X48.415 Y-55.676 Z-6.000 F150000.000
G1 X48.415 Y-58.529 Z-6.000 F150000.000
G1 X37.758 Y-58.529 Z-6.000 F150000.000
G2 X36.863 Y-59.621 Z-6.000 I-5.878 J3.904 K0.000 F150000.000
G1 X35.102 Y-61.382 Z-6.000 F150000.000
G1 X48.415 Y-61.382 Z-6.000 F150000.000
G1 X48.415 Y-64.235 Z-6.000 F150000.000
G1 X32.249 Y-64.235 Z-6.000 F150000.000
G2 X30.573 Y-65.910 Z-6.000 I-30.752 J29.112 K0.000 F150000.000
G2 X28.998 Y-67.088 Z-6.000 I-5.112 J5.188 K0.000 F150000.000
G1 X48.415 Y-67.088 Z-6.000 F150000.000
G0 Z3.000
G0 Y-75.647 Z3.000
G0 Y-75.647 Z1.000
G1 X48.415 Y-75.647 Z-6.000 F90000.000
G1 X48.415 Y-78.415 Z-6.000 F150000.000
G1 X-48.415 Y-78.415 Z-6.000 F150000.000
G1 X-48.415 Y-75.647 Z-6.000 F150000.000
G1 X48.415 Y-75.647 Z-6.000 F150000.000
G1 X48.415 Y-72.794 Z-6.000 F150000.000
G1 X-48.415 Y-72.794 Z-6.000 F150000.000
G1 X-48.415 Y-69.941 Z-6.000 F150000.000
G1 X48.415 Y-69.941 Z-6.000 F150000.000
G1 X48.415 Y-67.088 Z-6.000 F150000.000
G1 X28.998 Y-67.088 Z-6.000 F150000.000
G2 X25.257 Y-68.085 Z-6.000 I-3.731 J6.482 K0.000 F150000.000
G1 X-25.257 Y-68.085 Z-6.000 F150000.000
G2 X-28.998 Y-67.088 Z-6.000 I-0.013 J7.467 K0.000 F150000.000
G1 X-48.415 Y-67.088 Z-6.000 F150000.000
G1 X-48.415 Y-64.235 Z-6.000 F150000.000
G1 X-32.249 Y-64.235 Z-6.000 F150000.000
G1 X-35.102 Y-61.382 Z-6.000 F150000.000
G1 X-48.415 Y-61.382 Z-6.000 F150000.000
G1 X-48.415 Y-58.529 Z-6.000 F150000.000
G1 X-37.758 Y-58.529 Z-6.000 F150000.000
G2 X-38.943 Y-55.676 Z-6.000 I5.987 J4.160 K0.000 F150000.000
G1 X-48.415 Y-55.676 Z-6.000 F150000.000
G1 X-48.415 Y-52.823 Z-6.000 F150000.000
G1 X-39.085 Y-52.823 Z-6.000 F150000.000
G1 X-39.085 Y-49.970 Z-6.000 F150000.000
G1 X-48.415 Y-49.970 Z-6.000 F150000.000
G1 X-48.415 Y-47.117 Z-6.000 F150000.000
G1 X-39.085 Y-47.117 Z-6.000 F150000.000
G1 X-39.085 Y-44.264 Z-6.000 F150000.000
G1 X-48.415 Y-44.264 Z-6.000 F150000.000
G1 X-48.415 Y-41.411 Z-6.000 F150000.000
G1 X-39.085 Y-41.411 Z-6.000 F150000.000
G1 X-39.085 Y-38.558 Z-6.000 F150000.000
G1 X-48.415 Y-38.558 Z-6.000 F150000.000
G1 X-48.415 Y-35.705 Z-6.000 F150000.000
G1 X-39.085 Y-35.705 Z-6.000 F150000.000
G1 X-39.085 Y-32.852 Z-6.000 F150000.000
G1 X-48.415 Y-32.852 Z-6.000 F150000.000
G1 X-48.415 Y-29.999 Z-6.000 F150000.000
G1 X-39.085 Y-29.999 Z-6.000 F150000.000
G1 X-39.085 Y-27.146 Z-6.000 F150000.000
G1 X-48.415 Y-27.146 Z-6.000 F150000.000
G1 X-48.415 Y-24.293 Z-6.000 F150000.000
G1 X-39.085 Y-24.293 Z-6.000 F150000.000
G1 X-39.085 Y-21.440 Z-6.000 F150000.000
G1 X-48.415 Y-21.440 Z-6.000 F150000.000
G1 X-48.415 Y-18.587 Z-6.000 F150000.000
G1 X-39.085 Y-18.587 Z-6.000 F150000.000
G1 X-39.085 Y-15.734 Z-6.000 F150000.000
G1 X-48.415 Y-15.734 Z-6.000 F150000.000
G1 X-48.415 Y-12.881 Z-6.000 F150000.000
G1 X-39.085 Y-12.881 Z-6.000 F150000.000
G1 X-39.085 Y-10.028 Z-6.000 F150000.000
G1 X-48.415 Y-10.028 Z-6.000 F150000.000
G1 X-48.415 Y-7.175 Z-6.000 F150000.000
G1 X-39.085 Y-7.175 Z-6.000 F150000.000
G1 X-39.085 Y-4.322 Z-6.000 F150000.000
G1 X-48.415 Y-4.322 Z-6.000 F150000.000
G1 X-48.415 Y-1.469 Z-6.000 F150000.000
G1 X-39.085 Y-1.469 Z-6.000 F150000.000
G1 X-39.085 Y1.384 Z-6.000 F150000.000
G1 X-48.415 Y1.384 Z-6.000 F150000.000
G1 X-48.415 Y4.237 Z-6.000 F150000.000
G1 X-39.085 Y4.237 Z-6.000 F150000.000
G1 X-39.085 Y7.090 Z-6.000 F150000.000
G1 X-48.415 Y7.090 Z-6.000 F150000.000
G1 X-48.415 Y9.943 Z-6.000 F150000.000
G1 X-39.085 Y9.943 Z-6.000 F150000.000
G1 X-39.085 Y12.796 Z-6.000 F150000.000
G1 X-48.415 Y12.796 Z-6.000 F150000.000
G1 X-48.415 Y15.649 Z-6.000 F150000.000
G1 X-39.085 Y15.649 Z-6.000 F150000.000
G1 X-39.085 Y18.502 Z-6.000 F150000.000
G1 X-48.415 Y18.502 Z-6.000 F150000.000
G1 X-48.415 Y21.355 Z-6.000 F150000.000
G1 X-39.085 Y21.355 Z-6.000 F150000.000
G1 X-39.085 Y24.208 Z-6.000 F150000.000
G1 X-48.415 Y24.208 Z-6.000 F150000.000
G1 X-48.415 Y27.061 Z-6.000 F150000.000
G1 X-39.085 Y27.061 Z-6.000 F150000.000
G1 X-39.085 Y29.914 Z-6.000 F150000.000
G1 X-48.415 Y29.914 Z-6.000 F150000.000
G1 X-48.415 Y32.767 Z-6.000 F150000.000
G1 X-39.085 Y32.767 Z-6.000 F150000.000
G1 X-39.085 Y35.620 Z-6.000 F150000.000
G1 X-48.415 Y35.620 Z-6.000 F150000.000
G1 X-48.415 Y38.473 Z-6.000 F150000.000
G1 X-39.085 Y38.473 Z-6.000 F150000.000
G1 X-39.085 Y41.326 Z-6.000 F150000.000
G1 X-48.415 Y41.326 Z-6.000 F150000.000
G1 X-48.415 Y44.179 Z-6.000 F150000.000
G1 X-39.085 Y44.179 Z-6.000 F150000.000
G1 X-39.085 Y47.032 Z-6.000 F150000.000
G1 X-48.415 Y47.032 Z-6.000 F150000.000
G1 X-48.415 Y49.885 Z-6.000 F150000.000
G1 X-39.085 Y49.885 Z-6.000 F150000.000
G1 X-39.085 Y52.738 Z-6.000 F150000.000
G1 X-48.415 Y52.738 Z-6.000 F150000.000
G1 X-48.415 Y55.591 Z-6.000 F150000.000
G1 X-38.958 Y55.591 Z-6.000 F150000.000
G2 X-37.818 Y58.444 Z-6.000 I7.209 J-1.225 K0.000 F150000.000
G1 X-48.415 Y58.444 Z-6.000 F150000.000
G1 X-48.415 Y61.297 Z-6.000 F150000.000
G1 X-35.187 Y61.297 Z-6.000 F150000.000
G1 X-32.334 Y64.150 Z-6.000 F150000.000
G1 X-48.415 Y64.150 Z-6.000 F150000.000
G1 X-48.415 Y67.003 Z-6.000 F150000.000
G1 X-29.152 Y67.003 Z-6.000 F150000.000
G0 Z3.000
G0 Z3.000
G0 X-29.152 Y67.003
G0 X-29.830 Y57.405
G0 X-29.830 Y57.405 Z1.000
G1 X-29.830 Y57.405 Z-3.333 F90000.000
G3 X-32.407 Y55.139 Z-3.333 I-0.170 J-2.405 K0.000 F150000.000
G3 X-31.846 Y53.427 Z-3.333 I2.608 J-0.093 K0.000 F150000.000
G2 X-31.207 Y51.379 Z-3.333 I-2.812 J-2.001 K0.000 F150000.000
G2 X-29.441 Y52.644 Z-3.333 I2.851 J-2.116 K0.000 F150000.000
G3 X-27.590 Y54.949 Z-3.333 I-0.581 J2.363 K0.000 F150000.000
G3 X-29.830 Y57.405 Z-3.333 I-2.410 J0.051 K0.000 F150000.000
G0 Z3.000
G0 X-29.905 Y57.409 Z3.000
G0 X-29.905 Y57.409 Z1.000
G1 X-29.905 Y57.409 Z-3.333 F90000.000
G3 X-32.365 Y54.556 Z-3.333 I-0.099 J-2.402 K0.000 F150000.000
G1 X-27.633 Y54.556 Z-3.333 F150000.000
G2 X-29.475 Y52.631 Z-3.333 I-2.433 J0.484 K0.000 F150000.000
G3 X-30.940 Y51.703 Z-3.333 I1.140 J-3.421 K0.000 F150000.000
G3 X-31.207 Y51.379 Z-3.333 I1.323 J-1.360 K0.000 F150000.000
G3 X-31.213 Y51.703 Z-3.333 I-2.250 J0.117 K0.000 F150000.000
G1 X-30.940 Y51.703 Z-3.333 F150000.000
G0 Z3.000
G0 X-31.931 Y49.207 Z3.000
G0 X-31.931 Y49.207 Z1.000
G1 X-31.931 Y49.207 Z-3.333 F90000.000
G2 X-33.091 Y48.190 Z-3.333 I-3.320 J2.617 K0.000 F150000.000
G3 X-32.019 Y46.729 Z-3.333 I0.591 J-0.690 K0.000 F150000.000
G3 X-31.592 Y47.539 Z-3.333 I-0.481 J0.771 K0.000 F150000.000
G3 X-31.878 Y48.639 Z-3.333 I-42.930 J-10.591 K0.000 F150000.000
G2 X-31.931 Y49.207 Z-3.333 I3.315 J0.592 K0.000 F150000.000
G0 Z3.000
G0 X-31.903 Y48.850 Z3.000
G0 X-31.903 Y48.850 Z1.000
G1 X-31.903 Y48.850 Z-3.333 F90000.000
G2 X-31.931 Y49.207 Z-3.333 I2.178 J0.352 K0.000 F150000.000
G2 X-32.251 Y48.850 Z-3.333 I-2.287 J1.730 K0.000 F150000.000
G1 X-31.903 Y48.850 Z-3.333 F150000.000
G3 X-31.613 Y47.698 Z-3.333 I7.147 J1.184 K0.000 F150000.000
G2 X-33.348 Y47.172 Z-3.333 I-0.887 J-0.198 K0.000 F150000.000
G2 X-32.840 Y48.370 Z-3.333 I0.920 J0.316 K0.000 F150000.000
G3 X-32.251 Y48.850 Z-3.333 I-1.351 J2.256 K0.000 F150000.000
G1 X-32.251 Y48.850 Z-4.667 F90000.000
G2 X-32.840 Y48.370 Z-4.667 I-1.939 J1.775 K0.000 F150000.000
G3 X-33.348 Y47.172 Z-4.667 I0.413 J-0.881 K0.000 F150000.000
G3 X-31.613 Y47.698 Z-4.667 I0.848 J0.328 K0.000 F150000.000
G2 X-31.903 Y48.850 Z-4.667 I6.858 J2.337 K0.000 F150000.000
G1 X-32.251 Y48.850 Z-4.667 F150000.000
G3 X-31.931 Y49.207 Z-4.667 I-1.966 J2.087 K0.000 F150000.000
G3 X-31.903 Y48.850 Z-4.667 I2.206 J-0.005 K0.000 F150000.000
G0 Z3.000
G0 X-31.909 Y48.849 Z3.000
G0 X-31.909 Y48.849 Z1.000
G1 X-31.909 Y48.849 Z-4.667 F90000.000
G2 X-31.931 Y49.207 Z-4.667 I3.346 J0.382 K0.000 F150000.000
G2 X-33.091 Y48.190 Z-4.667 I-3.320 J2.617 K0.000 F150000.000
G3 X-32.019 Y46.729 Z-4.667 I0.591 J-0.690 K0.000 F150000.000
G3 X-31.592 Y47.539 Z-4.667 I-0.481 J0.771 K0.000 F150000.000
G3 X-31.878 Y48.639 Z-4.667 I-42.930 J-10.591 K0.000 F150000.000
G2 X-31.909 Y48.849 Z-4.667 I3.315 J0.592 K0.000 F150000.000
G0 Z3.000
G0 X-31.207 Y51.379 Z3.000
G0 X-31.207 Y51.379 Z1.000
G1 X-31.207 Y51.379 Z-4.667 F90000.000
G2 X-29.441 Y52.644 Z-4.667 I2.851 J-2.116 K0.000 F150000.000
G3 X-27.590 Y54.949 Z-4.667 I-0.581 J2.363 K0.000 F150000.000
G3 X-32.407 Y55.139 Z-4.667 I-2.410 J0.051 K0.000 F150000.000
G3 X-31.846 Y53.427 Z-4.667 I2.608 J-0.093 K0.000 F150000.000
G2 X-31.207 Y51.379 Z-4.667 I-2.812 J-2.001 K0.000 F150000.000
G0 Z3.000
G0 X-30.940 Y51.703 Z3.000
G0 X-30.940 Y51.703 Z1.000
G1 X-30.940 Y51.703 Z-4.667 F90000.000
G1 X-31.213 Y51.703 Z-4.667 F150000.000
G2 X-31.207 Y51.379 Z-4.667 I-2.244 J-0.207 K0.000 F150000.000
G2 X-30.940 Y51.703 Z-4.667 I1.590 J-1.036 K0.000 F150000.000
G2 X-29.475 Y52.631 Z-4.667 I2.605 J-2.493 K0.000 F150000.000
G3 X-27.633 Y54.556 Z-4.667 I-0.591 J2.409 K0.000 F150000.000
G1 X-32.365 Y54.556 Z-4.667 F150000.000
G2 X-29.905 Y57.409 Z-4.667 I2.362 J0.451 K0.000 F150000.000
G1 X-29.905 Y57.409 Z-6.000 F90000.000
G3 X-32.365 Y54.556 Z-6.000 I-0.099 J-2.402 K0.000 F150000.000
G1 X-27.633 Y54.556 Z-6.000 F150000.000
G2 X-29.475 Y52.631 Z-6.000 I-2.433 J0.484 K0.000 F150000.000
G3 X-30.940 Y51.703 Z-6.000 I1.140 J-3.421 K0.000 F150000.000
G3 X-31.207 Y51.379 Z-6.000 I1.323 J-1.360 K0.000 F150000.000
G3 X-31.213 Y51.703 Z-6.000 I-2.250 J0.117 K0.000 F150000.000
G1 X-30.940 Y51.703 Z-6.000 F150000.000
G0 Z3.000
G0 X-30.938 Y51.701 Z3.000
G0 X-30.938 Y51.701 Z1.000
G1 X-30.938 Y51.701 Z-6.000 F90000.000
G2 X-29.441 Y52.644 Z-6.000 I2.581 J-2.437 K0.000 F150000.000
G3 X-27.590 Y54.949 Z-6.000 I-0.581 J2.363 K0.000 F150000.000
G3 X-32.407 Y55.139 Z-6.000 I-2.410 J0.051 K0.000 F150000.000
G3 X-31.846 Y53.427 Z-6.000 I2.608 J-0.093 K0.000 F150000.000
G2 X-31.207 Y51.379 Z-6.000 I-2.812 J-2.001 K0.000 F150000.000
G2 X-30.938 Y51.701 Z-6.000 I2.851 J-2.116 K0.000 F150000.000
G0 Z3.000
G0 X-31.931 Y49.207 Z3.000
G0 X-31.931 Y49.207 Z1.000
G1 X-31.931 Y49.207 Z-6.000 F90000.000
G2 X-33.091 Y48.190 Z-6.000 I-3.320 J2.617 K0.000 F150000.000
G3 X-32.019 Y46.729 Z-6.000 I0.591 J-0.690 K0.000 F150000.000
G3 X-31.592 Y47.539 Z-6.000 I-0.481 J0.771 K0.000 F150000.000
G3 X-31.878 Y48.639 Z-6.000 I-42.930 J-10.591 K0.000 F150000.000
G2 X-31.931 Y49.207 Z-6.000 I3.315 J0.592 K0.000 F150000.000
G0 Z3.000
G0 X-31.903 Y48.850 Z3.000
G0 X-31.903 Y48.850 Z1.000
G1 X-31.903 Y48.850 Z-6.000 F90000.000
G2 X-31.931 Y49.207 Z-6.000 I2.178 J0.352 K0.000 F150000.000
G2 X-32.251 Y48.850 Z-6.000 I-2.287 J1.730 K0.000 F150000.000
G1 X-31.903 Y48.850 Z-6.000 F150000.000
G3 X-31.613 Y47.698 Z-6.000 I7.147 J1.184 K0.000 F150000.000
G2 X-33.348 Y47.172 Z-6.000 I-0.887 J-0.198 K0.000 F150000.000
G2 X-32.840 Y48.370 Z-6.000 I0.920 J0.316 K0.000 F150000.000
G3 X-32.251 Y48.850 Z-6.000 I-1.351 J2.256 K0.000 F150000.000
G0 Z3.000
G0 Z3.000
G0 X-32.251 Y48.850
G0 X-32.498 Y-46.591
G0 X-32.498 Y-46.591 Z1.000
G1 X-32.498 Y-46.591 Z-3.333 F90000.000
G3 X-33.348 Y-47.172 Z-3.333 I-0.002 J-0.909 K0.000 F150000.000
G3 X-32.840 Y-48.370 Z-3.333 I0.920 J-0.316 K0.000 F150000.000
G2 X-31.931 Y-49.207 Z-3.333 I-2.015 J-3.099 K0.000 F150000.000
G2 X-31.613 Y-47.698 Z-3.333 I4.226 J-0.102 K0.000 F150000.000
G3 X-32.498 Y-46.591 Z-3.333 I-0.887 J0.198 K0.000 F150000.000
G0 Z3.000
G0 X-33.296 Y-47.066 Z3.000
G0 X-33.296 Y-47.066 Z1.000
G1 X-33.296 Y-47.066 Z-3.333 F90000.000
G2 X-31.613 Y-47.698 Z-3.333 I0.797 J-0.433 K0.000 F150000.000
G3 X-31.931 Y-49.207 Z-3.333 I3.908 J-1.611 K0.000 F150000.000
G3 X-33.091 Y-48.190 Z-3.333 I-3.320 J-2.617 K0.000 F150000.000
G2 X-33.296 Y-47.938 Z-3.333 I0.364 J0.504 K0.000 F150000.000
G2 X-33.296 Y-47.066 Z-3.333 I0.782 J0.436 K0.000 F150000.000
G1 X-33.296 Y-47.938 Z-3.333 F150000.000
G0 Z3.000
G0 X-31.207 Y-51.379 Z3.000
G0 X-31.207 Y-51.379 Z1.000
G1 X-31.207 Y-51.379 Z-3.333 F90000.000
G2 X-31.861 Y-53.451 Z-3.333 I-3.550 J-0.018 K0.000 F150000.000
G3 X-29.905 Y-57.409 Z-3.333 I1.866 J-1.540 K0.000 F150000.000
G3 X-29.475 Y-52.631 Z-3.333 I-0.106 J2.418 K0.000 F150000.000
G2 X-31.207 Y-51.379 Z-3.333 I1.054 J3.282 K0.000 F150000.000
G0 Z3.000
G0 X-30.443 Y-52.138 Z3.000
G0 X-30.443 Y-52.138 Z1.000
G1 X-30.443 Y-52.138 Z-3.333 F90000.000
G2 X-31.207 Y-51.379 Z-3.333 I1.983 J2.762 K0.000 F150000.000
G2 X-31.841 Y-53.420 Z-3.333 I-3.446 J-0.047 K0.000 F150000.000
G3 X-30.443 Y-57.364 Z-3.333 I1.854 J-1.563 K0.000 F150000.000
G1 X-30.443 Y-52.138 Z-3.333 F150000.000
G3 X-29.475 Y-52.631 Z-3.333 I2.013 J2.755 K0.000 F150000.000
G2 X-27.590 Y-54.949 Z-3.333 I-0.590 J-2.406 K0.000 F150000.000
G1 X-27.590 Y-54.949 Z-4.667 F90000.000
G3 X-29.475 Y-52.631 Z-4.667 I-2.476 J-0.088 K0.000 F150000.000
G2 X-30.443 Y-52.138 Z-4.667 I1.046 J3.248 K0.000 F150000.000
G1 X-30.443 Y-57.364 Z-4.667 F150000.000
